;CK-AN Post V22.1 SP190  run on 2024.02.28
%_N_ARKUSZ_2001_MPF
;$PATH=/_N_WKS_DIR/_N_ARKUSZ_2001_WPD
; (MAIN PROGRAM)
;*MODEL EAG_INSPIRE_ERIS
;DATE FEB 28 2024 
;*SHEET 2000.0000 1000.0000 1.5 0 1 0.0000 0.0000
;START= BOTTOM-LEFT
;MAT Steel 1.5 
;*T100  B 0.2000  
;(Laser End)
;PROCESS_END
;Start questions
;NumberOfSheets=1
;TRC Active
G90
V.E.SHEET_X=2000.0000
V.E.SHEET_Y=1000.0000
V.E.MATERIAL="ST000-01.50M-N2-F0"
V.E.ESTIMATION_TIME="00:59"
V.E.CONTOURS_QTY=107
LAT/MainParam
$IF V.E.START_PART!="SP0SC0"
$GOTO V.E.START_PART 
$ENDIF
 
;PART: 1
;CONTOUR: 1
[SP1SC1]
V.E.START_PART="SP1SC1"
V.E.ALL_CONTOURS="0"
;@@[DetailName(blacha2_009)]
N111 M116
N112 G00X20.0000Y20.0000 M57
N113 G90
N114 M50 ;Sensor ON
/N115 M10 ;Beam ON
N116 G131 V.E.ACC[14]
N117 G133 V.E.JERK[14]
#CONTOUR MODE [AUTO_DEV, PATH_DEV=0.1]
N118 G261
;(FastCut)
N119 T16 G42 ;(IGNORE_SIMULATION)
N120 M49 G01X17.4108Y21.5153 FV.E.FEEDRATE[14]   ;@@[ENTRY]
N121 G131 V.E.ACC[16]
N122 G133 V.E.JERK[16]
N123 G02X22.5892Y18.4847I2.5892J-1.5153 FV.E.FEEDRATE[16]
N124 G02X17.4108Y21.5153I-2.5892J1.5153
N125 G260
N126 M95
N127 M11 ;Beam OFF
N128 M53 ;ping pong from travel
;CONTOUR: 2
[SP1SC2]
V.E.START_PART="SP1SC2"
N129 M115
N130 G138 G40 G00X53.3467Y82.9852 M57
N131 G90
N132 M50 ;Sensor ON
/N133 M10 ;Beam ON
N134 G131 V.E.ACC[14]
N135 G133 V.E.JERK[14]
#CONTOUR MODE [AUTO_DEV, PATH_DEV=0.1]
N136 G261
;(FastCut)
N137 T15 G42 ;(IGNORE_SIMULATION)
N138 M49 G01X52.6610Y86.9260 FV.E.FEEDRATE[14]   ;@@[ENTRY]
N139 G131 V.E.ACC[15]
N140 G133 V.E.JERK[15]
N141 G02X58.4441Y82.8571I0.8571J-4.9260 FV.E.FEEDRATE[15]
N142 G03X82.8571Y58.4441I29.5559J5.1429
N143 G02X81.1429Y48.5921I-0.8571J-4.9260
N144 G02X48.5921Y81.1429I6.8571J39.4079
N145 G02X52.6610Y86.9260I4.9260J0.8571
N146 G260
N147 M95
N148 M11 ;Beam OFF
N149 M53 ;ping pong from travel
;CONTOUR: 3
[SP1SC3]
V.E.START_PART="SP1SC3"
N150 M115
N151 G138 G40 G00X77.7213Y92.5433 M57
N152 G90
N153 M50 ;Sensor ON
/N154 M10 ;Beam ON
N155 G131 V.E.ACC[14]
N156 G133 V.E.JERK[14]
#CONTOUR MODE [AUTO_DEV, PATH_DEV=0.1]
N157 G261
;(FastCut)
N158 T15 G42 ;(IGNORE_SIMULATION)
N159 M49 G01X73.8587Y91.5039 FV.E.FEEDRATE[14]   ;@@[ENTRY]
N160 G131 V.E.ACC[15]
N161 G133 V.E.JERK[15]
N162 G02X122.1413Y104.4961I24.1413J6.4961 FV.E.FEEDRATE[15]
N163 G02X73.8587Y91.5039I-24.1413J-6.4961
N164 G260
N165 M95
N166 M11 ;Beam OFF
N167 M53 ;ping pong from travel
;CONTOUR: 4
[SP1SC4]
V.E.START_PART="SP1SC4"
N168 M115
N169 G138 G40 G00X62.5442Y133.4558 M57
N170 G90
N171 M50 ;Sensor ON
/N172 M10 ;Beam ON
N173 G131 V.E.ACC[14]
N174 G133 V.E.JERK[14]
#CONTOUR MODE [AUTO_DEV, PATH_DEV=0.1]
N175 G261
;(FastCut)
N176 T15 G42 ;(IGNORE_SIMULATION)
N177 M49 G01X59.7157Y136.2843 FV.E.FEEDRATE[14]   ;@@[ENTRY]
N178 G131 V.E.ACC[15]
N179 G133 V.E.JERK[15]
N180 G02X81.1429Y147.4079I28.2843J-28.2843 FV.E.FEEDRATE[15]
N181 G02X82.8571Y137.5559I0.8571J-4.9260
N182 G03X58.4441Y113.1429I5.1429J-29.5559
N183 G02X48.5921Y114.8571I-4.9260J0.8571
N184 G02X59.7157Y136.2843I39.4079J-6.8571
N185 G260
N186 M95
N187 M11 ;Beam OFF
N188 M53 ;ping pong from travel
;CONTOUR: 5
[SP1SC5]
V.E.START_PART="SP1SC5"
N189 M116
N190 G138 G40 G00X20.0000Y176.0000 M57
N191 G90
N192 M50 ;Sensor ON
/N193 M10 ;Beam ON
N194 G131 V.E.ACC[14]
N195 G133 V.E.JERK[14]
#CONTOUR MODE [AUTO_DEV, PATH_DEV=0.1]
N196 G261
;(FastCut)
N197 T16 G42 ;(IGNORE_SIMULATION)
N198 M49 G01X21.1236Y178.7816 FV.E.FEEDRATE[14]   ;@@[ENTRY]
N199 G131 V.E.ACC[16]
N200 G133 V.E.JERK[16]
N201 G02X18.8764Y173.2184I-1.1236J-2.7816 FV.E.FEEDRATE[16]
N202 G02X21.1236Y178.7816I1.1236J2.7816
N203 G260
N204 M95
N205 M11 ;Beam OFF
N206 M53 ;ping pong from travel
;CONTOUR: 6
[SP1SC6]
V.E.START_PART="SP1SC6"
N207 M115
N208 G138 G40 G00X133.4558Y133.4558 M57
N209 G90
N210 M50 ;Sensor ON
/N211 M10 ;Beam ON
N212 G131 V.E.ACC[14]
N213 G133 V.E.JERK[14]
#CONTOUR MODE [AUTO_DEV, PATH_DEV=0.1]
N214 G261
;(FastCut)
N215 T15 G42 ;(IGNORE_SIMULATION)
N216 M49 G01X136.2843Y136.2843 FV.E.FEEDRATE[14]   ;@@[ENTRY]
N217 G131 V.E.ACC[15]
N218 G133 V.E.JERK[15]
N219 G02X147.4079Y114.8571I-28.2843J-28.2843 FV.E.FEEDRATE[15]
N220 G02X137.5559Y113.1429I-4.9260J-0.8571
N221 G03X113.1429Y137.5559I-29.5559J-5.1429
N222 G02X114.8571Y147.4079I0.8571J4.9260
N223 G02X136.2843Y136.2843I-6.8571J-39.4079
N224 G260
N225 M95
N226 M11 ;Beam OFF
N227 M53 ;ping pong from travel
;CONTOUR: 7
[SP1SC7]
V.E.START_PART="SP1SC7"
N228 M116
N229 G138 G40 G00X176.0000Y176.0000 M57
N230 G90
N231 M50 ;Sensor ON
/N232 M10 ;Beam ON
N233 G131 V.E.ACC[14]
N234 G133 V.E.JERK[14]
#CONTOUR MODE [AUTO_DEV, PATH_DEV=0.1]
N235 G261
;(FastCut)
N236 T16 G42 ;(IGNORE_SIMULATION)
N237 M49 G01X178.7816Y174.8764 FV.E.FEEDRATE[14]   ;@@[ENTRY]
N238 G131 V.E.ACC[16]
N239 G133 V.E.JERK[16]
N240 G02X173.2184Y177.1236I-2.7816J1.1236 FV.E.FEEDRATE[16]
N241 G02X178.7816Y174.8764I2.7816J-1.1236
N242 G260
N243 M95
N244 M11 ;Beam OFF
N245 M53 ;ping pong from travel
;CONTOUR: 8
[SP1SC8]
V.E.START_PART="SP1SC8"
N246 M115
N247 G138 G40 G00X133.4558Y62.5442 M57
N248 G90
N249 M50 ;Sensor ON
/N250 M10 ;Beam ON
N251 G131 V.E.ACC[14]
N252 G133 V.E.JERK[14]
#CONTOUR MODE [AUTO_DEV, PATH_DEV=0.1]
N253 G261
;(FastCut)
N254 T15 G42 ;(IGNORE_SIMULATION)
N255 M49 G01X136.2843Y59.7157 FV.E.FEEDRATE[14]   ;@@[ENTRY]
N256 G131 V.E.ACC[15]
N257 G133 V.E.JERK[15]
N258 G02X114.8571Y48.5921I-28.2843J28.2843 FV.E.FEEDRATE[15]
N259 G02X113.1429Y58.4441I-0.8571J4.9260
N260 G03X137.5559Y82.8571I-5.1429J29.5559
N261 G02X147.4079Y81.1429I4.9260J-0.8571
N262 G02X136.2843Y59.7157I-39.4079J6.8571
N263 G260
N264 M95
N265 M11 ;Beam OFF
N266 M53 ;ping pong from travel
;CONTOUR: 9
[SP1SC9]
V.E.START_PART="SP1SC9"
N267 M116
N268 G138 G40 G00X176.0000Y20.0000 M57
N269 G90
N270 M50 ;Sensor ON
/N271 M10 ;Beam ON
N272 G131 V.E.ACC[14]
N273 G133 V.E.JERK[14]
#CONTOUR MODE [AUTO_DEV, PATH_DEV=0.1]
N274 G261
;(FastCut)
N275 T16 G42 ;(IGNORE_SIMULATION)
N276 M49 G01X178.1434Y22.0991 FV.E.FEEDRATE[14]   ;@@[ENTRY]
N277 G131 V.E.ACC[16]
N278 G133 V.E.JERK[16]
N279 G02X173.8566Y17.9009I-2.1434J-2.0991 FV.E.FEEDRATE[16]
N280 G02X178.1434Y22.0991I2.1434J2.0991
N281 G260
N282 M95
N283 M11 ;Beam OFF
N284 M53 ;ping pong from travel
;CONTOUR: 10
[SP1SC10]
V.E.START_PART="SP1SC10"
V.E.ALL_CONTOURS="1"
N285 M115
N286 G138 G40 G00X98.0000Y192.0000 M57
N287 G90
N288 M50 ;Sensor ON
/N289 M10 ;Beam ON
N290 G131 V.E.ACC[14]
N291 G133 V.E.JERK[14]
#CONTOUR MODE [AUTO_DEV, PATH_DEV=0.1]
N292 G261
;(FastCut)
N293 T15 G41 ;(IGNORE_SIMULATION)
N294 M49 G01X98.0000Y188.0000 FV.E.FEEDRATE[14]   ;@@[ENTRY]
N295 G131 V.E.ACC[15]
N296 G133 V.E.JERK[15]
N297 G01X188.0000Y188.0000 FV.E.FEEDRATE[15]
N298 G01X188.0000Y8.0000
N299 G01X8.0000Y8.0000
N300 G01X8.0000Y188.0000
N301 G01X98.0000Y188.0000
N302 G260
N303 M96
N304 M11 ;Beam OFF
N305 M53 ;ping pong from travel
 
;PART: 2
;CONTOUR: 1
[SP2SC1]
V.E.START_PART="SP2SC1"
V.E.ALL_CONTOURS="0"
;@@[DetailName(blacha2_008)]
N306 M117
N307 G138 G40 G00X92.0000Y200.0000 M57
N308 G90
N309 M50 ;Sensor ON
/N310 M10 ;Beam ON
N311 G131 V.E.ACC[14]
N312 G133 V.E.JERK[14]
#CONTOUR MODE [AUTO_DEV, PATH_DEV=0.1]
N313 G261
;(FastCut)
N314 T17 G42 ;(IGNORE_SIMULATION)
N315 M49 G01X91.1932Y198.7355 FV.E.FEEDRATE[14]   ;@@[ENTRY]
N316 G131 V.E.ACC[17]
N317 G133 V.E.JERK[17]
N318 G02X92.8068Y201.2645I0.8068J1.2645 FV.E.FEEDRATE[17]
N319 G02X91.1932Y198.7355I-0.8068J-1.2645
N320 G260
N321 M95
N322 M11 ;Beam OFF
N323 M53 ;ping pong from travel
;CONTOUR: 2
[SP2SC2]
V.E.START_PART="SP2SC2"
N324 M115
N325 G138 G40 G00X62.4778Y217.0162 M57
N326 G90
N327 M50 ;Sensor ON
/N328 M10 ;Beam ON
N329 G131 V.E.ACC[14]
N330 G133 V.E.JERK[14]
#CONTOUR MODE [AUTO_DEV, PATH_DEV=0.1]
N331 G261
;(FastCut)
N332 T15 G42 ;(IGNORE_SIMULATION)
N333 M49 G01X58.5370Y216.3305 FV.E.FEEDRATE[14]   ;@@[ENTRY]
N334 G131 V.E.ACC[15]
N335 G133 V.E.JERK[15]
N336 G02X60.5714Y219.2221I2.4630J0.4286 FV.E.FEEDRATE[15]
N337 G03X72.7780Y231.4286I-2.5714J14.7779
N338 G02X77.7039Y230.5714I2.4629J-0.4286
N339 G02X61.4286Y214.2961I-19.7039J3.4286
N340 G02X58.5370Y216.3305I-0.4286J2.4630
N341 G260
N342 M95
N343 M11 ;Beam OFF
N344 M53 ;ping pong from travel
;CONTOUR: 3
[SP2SC3]
V.E.START_PART="SP2SC3"
N345 M115
N346 G138 G40 G00X31.0162Y229.5222 M57
N347 G90
N348 M50 ;Sensor ON
/N349 M10 ;Beam ON
N350 G131 V.E.ACC[14]
N351 G133 V.E.JERK[14]
#CONTOUR MODE [AUTO_DEV, PATH_DEV=0.1]
N352 G261
;(FastCut)
N353 T15 G42 ;(IGNORE_SIMULATION)
N354 M49 G01X30.3305Y233.4630 FV.E.FEEDRATE[14]   ;@@[ENTRY]
N355 G131 V.E.ACC[15]
N356 G133 V.E.JERK[15]
N357 G02X33.2221Y231.4286I0.4286J-2.4630 FV.E.FEEDRATE[15]
N358 G03X45.4286Y219.2221I14.7779J2.5714
N359 G02X44.5714Y214.2961I-0.4286J-2.4630
N360 G02X28.2961Y230.5714I3.4286J19.7039
N361 G02X30.3305Y233.4630I2.4630J0.4286
N362 G260
N363 M95
N364 M11 ;Beam OFF
N365 M53 ;ping pong from travel
;CONTOUR: 4
[SP2SC4]
V.E.START_PART="SP2SC4"
N366 M115
N367 G138 G40 G00X43.5222Y260.9838 M57
N368 G90
N369 M50 ;Sensor ON
/N370 M10 ;Beam ON
N371 G131 V.E.ACC[14]
N372 G133 V.E.JERK[14]
#CONTOUR MODE [AUTO_DEV, PATH_DEV=0.1]
N373 G261
;(FastCut)
N374 T15 G42 ;(IGNORE_SIMULATION)
N375 M49 G01X47.4630Y261.6695 FV.E.FEEDRATE[14]   ;@@[ENTRY]
N376 G131 V.E.ACC[15]
N377 G133 V.E.JERK[15]
N378 G02X45.4286Y258.7780I-2.4630J-0.4286 FV.E.FEEDRATE[15]
N379 G03X33.2221Y246.5714I2.5714J-14.7780
N380 G02X28.2961Y247.4286I-2.4630J0.4286
N381 G02X44.5714Y263.7039I19.7039J-3.4286
N382 G02X47.4630Y261.6695I0.4286J-2.4630
N383 G260
N384 M95
N385 M11 ;Beam OFF
N386 M53 ;ping pong from travel
;CONTOUR: 5
[SP2SC5]
V.E.START_PART="SP2SC5"
N387 M115
N388 G138 G40 G00X74.9838Y248.4778 M57
N389 G90
N390 M50 ;Sensor ON
/N391 M10 ;Beam ON
N392 G131 V.E.ACC[14]
N393 G133 V.E.JERK[14]
#CONTOUR MODE [AUTO_DEV, PATH_DEV=0.1]
N394 G261
;(FastCut)
N395 T15 G42 ;(IGNORE_SIMULATION)
N396 M49 G01X75.6695Y244.5370 FV.E.FEEDRATE[14]   ;@@[ENTRY]
N397 G131 V.E.ACC[15]
N398 G133 V.E.JERK[15]
N399 G02X72.7780Y246.5714I-0.4286J2.4630 FV.E.FEEDRATE[15]
N400 G03X60.5714Y258.7780I-14.7780J-2.5714
N401 G02X61.4286Y263.7039I0.4286J2.4629
N402 G02X77.7039Y247.4286I-3.4286J-19.7039
N403 G02X75.6695Y244.5370I-2.4630J-0.4286
N404 G260
N405 M95
N406 M11 ;Beam OFF
N407 M53 ;ping pong from travel
;CONTOUR: 6
[SP2SC6]
V.E.START_PART="SP2SC6"
N408 M115
N409 G138 G40 G00X57.4918Y231.7838 M57
N410 G90
N411 M50 ;Sensor ON
/N412 M10 ;Beam ON
N413 G131 V.E.ACC[14]
N414 G133 V.E.JERK[14]
#CONTOUR MODE [AUTO_DEV, PATH_DEV=0.1]
N415 G261
;(FastCut)
N416 T15 G42 ;(IGNORE_SIMULATION)
N417 M49 G01X59.6056Y228.3880 FV.E.FEEDRATE[14]   ;@@[ENTRY]
N418 G131 V.E.ACC[15]
N419 G133 V.E.JERK[15]
N420 G02X46.3944Y249.6120I-6.6056J10.6120 FV.E.FEEDRATE[15]
N421 G02X59.6056Y228.3880I6.6056J-10.6120
N422 G260
N423 M95
N424 M11 ;Beam OFF
N425 M53 ;ping pong from travel
;CONTOUR: 7
[SP2SC7]
V.E.START_PART="SP2SC7"
N426 M117
N427 G138 G40 G00X14.0000Y200.0000 M57
N428 G90
N429 M50 ;Sensor ON
/N430 M10 ;Beam ON
N431 G131 V.E.ACC[14]
N432 G133 V.E.JERK[14]
#CONTOUR MODE [AUTO_DEV, PATH_DEV=0.1]
N433 G261
;(FastCut)
N434 T17 G42 ;(IGNORE_SIMULATION)
N435 M49 G01X12.5003Y200.0288 FV.E.FEEDRATE[14]   ;@@[ENTRY]
N436 G131 V.E.ACC[17]
N437 G133 V.E.JERK[17]
N438 G02X15.4997Y199.9712I1.4997J-0.0288 FV.E.FEEDRATE[17]
N439 G02X12.5003Y200.0288I-1.4997J0.0288
N440 G260
N441 M95
N442 M11 ;Beam OFF
N443 M53 ;ping pong from travel
;CONTOUR: 8
[SP2SC8]
V.E.START_PART="SP2SC8"
N444 M117
N445 G138 G40 G00X14.0000Y278.0000 M57
N446 G90
N447 M50 ;Sensor ON
/N448 M10 ;Beam ON
N449 G131 V.E.ACC[14]
N450 G133 V.E.JERK[14]
#CONTOUR MODE [AUTO_DEV, PATH_DEV=0.1]
N451 G261
;(FastCut)
N452 T17 G42 ;(IGNORE_SIMULATION)
N453 M49 G01X14.0288Y279.4997 FV.E.FEEDRATE[14]   ;@@[ENTRY]
N454 G131 V.E.ACC[17]
N455 G133 V.E.JERK[17]
N456 G02X13.9712Y276.5003I-0.0288J-1.4997 FV.E.FEEDRATE[17]
N457 G02X14.0288Y279.4997I0.0288J1.4997
N458 G260
N459 M95
N460 M11 ;Beam OFF
N461 M53 ;ping pong from travel
;CONTOUR: 9
[SP2SC9]
V.E.START_PART="SP2SC9"
N462 M117
N463 G138 G40 G00X92.0000Y278.0000 M57
N464 G90
N465 M50 ;Sensor ON
/N466 M10 ;Beam ON
N467 G131 V.E.ACC[14]
N468 G133 V.E.JERK[14]
#CONTOUR MODE [AUTO_DEV, PATH_DEV=0.1]
N469 G261
;(FastCut)
N470 T17 G42 ;(IGNORE_SIMULATION)
N471 M49 G01X90.8269Y278.9347 FV.E.FEEDRATE[14]   ;@@[ENTRY]
N472 G131 V.E.ACC[17]
N473 G133 V.E.JERK[17]
N474 G02X93.1731Y277.0653I1.1731J-0.9347 FV.E.FEEDRATE[17]
N475 G02X90.8269Y278.9347I-1.1731J0.9347
N476 G260
N477 M95
N478 M11 ;Beam OFF
N479 M53 ;ping pong from travel
;CONTOUR: 10
[SP2SC10]
V.E.START_PART="SP2SC10"
V.E.ALL_CONTOURS="1"
N480 M115
N481 G138 G40 G00X98.0000Y288.0000 M57
N482 G90
N483 M50 ;Sensor ON
/N484 M10 ;Beam ON
N485 G131 V.E.ACC[14]
N486 G133 V.E.JERK[14]
#CONTOUR MODE [AUTO_DEV, PATH_DEV=0.1]
N487 G261
;(FastCut)
N488 T15 G41 ;(IGNORE_SIMULATION)
N489 M49 G01X98.0000Y284.0000 FV.E.FEEDRATE[14]   ;@@[ENTRY]
N490 G131 V.E.ACC[15]
N491 G133 V.E.JERK[15]
N492 G01X98.0000Y194.0000 FV.E.FEEDRATE[15]
N493 G01X8.0000Y194.0000
N494 G01X8.0000Y284.0000
N495 G01X98.0000Y284.0000
N496 G260
N497 M96
N498 M11 ;Beam OFF
N499 M53 ;ping pong from travel
 
;PART: 3
;CONTOUR: 1
[SP3SC1]
V.E.START_PART="SP3SC1"
V.E.ALL_CONTOURS="0"
;@@[DetailName(blacha2_007)]
N500 M115
N501 G138 G40 G00X100.5907Y305.0679 M57
N502 G90
N503 M50 ;Sensor ON
/N504 M10 ;Beam ON
N505 G131 V.E.ACC[14]
N506 G133 V.E.JERK[14]
#CONTOUR MODE [AUTO_DEV, PATH_DEV=0.1]
N507 G261
;(FastCut)
N508 T15 G42 ;(IGNORE_SIMULATION)
N509 M49 G01X99.9499Y301.1196 FV.E.FEEDRATE[14]   ;@@[ENTRY]
N510 G131 V.E.ACC[15]
N511 G133 V.E.JERK[15]
N512 G02X103.9548Y325.7967I2.0025J12.3386 FV.E.FEEDRATE[15]
N513 G02X99.9499Y301.1196I-2.0024J-12.3385
N514 G260
N515 M95
N516 M11 ;Beam OFF
N517 M53 ;ping pong from travel
;CONTOUR: 2
[SP3SC2]
V.E.START_PART="SP3SC2"
N518 M115
N519 G138 G40 G00X57.8939Y307.9061 M57
N520 G90
N521 M50 ;Sensor ON
/N522 M10 ;Beam ON
N523 G131 V.E.ACC[14]
N524 G133 V.E.JERK[14]
#CONTOUR MODE [AUTO_DEV, PATH_DEV=0.1]
N525 G261
;(FastCut)
N526 T15 G42 ;(IGNORE_SIMULATION)
N527 M49 G01X54.8651Y305.2934 FV.E.FEEDRATE[14]   ;@@[ENTRY]
N528 G131 V.E.ACC[15]
N529 G133 V.E.JERK[15]
N530 G02X73.7952Y321.6229I9.4650J8.1648 FV.E.FEEDRATE[15]
N531 G02X54.8651Y305.2934I-9.4651J-8.1647
N532 G260
N533 M95
N534 M11 ;Beam OFF
N535 M53 ;ping pong from travel
;CONTOUR: 3
[SP3SC3]
V.E.START_PART="SP3SC3"
N536 M115
N537 G138 G40 G00X27.0106Y337.5253 M57
N538 G90
N539 M50 ;Sensor ON
/N540 M10 ;Beam ON
N541 G131 V.E.ACC[14]
N542 G133 V.E.JERK[14]
#CONTOUR MODE [AUTO_DEV, PATH_DEV=0.1]
N543 G261
;(FastCut)
N544 T15 G42 ;(IGNORE_SIMULATION)
N545 M49 G01X23.0110Y337.4707 FV.E.FEEDRATE[14]   ;@@[ENTRY]
N546 G131 V.E.ACC[15]
N547 G133 V.E.JERK[15]
N548 G02X48.0087Y337.8118I12.4988J0.1705 FV.E.FEEDRATE[15]
N549 G02X23.0110Y337.4707I-12.4989J-0.1706
N550 G260
N551 M95
N552 M11 ;Beam OFF
N553 M53 ;ping pong from travel
;CONTOUR: 4
[SP3SC4]
V.E.START_PART="SP3SC4"
N554 M115
N555 G138 G40 G00X22.3915Y380.0663 M57
N556 G90
N557 M50 ;Sensor ON
/N558 M10 ;Beam ON
N559 G131 V.E.ACC[14]
N560 G133 V.E.JERK[14]
#CONTOUR MODE [AUTO_DEV, PATH_DEV=0.1]
N561 G261
;(FastCut)
N562 T15 G42 ;(IGNORE_SIMULATION)
N563 M49 G01X19.2926Y382.5954 FV.E.FEEDRATE[14]   ;@@[ENTRY]
N564 G131 V.E.ACC[15]
N565 G133 V.E.JERK[15]
N566 G02X38.6610Y366.7884I9.6842J-7.9035 FV.E.FEEDRATE[15]
N567 G02X19.2926Y382.5954I-9.6842J7.9035
N568 G260
N569 M95
N570 M11 ;Beam OFF
N571 M53 ;ping pong from travel
;CONTOUR: 5
[SP3SC5]
V.E.START_PART="SP3SC5"
N572 M115
N573 G138 G40 G00X46.1983Y415.6237 M57
N574 G90
N575 M50 ;Sensor ON
/N576 M10 ;Beam ON
N577 G131 V.E.ACC[14]
N578 G133 V.E.JERK[14]
#CONTOUR MODE [AUTO_DEV, PATH_DEV=0.1]
N579 G261
;(FastCut)
N580 T15 G42 ;(IGNORE_SIMULATION)
N581 M49 G01X45.4503Y419.5532 FV.E.FEEDRATE[14]   ;@@[ENTRY]
N582 G131 V.E.ACC[15]
N583 G133 V.E.JERK[15]
N584 G02X50.1256Y394.9942I2.3376J-12.2795 FV.E.FEEDRATE[15]
N585 G02X45.4503Y419.5532I-2.3377J12.2795
N586 G260
N587 M95
N588 M11 ;Beam OFF
N589 M53 ;ping pong from travel
;CONTOUR: 6
[SP3SC6]
V.E.START_PART="SP3SC6"
N590 M115
N591 G138 G40 G00X87.2936Y427.5580 M57
N592 G90
N593 M50 ;Sensor ON
/N594 M10 ;Beam ON
N595 G131 V.E.ACC[14]
N596 G133 V.E.JERK[14]
#CONTOUR MODE [AUTO_DEV, PATH_DEV=0.1]
N597 G261
;(FastCut)
N598 T15 G42 ;(IGNORE_SIMULATION)
N599 M49 G01X89.2477Y431.0482 FV.E.FEEDRATE[14]   ;@@[ENTRY]
N600 G131 V.E.ACC[15]
N601 G133 V.E.JERK[15]
N602 G02X77.0348Y409.2343I-6.1065J-10.9070 FV.E.FEEDRATE[15]
N603 G02X89.2477Y431.0482I6.1064J10.9069
N604 G260
N605 M95
N606 M11 ;Beam OFF
N607 M53 ;ping pong from travel
;CONTOUR: 7
[SP3SC7]
V.E.START_PART="SP3SC7"
N608 M115
N609 G138 G40 G00X126.4518Y410.2625 M57
N610 G90
N611 M50 ;Sensor ON
/N612 M10 ;Beam ON
N613 G131 V.E.ACC[14]
N614 G133 V.E.JERK[14]
#CONTOUR MODE [AUTO_DEV, PATH_DEV=0.1]
N615 G261
;(FastCut)
N616 T15 G42 ;(IGNORE_SIMULATION)
N617 M49 G01X130.1963Y411.6691 FV.E.FEEDRATE[14]   ;@@[ENTRY]
N618 G131 V.E.ACC[15]
N619 G133 V.E.JERK[15]
N620 G02X106.7928Y402.8783I-11.7017J-4.3954 FV.E.FEEDRATE[15]
N621 G02X130.1963Y411.6691I11.7018J4.3954
N622 G260
N623 M95
N624 M11 ;Beam OFF
N625 M53 ;ping pong from travel
;CONTOUR: 8
[SP3SC8]
V.E.START_PART="SP3SC8"
N626 M115
N627 G138 G40 G00X145.2556Y371.6837 M57
N628 G90
N629 M50 ;Sensor ON
/N630 M10 ;Beam ON
N631 G131 V.E.ACC[14]
N632 G133 V.E.JERK[14]
#CONTOUR MODE [AUTO_DEV, PATH_DEV=0.1]
N633 G261
;(FastCut)
N634 T15 G42 ;(IGNORE_SIMULATION)
N635 M49 G01X148.9967Y370.2681 FV.E.FEEDRATE[14]   ;@@[ENTRY]
N636 G131 V.E.ACC[15]
N637 G133 V.E.JERK[15]
N638 G02X125.6147Y379.1157I-11.6910J4.4238 FV.E.FEEDRATE[15]
N639 G02X148.9967Y370.2681I11.6910J-4.4238
N640 G260
N641 M95
N642 M11 ;Beam OFF
N643 M53 ;ping pong from travel
;CONTOUR: 9
[SP3SC9]
V.E.START_PART="SP3SC9"
N644 M115
N645 G138 G40 G00X138.2295Y341.7211 M57
N646 G90
N647 M50 ;Sensor ON
/N648 M10 ;Beam ON
N649 G131 V.E.ACC[14]
N650 G133 V.E.JERK[14]
#CONTOUR MODE [AUTO_DEV, PATH_DEV=0.1]
N651 G261
;(FastCut)
N652 T15 G42 ;(IGNORE_SIMULATION)
N653 M49 G01X141.7386Y343.6411 FV.E.FEEDRATE[14]   ;@@[ENTRY]
N654 G131 V.E.ACC[15]
N655 G133 V.E.JERK[15]
N656 G02X119.8067Y331.6414I-10.9660J-5.9999 FV.E.FEEDRATE[15]
N657 G02X141.7386Y343.6411I10.9659J5.9998
N658 G260
N659 M95
N660 M11 ;Beam OFF
N661 M53 ;ping pong from travel
;CONTOUR: 10
[SP3SC10]
V.E.START_PART="SP3SC10"
V.E.ALL_CONTOURS="1"
N662 M115
N663 G138 G40 G00X139.9537Y420.0352 M57
N664 G90
N665 M50 ;Sensor ON
/N666 M10 ;Beam ON
N667 G131 V.E.ACC[14]
N668 G133 V.E.JERK[14]
#CONTOUR MODE [AUTO_DEV, PATH_DEV=0.1]
N669 G261
;(FastCut)
N670 T15 G41 ;(IGNORE_SIMULATION)
N671 M49 G01X137.0771Y417.2557 FV.E.FEEDRATE[14]   ;@@[ENTRY]
N672 G131 V.E.ACC[15]
N673 G133 V.E.JERK[15]
N674 G02X29.2054Y313.0268I-53.9359J-52.1145 FV.E.FEEDRATE[15]
N675 G02X137.0771Y417.2557I53.9358J52.1144
N676 G260
N677 M96
N678 M11 ;Beam OFF
N679 M53 ;ping pong from travel
 
;PART: 4
;CONTOUR: 1
[SP4SC1]
V.E.START_PART="SP4SC1"
V.E.ALL_CONTOURS="0"
;@@[DetailName(blacha2_010)]
N680 M115
N681 G138 G40 G00X149.7219Y439.8350 M57
N682 G90
N683 M50 ;Sensor ON
/N684 M10 ;Beam ON
N685 G131 V.E.ACC[14]
N686 G133 V.E.JERK[14]
#CONTOUR MODE [AUTO_DEV, PATH_DEV=0.1]
N687 G261
;(FastCut)
N688 T15 G42 ;(IGNORE_SIMULATION)
N689 M49 G01X145.7519Y440.3244 FV.E.FEEDRATE[14]   ;@@[ENTRY]
N690 G131 V.E.ACC[15]
N691 G133 V.E.JERK[15]
N692 G01X160.3507Y448.7530 FV.E.FEEDRATE[15]
N693 G01X166.5385Y424.0353
N694 G01X164.0641Y422.6068
N695 G01X145.7519Y440.3244
N696 G260
N697 M95
N698 M11 ;Beam OFF
N699 M53 ;ping pong from travel
;CONTOUR: 2
[SP4SC2]
V.E.START_PART="SP4SC2"
V.E.ALL_CONTOURS="1"
N700 M115
N701 G138 G40 G00X92.4359Y463.8133 M57
N702 G90
N703 M50 ;Sensor ON
/N704 M10 ;Beam ON
N705 G131 V.E.ACC[14]
N706 G133 V.E.JERK[14]
#CONTOUR MODE [AUTO_DEV, PATH_DEV=0.1]
N707 G261
;(FastCut)
N708 T15 G41 ;(IGNORE_SIMULATION)
N709 M49 G01X95.9000Y465.8133 FV.E.FEEDRATE[14]   ;@@[ENTRY]
N710 G131 V.E.ACC[15]
N711 G133 V.E.JERK[15]
N712 G01X110.6225Y474.3133 FV.E.FEEDRATE[15]
N713 G01X136.7827Y449.0024
N714 G01X157.3199Y460.8596
N715 G01X148.4801Y496.1704
N716 G01X163.2026Y504.6704
N717 G01X184.2917Y420.4288
N718 G01X158.3109Y405.4288
N719 G01X95.9000Y465.8133
N720 G260
N721 M96
N722 M11 ;Beam OFF
N723 M53 ;ping pong from travel
 
;PART: 5
;CONTOUR: 1
[SP5SC1]
V.E.START_PART="SP5SC1"
V.E.ALL_CONTOURS="0"
;@@[DetailName(blacha2_018)]
N724 M115
N725 G138 G40 G00X45.2387Y543.4998 M57
N726 G90
N727 M50 ;Sensor ON
/N728 M10 ;Beam ON
N729 G131 V.E.ACC[14]
N730 G133 V.E.JERK[14]
#CONTOUR MODE [AUTO_DEV, PATH_DEV=0.1]
N731 G261
;(FastCut)
N732 T15 G42 ;(IGNORE_SIMULATION)
N733 M49 G01X45.3491Y547.4983 FV.E.FEEDRATE[14]   ;@@[ENTRY]
N734 G131 V.E.ACC[15]
N735 G133 V.E.JERK[15]
N736 G02X43.8304Y492.5192I-0.7593J-27.4895 FV.E.FEEDRATE[15]
N737 G02X45.3491Y547.4983I0.7594J27.4896
N738 G260
N739 M95
N740 M11 ;Beam OFF
N741 M53 ;ping pong from travel
;CONTOUR: 2
[SP5SC2]
V.E.START_PART="SP5SC2"
V.E.ALL_CONTOURS="1"
N742 M115
N743 G138 G40 G00X79.8846Y546.5003 M57
N744 G90
N745 M50 ;Sensor ON
/N746 M10 ;Beam ON
N747 G131 V.E.ACC[14]
N748 G133 V.E.JERK[14]
#CONTOUR MODE [AUTO_DEV, PATH_DEV=0.1]
N749 G261
;(FastCut)
N750 T15 G41 ;(IGNORE_SIMULATION)
N751 M49 G01X77.8846Y543.0362 FV.E.FEEDRATE[14]   ;@@[ENTRY]
N752 G131 V.E.ACC[15]
N753 G133 V.E.JERK[15]
N754 G01X147.7693Y502.6882 FV.E.FEEDRATE[15]
N755 G01X8.0000Y421.9924
N756 G01X8.0000Y583.3841
N757 G01X77.8846Y543.0362
N758 G260
N759 M96
N760 M11 ;Beam OFF
N761 M53 ;ping pong from travel
 
;PART: 6
;CONTOUR: 1
[SP6SC1]
V.E.START_PART="SP6SC1"
V.E.ALL_CONTOURS="0"
;@@[DetailName(blacha2_016)]
V.E.ALL_CONTOURS="1"
N762 M115
N763 G138 G40 G00X100.4556Y630.8731 M57
N764 G90
N765 M50 ;Sensor ON
/N766 M10 ;Beam ON
N767 G131 V.E.ACC[14]
N768 G133 V.E.JERK[14]
#CONTOUR MODE [AUTO_DEV, PATH_DEV=0.1]
N769 G261
;(FastCut)
N770 T15 G41 ;(IGNORE_SIMULATION)
N771 M49 G01X102.4556Y627.4090 FV.E.FEEDRATE[14]   ;@@[ENTRY]
N772 G131 V.E.ACC[15]
N773 G133 V.E.JERK[15]
N774 G01X172.3403Y667.7569 FV.E.FEEDRATE[15]
N775 G01X172.3403Y506.3653
N776 G01X32.5710Y587.0611
N777 G01X102.4556Y627.4090
N778 G260
N779 M96
N780 M11 ;Beam OFF
N781 M53 ;ping pong from travel
 
;PART: 7
;CONTOUR: 1
[SP7SC1]
V.E.START_PART="SP7SC1"
V.E.ALL_CONTOURS="0"
;@@[DetailName(blacha2_017)]
N782 M115
N783 G138 G40 G00X31.6831Y664.7228 M57
N784 G90
N785 M50 ;Sensor ON
/N786 M10 ;Beam ON
N787 G131 V.E.ACC[14]
N788 G133 V.E.JERK[14]
#CONTOUR MODE [AUTO_DEV, PATH_DEV=0.1]
N789 G261
;(FastCut)
N790 T15 G42 ;(IGNORE_SIMULATION)
N791 M49 G01X27.7258Y664.1398 FV.E.FEEDRATE[14]   ;@@[ENTRY]
N792 G131 V.E.ACC[15]
N793 G133 V.E.JERK[15]
N794 G02X91.0425Y673.4666I31.6584J4.6634 FV.E.FEEDRATE[15]
N795 G02X27.7258Y664.1398I-31.6583J-4.6634
N796 G260
N797 M95
N798 M11 ;Beam OFF
N799 M53 ;ping pong from travel
;CONTOUR: 2
[SP7SC2]
V.E.START_PART="SP7SC2"
V.E.ALL_CONTOURS="1"
N800 M115
N801 G138 G40 G00X14.4018Y754.3636 M57
N802 G90
N803 M50 ;Sensor ON
/N804 M10 ;Beam ON
N805 G131 V.E.ACC[14]
N806 G133 V.E.JERK[14]
#CONTOUR MODE [AUTO_DEV, PATH_DEV=0.1]
N807 G261
;(FastCut)
N808 T15 G41 ;(IGNORE_SIMULATION)
N809 M49 G01X17.7392Y752.1586 FV.E.FEEDRATE[14]   ;@@[ENTRY]
N810 G131 V.E.ACC[15]
N811 G133 V.E.JERK[15]
N812 G01X152.3945Y663.1911 FV.E.FEEDRATE[15]
N813 G01X8.0188Y591.0599
N814 G01X17.7392Y752.1586
N815 G260
N816 M96
N817 M11 ;Beam OFF
N818 M53 ;ping pong from travel
 
;PART: 8
;CONTOUR: 1
[SP8SC1]
V.E.START_PART="SP8SC1"
V.E.ALL_CONTOURS="0"
;@@[DetailName(blacha2_006)]
V.E.ALL_CONTOURS="1"
N819 M115
N820 G138 G40 G00X61.4294Y789.7990 M57
N821 G90
N822 M50 ;Sensor ON
/N823 M10 ;Beam ON
N824 G131 V.E.ACC[14]
N825 G133 V.E.JERK[14]
#CONTOUR MODE [AUTO_DEV, PATH_DEV=0.1]
N826 G261
;(FastCut)
N827 T15 G41 ;(IGNORE_SIMULATION)
N828 M49 G01X64.6583Y787.4380 FV.E.FEEDRATE[14]   ;@@[ENTRY]
N829 G131 V.E.ACC[15]
N830 G133 V.E.JERK[15]
N831 G02X142.1485Y779.0553I36.3252J-26.5608 FV.E.FEEDRATE[15]
N832 G02X96.1437Y716.1382I-4.8398J-44.7390
N833 G02X64.6583Y787.4380I4.8398J44.7390
N834 G260
N835 M96
N836 M11 ;Beam OFF
N837 M53 ;ping pong from travel
 
;PART: 9
;CONTOUR: 1
[SP9SC1]
V.E.START_PART="SP9SC1"
V.E.ALL_CONTOURS="0"
;@@[DetailName(blacha2_004)]
V.E.ALL_CONTOURS="1"
N838 M115
N839 G138 G40 G00X8.0000Y878.3799 M57
N840 G90
N841 M50 ;Sensor ON
/N842 M10 ;Beam ON
N843 G131 V.E.ACC[14]
N844 G133 V.E.JERK[14]
#CONTOUR MODE [AUTO_DEV, PATH_DEV=0.1]
N845 G261
;(FastCut)
N846 T15 G41 ;(IGNORE_SIMULATION)
N847 M49 G01X8.0000Y874.3799 FV.E.FEEDRATE[14]   ;@@[ENTRY]
N848 G131 V.E.ACC[15]
N849 G133 V.E.JERK[15]
N850 G02X8.0000Y759.3799I0.0000J-57.5000 FV.E.FEEDRATE[15]
N851 G01X8.0000Y874.3799
N852 G260
N853 M96
N854 M11 ;Beam OFF
N855 M53 ;ping pong from travel
 
;PART: 10
;CONTOUR: 1
[SP10SC1]
V.E.START_PART="SP10SC1"
V.E.ALL_CONTOURS="0"
;@@[DetailName(blacha2_003)]
V.E.ALL_CONTOURS="1"
N856 M115
N857 G138 G40 G00X66.3403Y936.1444 M57
N858 G90
N859 M50 ;Sensor ON
/N860 M10 ;Beam ON
N861 G131 V.E.ACC[14]
N862 G133 V.E.JERK[14]
#CONTOUR MODE [AUTO_DEV, PATH_DEV=0.1]
N863 G261
;(FastCut)
N864 T15 G41 ;(IGNORE_SIMULATION)
N865 M49 G01X70.3403Y936.1444 FV.E.FEEDRATE[14]   ;@@[ENTRY]
N866 G131 V.E.ACC[15]
N867 G133 V.E.JERK[15]
N868 G01X90.3403Y936.1444 FV.E.FEEDRATE[15]
N869 G02X92.3403Y934.1444I0.0000J-2.0000
N870 G01X92.3403Y848.1444
N871 G01X90.3403Y846.1444
N872 G01X67.3403Y846.1444
N873 G02X62.3403Y851.1444I0.0000J5.0000
N874 G01X62.3403Y928.1444
N875 G01X70.3403Y936.1444
N876 G260
N877 M96
N878 M11 ;Beam OFF
N879 M53 ;ping pong from travel
 
;PART: 11
;CONTOUR: 1
[SP11SC1]
V.E.START_PART="SP11SC1"
V.E.ALL_CONTOURS="0"
;@@[DetailName(blacha2_002)]
V.E.ALL_CONTOURS="1"
N880 M115
N881 G138 G40 G00X65.0878Y953.9841 M57
N882 G90
N883 M50 ;Sensor ON
/N884 M10 ;Beam ON
N885 G131 V.E.ACC[14]
N886 G133 V.E.JERK[14]
#CONTOUR MODE [AUTO_DEV, PATH_DEV=0.1]
N887 G261
;(FastCut)
N888 T15 G42 ;(IGNORE_SIMULATION)
N889 M49 G01X64.6229Y950.0112 FV.E.FEEDRATE[14]   ;@@[ENTRY]
N890 G131 V.E.ACC[15]
N891 G133 V.E.JERK[15]
N892 G03X54.9194Y867.0770I-4.8518J-41.4671 FV.E.FEEDRATE[15]
N893 G01X56.3139Y878.9957
N894 G02X63.2284Y938.0925I3.4572J29.5484
N895 G01X64.6229Y950.0112
N896 G260
N897 M96
N898 M11 ;Beam OFF
N899 M53 ;ping pong from travel
 
;PART: 12
;CONTOUR: 1
[SP12SC1]
V.E.START_PART="SP12SC1"
V.E.ALL_CONTOURS="0"
;@@[DetailName(blacha2_001)]
N900 M115
N901 G138 G40 G00X69.8284Y977.1720 M57
N902 G90
N903 M50 ;Sensor ON
/N904 M10 ;Beam ON
N905 G131 V.E.ACC[14]
N906 G133 V.E.JERK[14]
#CONTOUR MODE [AUTO_DEV, PATH_DEV=0.1]
N907 G261
;(FastCut)
N908 T15 G41 ;(IGNORE_SIMULATION)
N909 M49 G01X67.0000Y980.0004 FV.E.FEEDRATE[14]   ;@@[ENTRY]
N910 G131 V.E.ACC[15]
N911 G133 V.E.JERK[15]
N912 G01X67.0000Y974.0004 FV.E.FEEDRATE[15]
N913 G03X79.5000Y974.0004I6.2500J0.0000
N914 G01X79.5000Y980.0004
N915 G01X67.0000Y980.0004
N916 G260
N917 M95
N918 M11 ;Beam OFF
N919 M53 ;ping pong from travel
;CONTOUR: 2
[SP12SC2]
V.E.START_PART="SP12SC2"
N920 M115
N921 G138 G40 G00X40.1716Y977.1720 M57
N922 G90
N923 M50 ;Sensor ON
/N924 M10 ;Beam ON
N925 G131 V.E.ACC[14]
N926 G133 V.E.JERK[14]
#CONTOUR MODE [AUTO_DEV, PATH_DEV=0.1]
N927 G261
;(FastCut)
N928 T15 G41 ;(IGNORE_SIMULATION)
N929 M49 G01X43.0000Y980.0004 FV.E.FEEDRATE[14]   ;@@[ENTRY]
N930 G131 V.E.ACC[15]
N931 G133 V.E.JERK[15]
N932 G01X20.0000Y980.0004 FV.E.FEEDRATE[15]
N933 G01X20.0000Y974.0004
N934 G03X43.0000Y974.0004I11.5000J0.0000
N935 G01X43.0000Y980.0004
N936 G260
N937 M95
N938 M11 ;Beam OFF
N939 M53 ;ping pong from travel
;CONTOUR: 3
[SP12SC3]
V.E.START_PART="SP12SC3"
V.E.ALL_CONTOURS="1"
N940 M115
N941 G138 G40 G00X95.5000Y983.0004 M57
N942 G90
N943 M50 ;Sensor ON
/N944 M10 ;Beam ON
N945 G131 V.E.ACC[14]
N946 G133 V.E.JERK[14]
#CONTOUR MODE [AUTO_DEV, PATH_DEV=0.1]
N947 G261
;(FastCut)
N948 T15 G41 ;(IGNORE_SIMULATION)
N949 M49 G01X91.5000Y983.0004 FV.E.FEEDRATE[14]   ;@@[ENTRY]
N950 G131 V.E.ACC[15]
N951 G133 V.E.JERK[15]
N952 G01X91.5000Y974.0004 FV.E.FEEDRATE[15]
N953 G02X55.0000Y974.0004I-18.2500J0.0000
N954 G02X8.0000Y974.0004I-23.5000J0.0000
N955 G01X8.0000Y992.0004
N956 G01X91.5000Y992.0004
N957 G01X91.5000Y983.0004
N958 G260
N959 M96
N960 M11 ;Beam OFF
N961 M53 ;ping pong from travel
 
;PART: 13
;CONTOUR: 1
[SP13SC1]
V.E.START_PART="SP13SC1"
V.E.ALL_CONTOURS="0"
;@@[DetailName(blacha2_009)]
N962 M116
N963 G138 G40 G00X110.3403Y979.8998 M57
N964 G90
N965 M50 ;Sensor ON
/N966 M10 ;Beam ON
N967 G131 V.E.ACC[14]
N968 G133 V.E.JERK[14]
#CONTOUR MODE [AUTO_DEV, PATH_DEV=0.1]
N969 G261
;(FastCut)
N970 T16 G42 ;(IGNORE_SIMULATION)
N971 M49 G01X113.0478Y981.1917 FV.E.FEEDRATE[14]   ;@@[ENTRY]
N972 G131 V.E.ACC[16]
N973 G133 V.E.JERK[16]
N974 G02X107.6327Y978.6078I-2.7075J-1.2919 FV.E.FEEDRATE[16]
N975 G02X113.0478Y981.1917I2.7076J1.2920
N976 G260
N977 M95
N978 M11 ;Beam OFF
N979 M53 ;ping pong from travel
;CONTOUR: 2
[SP13SC2]
V.E.START_PART="SP13SC2"
N980 M115
N981 G138 G40 G00X143.6870Y916.9146 M57
N982 G90
N983 M50 ;Sensor ON
/N984 M10 ;Beam ON
N985 G131 V.E.ACC[14]
N986 G133 V.E.JERK[14]
#CONTOUR MODE [AUTO_DEV, PATH_DEV=0.1]
N987 G261
;(FastCut)
N988 T15 G41 ;(IGNORE_SIMULATION)
N989 M49 G01X143.0012Y912.9738 FV.E.FEEDRATE[14]   ;@@[ENTRY]
N990 G131 V.E.ACC[15]
N991 G133 V.E.JERK[15]
N992 G03X148.7844Y917.0426I0.8572J4.9260 FV.E.FEEDRATE[15]
N993 G02X173.1974Y941.4557I29.5559J-5.1428
N994 G03X171.4831Y951.3076I-0.8571J4.9259
N995 G03X138.9324Y918.7569I6.8572J-39.4078
N996 G03X143.0012Y912.9738I4.9260J-0.8571
N997 G260
N998 M95
N999 M11 ;Beam OFF
N1000 M53 ;ping pong from travel
;CONTOUR: 3
[SP13SC3]
V.E.START_PART="SP13SC3"
N1001 M115
N1002 G138 G40 G00X193.7970Y881.6211 M57
N1003 G90
N1004 M50 ;Sensor ON
/N1005 M10 ;Beam ON
N1006 G131 V.E.ACC[14]
N1007 G133 V.E.JERK[14]
#CONTOUR MODE [AUTO_DEV, PATH_DEV=0.1]
N1008 G261
;(FastCut)
N1009 T15 G42 ;(IGNORE_SIMULATION)
N1010 M49 G01X194.8364Y877.7585 FV.E.FEEDRATE[14]   ;@@[ENTRY]
N1011 G131 V.E.ACC[15]
N1012 G133 V.E.JERK[15]
N1013 G02X181.8442Y926.0410I-6.4961J24.1413 FV.E.FEEDRATE[15]
N1014 G02X194.8364Y877.7585I6.4961J-24.1412
N1015 G260
N1016 M95
N1017 M11 ;Beam OFF
N1018 M53 ;ping pong from travel
;CONTOUR: 4
[SP13SC4]
V.E.START_PART="SP13SC4"
N1019 M115
N1020 G138 G40 G00X152.8844Y866.4439 M57
N1021 G90
N1022 M50 ;Sensor ON
/N1023 M10 ;Beam ON
N1024 G131 V.E.ACC[14]
N1025 G133 V.E.JERK[14]
#CONTOUR MODE [AUTO_DEV, PATH_DEV=0.1]
N1026 G261
;(FastCut)
N1027 T15 G42 ;(IGNORE_SIMULATION)
N1028 M49 G01X150.0560Y863.6155 FV.E.FEEDRATE[14]   ;@@[ENTRY]
N1029 G131 V.E.ACC[15]
N1030 G133 V.E.JERK[15]
N1031 G02X138.9324Y885.0426I28.2843J28.2843 FV.E.FEEDRATE[15]
N1032 G02X148.7844Y886.7569I4.9260J0.8572
N1033 G03X173.1974Y862.3439I29.5559J5.1429
N1034 G02X171.4831Y852.4919I-0.8571J-4.9260
N1035 G02X150.0560Y863.6155I6.8572J39.4079
N1036 G260
N1037 M95
N1038 M11 ;Beam OFF
N1039 M53 ;ping pong from travel
;CONTOUR: 5
[SP13SC5]
V.E.START_PART="SP13SC5"
N1040 M116
N1041 G138 G40 G00X110.3403Y823.8998 M57
N1042 G90
N1043 M50 ;Sensor ON
/N1044 M10 ;Beam ON
N1045 G131 V.E.ACC[14]
N1046 G133 V.E.JERK[14]
#CONTOUR MODE [AUTO_DEV, PATH_DEV=0.1]
N1047 G261
;(FastCut)
N1048 T16 G42 ;(IGNORE_SIMULATION)
N1049 M49 G01X110.3980Y826.8992 FV.E.FEEDRATE[14]   ;@@[ENTRY]
N1050 G131 V.E.ACC[16]
N1051 G133 V.E.JERK[16]
N1052 G02X110.2826Y820.9003I-0.0577J-2.9994 FV.E.FEEDRATE[16]
N1053 G02X110.3980Y826.8992I0.0577J2.9995
N1054 G260
N1055 M95
N1056 M11 ;Beam OFF
N1057 M53 ;ping pong from travel
;CONTOUR: 6
[SP13SC6]
V.E.START_PART="SP13SC6"
N1058 M116
N1059 G138 G40 G00X266.3403Y823.8998 M57
N1060 G90
N1061 M50 ;Sensor ON
/N1062 M10 ;Beam ON
N1063 G131 V.E.ACC[14]
N1064 G133 V.E.JERK[14]
#CONTOUR MODE [AUTO_DEV, PATH_DEV=0.1]
N1065 G261
;(FastCut)
N1066 T16 G42 ;(IGNORE_SIMULATION)
N1067 M49 G01X263.6327Y822.6078 FV.E.FEEDRATE[14]   ;@@[ENTRY]
N1068 G131 V.E.ACC[16]
N1069 G133 V.E.JERK[16]
N1070 G02X269.0478Y825.1917I2.7076J1.2920 FV.E.FEEDRATE[16]
N1071 G02X263.6327Y822.6078I-2.7075J-1.2919
N1072 G260
N1073 M95
N1074 M11 ;Beam OFF
N1075 M53 ;ping pong from travel
;CONTOUR: 7
[SP13SC7]
V.E.START_PART="SP13SC7"
N1076 M115
N1077 G138 G40 G00X232.9936Y886.8850 M57
N1078 G90
N1079 M50 ;Sensor ON
/N1080 M10 ;Beam ON
N1081 G131 V.E.ACC[14]
N1082 G133 V.E.JERK[14]
#CONTOUR MODE [AUTO_DEV, PATH_DEV=0.1]
N1083 G261
;(FastCut)
N1084 T15 G42 ;(IGNORE_SIMULATION)
N1085 M49 G01X233.6793Y890.8257 FV.E.FEEDRATE[14]   ;@@[ENTRY]
N1086 G131 V.E.ACC[15]
N1087 G133 V.E.JERK[15]
N1088 G02X237.7481Y885.0426I-0.8572J-4.9259 FV.E.FEEDRATE[15]
N1089 G02X205.1974Y852.4919I-39.4078J6.8572
N1090 G02X203.4831Y862.3439I-0.8571J4.9260
N1091 G03X227.8962Y886.7569I-5.1428J29.5559
N1092 G02X233.6793Y890.8257I4.9259J-0.8571
N1093 G260
N1094 M95
N1095 M11 ;Beam OFF
N1096 M53 ;ping pong from travel
;CONTOUR: 8
[SP13SC8]
V.E.START_PART="SP13SC8"
N1097 M115
N1098 G138 G40 G00X223.7961Y937.3556 M57
N1099 G90
N1100 M50 ;Sensor ON
/N1101 M10 ;Beam ON
N1102 G131 V.E.ACC[14]
N1103 G133 V.E.JERK[14]
#CONTOUR MODE [AUTO_DEV, PATH_DEV=0.1]
N1104 G261
;(FastCut)
N1105 T15 G42 ;(IGNORE_SIMULATION)
N1106 M49 G01X226.6245Y940.1840 FV.E.FEEDRATE[14]   ;@@[ENTRY]
N1107 G131 V.E.ACC[15]
N1108 G133 V.E.JERK[15]
N1109 G02X237.7481Y918.7569I-28.2842J-28.2842 FV.E.FEEDRATE[15]
N1110 G02X227.8962Y917.0426I-4.9260J-0.8571
N1111 G03X203.4831Y941.4557I-29.5559J-5.1428
N1112 G02X205.1974Y951.3076I0.8572J4.9259
N1113 G02X226.6245Y940.1840I-6.8571J-39.4078
N1114 G260
N1115 M95
N1116 M11 ;Beam OFF
N1117 M53 ;ping pong from travel
;CONTOUR: 9
[SP13SC9]
V.E.START_PART="SP13SC9"
N1118 M116
N1119 G138 G40 G00X266.3403Y979.8998 M57
N1120 G90
N1121 M50 ;Sensor ON
/N1122 M10 ;Beam ON
N1123 G131 V.E.ACC[14]
N1124 G133 V.E.JERK[14]
#CONTOUR MODE [AUTO_DEV, PATH_DEV=0.1]
N1125 G261
;(FastCut)
N1126 T16 G42 ;(IGNORE_SIMULATION)
N1127 M49 G01X264.2412Y982.0431 FV.E.FEEDRATE[14]   ;@@[ENTRY]
N1128 G131 V.E.ACC[16]
N1129 G133 V.E.JERK[16]
N1130 G02X268.4393Y977.7564I2.0991J-2.1433 FV.E.FEEDRATE[16]
N1131 G02X264.2412Y982.0431I-2.0990J2.1434
N1132 G260
N1133 M95
N1134 M11 ;Beam OFF
N1135 M53 ;ping pong from travel
;CONTOUR: 10
[SP13SC10]
V.E.START_PART="SP13SC10"
V.E.ALL_CONTOURS="1"
N1136 M115
N1137 G138 G40 G00X282.3403Y811.8998 M57
N1138 G90
N1139 M50 ;Sensor ON
/N1140 M10 ;Beam ON
N1141 G131 V.E.ACC[14]
N1142 G133 V.E.JERK[14]
#CONTOUR MODE [AUTO_DEV, PATH_DEV=0.1]
N1143 G261
;(FastCut)
N1144 T15 G41 ;(IGNORE_SIMULATION)
N1145 M49 G01X278.3403Y811.8998 FV.E.FEEDRATE[14]   ;@@[ENTRY]
N1146 G131 V.E.ACC[15]
N1147 G133 V.E.JERK[15]
N1148 G01X98.3403Y811.8998 FV.E.FEEDRATE[15]
N1149 G01X98.3403Y991.8998
N1150 G01X278.3403Y991.8998
N1151 G01X278.3403Y811.8998
N1152 G260
N1153 M96
N1154 M11 ;Beam OFF
N1155 M53 ;ping pong from travel
 
;PART: 14
;CONTOUR: 1
[SP14SC1]
V.E.START_PART="SP14SC1"
V.E.ALL_CONTOURS="0"
;@@[DetailName(blacha2_008)]
N1156 M117
N1157 G138 G40 G00X272.3403Y799.0278 M57
N1158 G90
N1159 M50 ;Sensor ON
/N1160 M10 ;Beam ON
N1161 G131 V.E.ACC[14]
N1162 G133 V.E.JERK[14]
#CONTOUR MODE [AUTO_DEV, PATH_DEV=0.1]
N1163 G261
;(FastCut)
N1164 T17 G42 ;(IGNORE_SIMULATION)
N1165 M49 G01X273.8400Y798.9989 FV.E.FEEDRATE[14]   ;@@[ENTRY]
N1166 G131 V.E.ACC[17]
N1167 G133 V.E.JERK[17]
N1168 G02X270.8405Y799.0566I-1.4997J0.0289 FV.E.FEEDRATE[17]
N1169 G02X273.8400Y798.9989I1.4998J-0.0288
N1170 G260
N1171 M95
N1172 M11 ;Beam OFF
N1173 M53 ;ping pong from travel
;CONTOUR: 2
[SP14SC2]
V.E.START_PART="SP14SC2"
N1174 M117
N1175 G138 G40 G00X272.3403Y721.0278 M57
N1176 G90
N1177 M50 ;Sensor ON
/N1178 M10 ;Beam ON
N1179 G131 V.E.ACC[14]
N1180 G133 V.E.JERK[14]
#CONTOUR MODE [AUTO_DEV, PATH_DEV=0.1]
N1181 G261
;(FastCut)
N1182 T17 G42 ;(IGNORE_SIMULATION)
N1183 M49 G01X271.5335Y719.7632 FV.E.FEEDRATE[14]   ;@@[ENTRY]
N1184 G131 V.E.ACC[17]
N1185 G133 V.E.JERK[17]
N1186 G02X273.1471Y722.2923I0.8068J1.2646 FV.E.FEEDRATE[17]
N1187 G02X271.5335Y719.7632I-0.8068J-1.2645
N1188 G260
N1189 M95
N1190 M11 ;Beam OFF
N1191 M53 ;ping pong from travel
;CONTOUR: 3
[SP14SC3]
V.E.START_PART="SP14SC3"
N1192 M115
N1193 G138 G40 G00X242.8181Y738.0440 M57
N1194 G90
N1195 M50 ;Sensor ON
/N1196 M10 ;Beam ON
N1197 G131 V.E.ACC[14]
N1198 G133 V.E.JERK[14]
#CONTOUR MODE [AUTO_DEV, PATH_DEV=0.1]
N1199 G261
;(FastCut)
N1200 T15 G42 ;(IGNORE_SIMULATION)
N1201 M49 G01X238.8773Y737.3583 FV.E.FEEDRATE[14]   ;@@[ENTRY]
N1202 G131 V.E.ACC[15]
N1203 G133 V.E.JERK[15]
N1204 G02X240.9117Y740.2498I2.4630J0.4285 FV.E.FEEDRATE[15]
N1205 G03X253.1182Y752.4564I-2.5714J14.7780
N1206 G02X258.0442Y751.5992I2.4630J-0.4286
N1207 G02X241.7688Y735.3239I-19.7039J3.4286
N1208 G02X238.8773Y737.3583I-0.4285J2.4629
N1209 G260
N1210 M95
N1211 M11 ;Beam OFF
N1212 M53 ;ping pong from travel
;CONTOUR: 4
[SP14SC4]
V.E.START_PART="SP14SC4"
N1213 M115
N1214 G138 G40 G00X211.3565Y750.5500 M57
N1215 G90
N1216 M50 ;Sensor ON
/N1217 M10 ;Beam ON
N1218 G131 V.E.ACC[14]
N1219 G133 V.E.JERK[14]
#CONTOUR MODE [AUTO_DEV, PATH_DEV=0.1]
N1220 G261
;(FastCut)
N1221 T15 G42 ;(IGNORE_SIMULATION)
N1222 M49 G01X210.6707Y754.4908 FV.E.FEEDRATE[14]   ;@@[ENTRY]
N1223 G131 V.E.ACC[15]
N1224 G133 V.E.JERK[15]
N1225 G02X213.5623Y752.4564I0.4286J-2.4630 FV.E.FEEDRATE[15]
N1226 G03X225.7688Y740.2498I14.7780J2.5714
N1227 G02X224.9117Y735.3239I-0.4285J-2.4630
N1228 G02X208.6363Y751.5992I3.4286J19.7039
N1229 G02X210.6707Y754.4908I2.4630J0.4286
N1230 G260
N1231 M95
N1232 M11 ;Beam OFF
N1233 M53 ;ping pong from travel
;CONTOUR: 5
[SP14SC5]
V.E.START_PART="SP14SC5"
N1234 M115
N1235 G138 G40 G00X223.8625Y782.0116 M57
N1236 G90
N1237 M50 ;Sensor ON
/N1238 M10 ;Beam ON
N1239 G131 V.E.ACC[14]
N1240 G133 V.E.JERK[14]
#CONTOUR MODE [AUTO_DEV, PATH_DEV=0.1]
N1241 G261
;(FastCut)
N1242 T15 G42 ;(IGNORE_SIMULATION)
N1243 M49 G01X227.8032Y782.6973 FV.E.FEEDRATE[14]   ;@@[ENTRY]
N1244 G131 V.E.ACC[15]
N1245 G133 V.E.JERK[15]
N1246 G02X225.7688Y779.8057I-2.4629J-0.4286 FV.E.FEEDRATE[15]
N1247 G03X213.5623Y767.5992I2.5715J-14.7779
N1248 G02X208.6363Y768.4564I-2.4630J0.4286
N1249 G02X224.9117Y784.7317I19.7040J-3.4286
N1250 G02X227.8032Y782.6973I0.4286J-2.4630
N1251 G260
N1252 M95
N1253 M11 ;Beam OFF
N1254 M53 ;ping pong from travel
;CONTOUR: 6
[SP14SC6]
V.E.START_PART="SP14SC6"
N1255 M115
N1256 G138 G40 G00X255.3241Y769.5056 M57
N1257 G90
N1258 M50 ;Sensor ON
/N1259 M10 ;Beam ON
N1260 G131 V.E.ACC[14]
N1261 G133 V.E.JERK[14]
#CONTOUR MODE [AUTO_DEV, PATH_DEV=0.1]
N1262 G261
;(FastCut)
N1263 T15 G42 ;(IGNORE_SIMULATION)
N1264 M49 G01X256.0098Y765.5648 FV.E.FEEDRATE[14]   ;@@[ENTRY]
N1265 G131 V.E.ACC[15]
N1266 G133 V.E.JERK[15]
N1267 G02X253.1182Y767.5992I-0.4286J2.4630 FV.E.FEEDRATE[15]
N1268 G03X240.9117Y779.8057I-14.7779J-2.5714
N1269 G02X241.7688Y784.7317I0.4286J2.4630
N1270 G02X258.0442Y768.4564I-3.4285J-19.7039
N1271 G02X256.0098Y765.5648I-2.4630J-0.4286
N1272 G260
N1273 M95
N1274 M11 ;Beam OFF
N1275 M53 ;ping pong from travel
;CONTOUR: 7
[SP14SC7]
V.E.START_PART="SP14SC7"
N1276 M115
N1277 G138 G40 G00X237.8321Y752.8116 M57
N1278 G90
N1279 M50 ;Sensor ON
/N1280 M10 ;Beam ON
N1281 G131 V.E.ACC[14]
N1282 G133 V.E.JERK[14]
#CONTOUR MODE [AUTO_DEV, PATH_DEV=0.1]
N1283 G261
;(FastCut)
N1284 T15 G42 ;(IGNORE_SIMULATION)
N1285 M49 G01X239.9459Y749.4157 FV.E.FEEDRATE[14]   ;@@[ENTRY]
N1286 G131 V.E.ACC[15]
N1287 G133 V.E.JERK[15]
N1288 G02X226.7346Y770.6398I-6.6056J10.6121 FV.E.FEEDRATE[15]
N1289 G02X239.9459Y749.4157I6.6057J-10.6120
N1290 G260
N1291 M95
N1292 M11 ;Beam OFF
N1293 M53 ;ping pong from travel
;CONTOUR: 8
[SP14SC8]
V.E.START_PART="SP14SC8"
N1294 M117
N1295 G138 G40 G00X194.3403Y721.0278 M57
N1296 G90
N1297 M50 ;Sensor ON
/N1298 M10 ;Beam ON
N1299 G131 V.E.ACC[14]
N1300 G133 V.E.JERK[14]
#CONTOUR MODE [AUTO_DEV, PATH_DEV=0.1]
N1301 G261
;(FastCut)
N1302 T17 G42 ;(IGNORE_SIMULATION)
N1303 M49 G01X192.8405Y721.0566 FV.E.FEEDRATE[14]   ;@@[ENTRY]
N1304 G131 V.E.ACC[17]
N1305 G133 V.E.JERK[17]
N1306 G02X195.8400Y720.9989I1.4998J-0.0288 FV.E.FEEDRATE[17]
N1307 G02X192.8405Y721.0566I-1.4997J0.0289
N1308 G260
N1309 M95
N1310 M11 ;Beam OFF
N1311 M53 ;ping pong from travel
;CONTOUR: 9
[SP14SC9]
V.E.START_PART="SP14SC9"
N1312 M117
N1313 G138 G40 G00X194.3403Y799.0278 M57
N1314 G90
N1315 M50 ;Sensor ON
/N1316 M10 ;Beam ON
N1317 G131 V.E.ACC[14]
N1318 G133 V.E.JERK[14]
#CONTOUR MODE [AUTO_DEV, PATH_DEV=0.1]
N1319 G261
;(FastCut)
N1320 T17 G42 ;(IGNORE_SIMULATION)
N1321 M49 G01X192.9678Y798.4225 FV.E.FEEDRATE[14]   ;@@[ENTRY]
N1322 G131 V.E.ACC[17]
N1323 G133 V.E.JERK[17]
N1324 G02X195.7127Y799.6331I1.3725J0.6053 FV.E.FEEDRATE[17]
N1325 G02X192.9678Y798.4225I-1.3724J-0.6053
N1326 G260
N1327 M95
N1328 M11 ;Beam OFF
N1329 M53 ;ping pong from travel
;CONTOUR: 10
[SP14SC10]
V.E.START_PART="SP14SC10"
V.E.ALL_CONTOURS="1"
N1330 M115
N1331 G138 G40 G00X233.3403Y711.0278 M57
N1332 G90
N1333 M50 ;Sensor ON
/N1334 M10 ;Beam ON
N1335 G131 V.E.ACC[14]
N1336 G133 V.E.JERK[14]
#CONTOUR MODE [AUTO_DEV, PATH_DEV=0.1]
N1337 G261
;(FastCut)
N1338 T15 G41 ;(IGNORE_SIMULATION)
N1339 M49 G01X233.3403Y715.0278 FV.E.FEEDRATE[14]   ;@@[ENTRY]
N1340 G131 V.E.ACC[15]
N1341 G133 V.E.JERK[15]
N1342 G01X188.3403Y715.0278 FV.E.FEEDRATE[15]
N1343 G01X188.3403Y805.0278
N1344 G01X278.3403Y805.0278
N1345 G01X278.3403Y715.0278
N1346 G01X233.3403Y715.0278
N1347 G260
N1348 M96
N1349 M11 ;Beam OFF
N1350 M53 ;ping pong from travel
 
;PART: 15
;CONTOUR: 1
[SP15SC1]
V.E.START_PART="SP15SC1"
V.E.ALL_CONTOURS="0"
;@@[DetailName(blacha2_011)]
V.E.ALL_CONTOURS="1"
N1351 M115
N1352 G138 G40 G00X238.3403Y615.0278 M57
N1353 G90
N1354 M50 ;Sensor ON
/N1355 M10 ;Beam ON
N1356 G131 V.E.ACC[14]
N1357 G133 V.E.JERK[14]
#CONTOUR MODE [AUTO_DEV, PATH_DEV=0.1]
N1358 G261
;(FastCut)
N1359 T15 G42 ;(IGNORE_SIMULATION)
N1360 M49 G01X238.3403Y619.0278 FV.E.FEEDRATE[14]   ;@@[ENTRY]
N1361 G131 V.E.ACC[15]
N1362 G133 V.E.JERK[15]
N1363 G01X238.3403Y649.0278 FV.E.FEEDRATE[15]
N1364 G01X268.3403Y649.0278
N1365 G01X268.3403Y709.0278
N1366 G01X208.3403Y709.0278
N1367 G01X208.3403Y679.0278
N1368 G01X178.3403Y679.0278
N1369 G01X178.3403Y619.0278
N1370 G01X238.3403Y619.0278
N1371 G260
N1372 M96
N1373 M11 ;Beam OFF
N1374 M53 ;ping pong from travel
 
;PART: 16
;CONTOUR: 1
[SP16SC1]
V.E.START_PART="SP16SC1"
V.E.ALL_CONTOURS="0"
;@@[DetailName(blacha2_020)]
V.E.ALL_CONTOURS="1"
N1375 M115
N1376 G138 G40 G00X245.5755Y520.7917 M57
N1377 G90
N1378 M50 ;Sensor ON
/N1379 M10 ;Beam ON
N1380 G131 V.E.ACC[14]
N1381 G133 V.E.JERK[14]
#CONTOUR MODE [AUTO_DEV, PATH_DEV=0.1]
N1382 G261
;(FastCut)
N1383 T15 G42 ;(IGNORE_SIMULATION)
N1384 M49 G01X247.9266Y524.0278 FV.E.FEEDRATE[14]   ;@@[ENTRY]
N1385 G131 V.E.ACC[15]
N1386 G133 V.E.JERK[15]
N1387 G01X266.0902Y549.0278 FV.E.FEEDRATE[15]
N1388 G01X278.3403Y549.0278
N1389 G01X278.3403Y613.0278
N1390 G01X266.0902Y613.0278
N1391 G01X247.9266Y638.0278
N1392 G01X247.9266Y613.0278
N1393 G01X202.3716Y613.0278
N1394 G01X193.3403Y591.0278
N1395 G01X188.7752Y613.0278
N1396 G01X178.3403Y613.0278
N1397 G01X178.3403Y549.0278
N1398 G01X188.7752Y549.0278
N1399 G01X193.3403Y571.0278
N1400 G01X202.3716Y549.0278
N1401 G01X247.9266Y549.0278
N1402 G01X247.9266Y524.0278
N1403 G260
N1404 M96
N1405 M11 ;Beam OFF
N1406 M53 ;ping pong from travel
 
;PART: 17
;CONTOUR: 1
[SP17SC1]
V.E.START_PART="SP17SC1"
V.E.ALL_CONTOURS="0"
;@@[DetailName(blacha2_019)]
V.E.ALL_CONTOURS="1"
N1407 M115
N1408 G138 G40 G00X250.7450Y430.3410 M57
N1409 G90
N1410 M50 ;Sensor ON
/N1411 M10 ;Beam ON
N1412 G131 V.E.ACC[14]
N1413 G133 V.E.JERK[14]
#CONTOUR MODE [AUTO_DEV, PATH_DEV=0.1]
N1414 G261
;(FastCut)
N1415 T15 G41 ;(IGNORE_SIMULATION)
N1416 M49 G01X247.9165Y433.1694 FV.E.FEEDRATE[14]   ;@@[ENTRY]
N1417 G131 V.E.ACC[15]
N1418 G133 V.E.JERK[15]
N1419 G01X226.7033Y454.3826 FV.E.FEEDRATE[15]
N1420 G01X205.4901Y433.1694
N1421 G01X184.2769Y454.3826
N1422 G01X205.4901Y475.5958
N1423 G01X184.2769Y496.8090
N1424 G01X205.4901Y518.0222
N1425 G01X226.7033Y496.8090
N1426 G01X247.9165Y518.0222
N1427 G01X269.1297Y496.8090
N1428 G01X247.9165Y475.5958
N1429 G01X269.1297Y454.3826
N1430 G01X247.9165Y433.1694
N1431 G260
N1432 M96
N1433 M11 ;Beam OFF
N1434 M53 ;ping pong from travel
 
;PART: 18
;CONTOUR: 1
[SP18SC1]
V.E.START_PART="SP18SC1"
V.E.ALL_CONTOURS="0"
;@@[DetailName(blacha2_014)]
N1435 M115
N1436 G138 G40 G00X258.0084Y383.3192 M57
N1437 G90
N1438 M50 ;Sensor ON
/N1439 M10 ;Beam ON
N1440 G131 V.E.ACC[14]
N1441 G133 V.E.JERK[14]
#CONTOUR MODE [AUTO_DEV, PATH_DEV=0.1]
N1442 G261
;(FastCut)
N1443 T15 G42 ;(IGNORE_SIMULATION)
N1444 M49 G01X261.9848Y382.8854 FV.E.FEEDRATE[14]   ;@@[ENTRY]
N1445 G131 V.E.ACC[15]
N1446 G133 V.E.JERK[15]
N1447 G02X225.2031Y386.8984I-18.3909J2.0065 FV.E.FEEDRATE[15]
N1448 G02X261.9848Y382.8854I18.3908J-2.0065
N1449 G260
N1450 M95
N1451 M11 ;Beam OFF
N1452 M53 ;ping pong from travel
;CONTOUR: 2
[SP18SC2]
V.E.START_PART="SP18SC2"
V.E.ALL_CONTOURS="1"
N1453 M115
N1454 G138 G40 G00X257.2398Y339.4049 M57
N1455 G90
N1456 M50 ;Sensor ON
/N1457 M10 ;Beam ON
N1458 G131 V.E.ACC[14]
N1459 G133 V.E.JERK[14]
#CONTOUR MODE [AUTO_DEV, PATH_DEV=0.1]
N1460 G261
;(FastCut)
N1461 T15 G41 ;(IGNORE_SIMULATION)
N1462 M49 G01X253.2551Y339.7535 FV.E.FEEDRATE[14]   ;@@[ENTRY]
N1463 G131 V.E.ACC[15]
N1464 G133 V.E.JERK[15]
N1465 G01X189.3822Y345.3416 FV.E.FEEDRATE[15]
N1466 G01X174.9590Y407.8152
N1467 G01X229.9179Y440.8378
N1468 G01X278.3075Y398.7734
N1469 G01X253.2551Y339.7535
N1470 G260
N1471 M96
N1472 M11 ;Beam OFF
N1473 M53 ;ping pong from travel
 
;PART: 19
;CONTOUR: 1
[SP19SC1]
V.E.START_PART="SP19SC1"
V.E.ALL_CONTOURS="0"
;@@[DetailName(blacha2_012)]
V.E.ALL_CONTOURS="1"
N1474 M115
N1475 G138 G40 G00X232.6295Y259.5661 M57
N1476 G90
N1477 M50 ;Sensor ON
/N1478 M10 ;Beam ON
N1479 G131 V.E.ACC[14]
N1480 G133 V.E.JERK[14]
#CONTOUR MODE [AUTO_DEV, PATH_DEV=0.1]
N1481 G261
;(FastCut)
N1482 T15 G41 ;(IGNORE_SIMULATION)
N1483 M49 G01X233.9315Y263.3483 FV.E.FEEDRATE[14]   ;@@[ENTRY]
N1484 G131 V.E.ACC[15]
N1485 G133 V.E.JERK[15]
N1486 G01X190.7300Y278.2192 FV.E.FEEDRATE[15]
N1487 G01X164.0581Y347.6828
N1488 G01X250.4609Y317.9409
N1489 G01X277.1329Y248.4773
N1490 G01X233.9315Y263.3483
N1491 G260
N1492 M96
N1493 M11 ;Beam OFF
N1494 M53 ;ping pong from travel
 
;PART: 20
;CONTOUR: 1
[SP20SC1]
V.E.START_PART="SP20SC1"
V.E.ALL_CONTOURS="0"
;@@[DetailName(blacha2_013)]
V.E.ALL_CONTOURS="1"
N1495 M115
N1496 G138 G40 G00X205.0168Y248.3267 M57
N1497 G90
N1498 M50 ;Sensor ON
/N1499 M10 ;Beam ON
N1500 G131 V.E.ACC[14]
N1501 G133 V.E.JERK[14]
#CONTOUR MODE [AUTO_DEV, PATH_DEV=0.1]
N1502 G261
;(FastCut)
N1503 T15 G42 ;(IGNORE_SIMULATION)
N1504 M49 G01X202.6657Y251.5627 FV.E.FEEDRATE[14]   ;@@[ENTRY]
N1505 G131 V.E.ACC[15]
N1506 G133 V.E.JERK[15]
N1507 G01X164.9788Y303.4344 FV.E.FEEDRATE[15]
N1508 G01X104.0000Y283.6212
N1509 G01X104.0000Y219.5043
N1510 G01X164.9788Y199.6911
N1511 G01X202.6657Y251.5627
N1512 G260
N1513 M96
N1514 M11 ;Beam OFF
N1515 M53 ;ping pong from travel
 
;PART: 21
;CONTOUR: 1
[SP21SC1]
V.E.START_PART="SP21SC1"
V.E.ALL_CONTOURS="0"
;@@[DetailName(blacha2_015)]
N1516 M115
N1517 G138 G40 G00X239.3411Y206.5911 M57
N1518 G90
N1519 M50 ;Sensor ON
/N1520 M10 ;Beam ON
N1521 G131 V.E.ACC[14]
N1522 G133 V.E.JERK[14]
#CONTOUR MODE [AUTO_DEV, PATH_DEV=0.1]
N1523 G261
;(FastCut)
N1524 T15 G42 ;(IGNORE_SIMULATION)
N1525 M49 G01X242.7580Y204.5116 FV.E.FEEDRATE[14]   ;@@[ENTRY]
N1526 G131 V.E.ACC[15]
N1527 G133 V.E.JERK[15]
N1528 G02X225.6732Y214.9091I-8.5424J5.1987 FV.E.FEEDRATE[15]
N1529 G02X242.7580Y204.5116I8.5424J-5.1988
N1530 G260
N1531 M95
N1532 M11 ;Beam OFF
N1533 M53 ;ping pong from travel
;CONTOUR: 2
[SP21SC2]
V.E.START_PART="SP21SC2"
V.E.ALL_CONTOURS="1"
N1534 M115
N1535 G138 G40 G00X213.5573Y156.6026 M57
N1536 G90
N1537 M50 ;Sensor ON
/N1538 M10 ;Beam ON
N1539 G131 V.E.ACC[14]
N1540 G133 V.E.JERK[14]
#CONTOUR MODE [AUTO_DEV, PATH_DEV=0.1]
N1541 G261
;(FastCut)
N1542 T15 G42 ;(IGNORE_SIMULATION)
N1543 M49 G01X217.3615Y157.8387 FV.E.FEEDRATE[14]   ;@@[ENTRY]
N1544 G131 V.E.ACC[15]
N1545 G133 V.E.JERK[15]
N1546 G01X278.3403Y177.6519 FV.E.FEEDRATE[15]
N1547 G01X278.3403Y241.7687
N1548 G01X217.3615Y261.5819
N1549 G01X179.6746Y209.7103
N1550 G01X217.3615Y157.8387
N1551 G260
N1552 M96
N1553 M11 ;Beam OFF
N1554 M53 ;ping pong from travel
 
;PART: 22
;CONTOUR: 1
[SP22SC1]
V.E.START_PART="SP22SC1"
V.E.ALL_CONTOURS="0"
;@@[DetailName(blacha2_005)]
V.E.ALL_CONTOURS="1"
N1555 M115
N1556 G138 G40 G00X190.0000Y143.0000 M57
N1557 G90
N1558 M50 ;Sensor ON
/N1559 M10 ;Beam ON
N1560 G131 V.E.ACC[14]
N1561 G133 V.E.JERK[14]
#CONTOUR MODE [AUTO_DEV, PATH_DEV=0.1]
N1562 G261
;(FastCut)
N1563 T15 G41 ;(IGNORE_SIMULATION)
N1564 M49 G01X194.0000Y143.0000 FV.E.FEEDRATE[14]   ;@@[ENTRY]
N1565 G131 V.E.ACC[15]
N1566 G133 V.E.JERK[15]
N1567 G01X232.0000Y143.0000 FV.E.FEEDRATE[15]
N1568 G02X241.2185Y139.5121I-82.7116J-232.5295
N1569 G02X249.9066Y134.9606I-18.1387J-45.1922
N1570 G02X252.5710Y132.9527I-14.7481J-22.3424
N1571 G02X254.3775Y130.2828I-3.9619J-4.6268
N1572 G02X253.7038Y126.7417I-3.4649J-1.1754
N1573 G02X250.6418Y124.0128I-11.2269J9.5153
N1574 G02X246.4532Y121.6176I-19.5068J29.2525
N1575 G01X242.0751Y119.5631
N1576 G01X232.3829Y115.1455
N1577 G03X223.2556Y109.7674I21.2132J-46.4355
N1578 G03X217.6074Y103.8564I14.2174J-19.2394
N1579 G03X215.4727Y96.2661I10.5093J-7.0510
N1580 G03X216.2856Y91.8290I16.3161J0.6960
N1581 G03X218.0369Y87.6390I28.3261J9.3786
N1582 G03X223.1709Y79.6547I42.6108J21.7564
N1583 G03X229.3112Y72.3593I129.5928J102.8416
N1584 G03X240.2585Y60.6229I270.0742J240.9443
N1585 G02X250.9488Y48.6667I-132.7959J-129.4924
N1586 G02X256.4602Y41.2929I-80.1363J-65.6433
N1587 G02X260.5725Y33.1341I-29.0146J-19.7398
N1588 G02X261.6021Y25.4901I-18.1076J-6.3303
N1589 G02X259.0622Y18.3462I-14.0250J0.9628
N1590 G02X254.6419Y13.8165I-16.3759J11.5588
N1591 G02X249.2341Y10.4116I-24.7251J33.2723
N1592 G02X246.6473Y9.1408I-23.8674J45.3162
N1593 G01X244.0000Y8.0000
N1594 G01X194.0000Y8.0000
N1595 G01X194.0000Y143.0000
N1596 G260
N1597 M96
N1598 M11 ;Beam OFF
N1599 M56 ;high
M13 ;Gas OFF
G40 G1X194.0000Y143.0000
;PROCESS_END
[END]
T0 ;(IGNORE_SIMULATION)
G04 0.1
M51
V.E.PROGRAM_STATE=3
G01 Z0 F100000
G04 0.1
$IF V.G.ACS_ACTIVE
#ACS OFF
$ENDIF
G131 100
$IF V.E.PS_AUTO_EXCHANGE
V.E.AUTO_EXCHANGE_PCH=TRUE
$ENDIF
V.E.PROGRAM_STATE=4
G04 0.1
M30
