;CK-AN Post V22.1 SP190  run on 2024.02.28
%_N_ARKUSZ_7001_MPF
;$PATH=/_N_WKS_DIR/_N_ARKUSZ_7001_WPD
; (MAIN PROGRAM)
;*MODEL EAG_INSPIRE_ERIS
;DATE FEB 28 2024 
;*SHEET 1000.0000 1000.0000 1.5 0 1 0.0000 0.0000
;START= BOTTOM-LEFT
;MAT Steel 1.5 
;*T100  B 0.2000  
;(Laser End)
;PROCESS_END
;Start questions
;NumberOfSheets=1
;TRC Active
G90
V.E.SHEET_X=1000.0000
V.E.SHEET_Y=1000.0000
V.E.MATERIAL="ST000-01.50M-N2-F0"
V.E.ESTIMATION_TIME="00:08"
V.E.CONTOURS_QTY=6
LAT/MainParam
$IF V.E.START_PART!="SP0SC0"
$GOTO V.E.START_PART 
$ENDIF
 
;PART: 1
;CONTOUR: 1
[SP1SC1]
V.E.START_PART="SP1SC1"
V.E.ALL_CONTOURS="0"
;@@[DetailName(blacha7_005)]
V.E.ALL_CONTOURS="1"
N111 M115
N112 G00X206.0982Y459.4881 M57
N113 G90
N114 M50 ;Sensor ON
/N115 M10 ;Beam ON
N116 G131 V.E.ACC[14]
N117 G133 V.E.JERK[14]
#CONTOUR MODE [AUTO_DEV, PATH_DEV=0.1]
N118 G261
;(FastCut)
N119 T15 G42 ;(IGNORE_SIMULATION)
N120 M49 G01X202.6341Y457.4881 FV.E.FEEDRATE[14]   ;@@[ENTRY]
N121 G131 V.E.ACC[15]
N122 G133 V.E.JERK[15]
N123 G01X8.0000Y345.1160 FV.E.FEEDRATE[15]
N124 G01X8.0000Y120.3720
N125 G01X202.6341Y8.0000
N126 G01X397.2681Y120.3720
N127 G01X397.2681Y345.1160
N128 G01X202.6341Y457.4881
N129 G260
N130 M96
N131 M11 ;Beam OFF
N132 M53 ;ping pong from travel
 
;PART: 2
;CONTOUR: 1
[SP2SC1]
V.E.START_PART="SP2SC1"
V.E.ALL_CONTOURS="0"
;@@[DetailName(blacha7_003)]
V.E.ALL_CONTOURS="1"
N133 M115
N134 G138 G40 G00X273.6963Y512.5772 M57
N135 G90
N136 M50 ;Sensor ON
/N137 M10 ;Beam ON
N138 G131 V.E.ACC[14]
N139 G133 V.E.JERK[14]
#CONTOUR MODE [AUTO_DEV, PATH_DEV=0.1]
N140 G261
;(FastCut)
N141 T15 G41 ;(IGNORE_SIMULATION)
N142 M49 G01X276.4019Y509.6310 FV.E.FEEDRATE[14]   ;@@[ENTRY]
N143 G131 V.E.ACC[15]
N144 G133 V.E.JERK[15]
N145 G02X355.3365Y423.6766I39.4673J-42.9772 FV.E.FEEDRATE[15]
N146 G02X276.4019Y509.6310I-39.4673J42.9772
N147 G260
N148 M96
N149 M11 ;Beam OFF
N150 M53 ;ping pong from travel
 
;PART: 3
;CONTOUR: 1
[SP3SC1]
V.E.START_PART="SP3SC1"
V.E.ALL_CONTOURS="0"
;@@[DetailName(blacha7_002)]
V.E.ALL_CONTOURS="1"
N151 M115
N152 G138 G40 G00X173.2321Y621.9038 M57
N153 G90
N154 M50 ;Sensor ON
/N155 M10 ;Beam ON
N156 G131 V.E.ACC[14]
N157 G133 V.E.JERK[14]
#CONTOUR MODE [AUTO_DEV, PATH_DEV=0.1]
N158 G261
;(FastCut)
N159 T15 G41 ;(IGNORE_SIMULATION)
N160 M49 G01X170.9753Y618.6013 FV.E.FEEDRATE[14]   ;@@[ENTRY]
N161 G131 V.E.ACC[15]
N162 G133 V.E.JERK[15]
N163 G02X53.5108Y446.7108I-58.7323J-85.9453 FV.E.FEEDRATE[15]
N164 G02X170.9753Y618.6013I58.7322J85.9452
N165 G260
N166 M96
N167 M11 ;Beam OFF
N168 M53 ;ping pong from travel
 
;PART: 4
;CONTOUR: 1
[SP4SC1]
V.E.START_PART="SP4SC1"
V.E.ALL_CONTOURS="0"
;@@[DetailName(blacha7_006)]
V.E.ALL_CONTOURS="1"
N169 M115
N170 G138 G40 G00X262.6766Y752.7030 M57
N171 G90
N172 M50 ;Sensor ON
/N173 M10 ;Beam ON
N174 G131 V.E.ACC[14]
N175 G133 V.E.JERK[14]
#CONTOUR MODE [AUTO_DEV, PATH_DEV=0.1]
N176 G261
;(FastCut)
N177 T15 G42 ;(IGNORE_SIMULATION)
N178 M49 G01X260.3255Y749.4669 FV.E.FEEDRATE[14]   ;@@[ENTRY]
N179 G131 V.E.ACC[15]
N180 G133 V.E.JERK[15]
N181 G01X175.6903Y632.9765 FV.E.FEEDRATE[15]
N182 G01X260.3255Y516.4862
N183 G01X397.2681Y560.9815
N184 G01X397.2681Y704.9716
N185 G01X260.3255Y749.4669
N186 G260
N187 M96
N188 M11 ;Beam OFF
N189 M53 ;ping pong from travel
 
;PART: 5
;CONTOUR: 1
[SP5SC1]
V.E.START_PART="SP5SC1"
V.E.ALL_CONTOURS="0"
;@@[DetailName(blacha7_004)]
V.E.ALL_CONTOURS="1"
N190 M115
N191 G138 G40 G00X219.5364Y782.1715 M57
N192 G90
N193 M50 ;Sensor ON
/N194 M10 ;Beam ON
N195 G131 V.E.ACC[14]
N196 G133 V.E.JERK[14]
#CONTOUR MODE [AUTO_DEV, PATH_DEV=0.1]
N197 G261
;(FastCut)
N198 T15 G41 ;(IGNORE_SIMULATION)
N199 M49 G01X223.1016Y783.9853 FV.E.FEEDRATE[14]   ;@@[ENTRY]
N200 G131 V.E.ACC[15]
N201 G133 V.E.JERK[15]
N202 G02X318.3454Y832.4415I47.6219J24.2281 FV.E.FEEDRATE[15]
N203 G02X223.1016Y783.9853I-47.6219J-24.2281
N204 G260
N205 M96
N206 M11 ;Beam OFF
N207 M53 ;ping pong from travel
 
;PART: 6
;CONTOUR: 1
[SP6SC1]
V.E.START_PART="SP6SC1"
V.E.ALL_CONTOURS="0"
;@@[DetailName(blacha7_001)]
V.E.ALL_CONTOURS="1"
N208 M115
N209 G138 G40 G00X8.0000Y674.5502 M57
N210 G90
N211 M50 ;Sensor ON
/N212 M10 ;Beam ON
N213 G131 V.E.ACC[14]
N214 G133 V.E.JERK[14]
#CONTOUR MODE [AUTO_DEV, PATH_DEV=0.1]
N215 G261
;(FastCut)
N216 T15 G41 ;(IGNORE_SIMULATION)
N217 M49 G01X8.0000Y678.5502 FV.E.FEEDRATE[14]   ;@@[ENTRY]
N218 G131 V.E.ACC[15]
N219 G133 V.E.JERK[15]
N220 G01X8.0000Y903.0377 FV.E.FEEDRATE[15]
N221 G02X28.0000Y923.0377I20.0000J0.0000
N222 G01X211.1513Y923.0377
N223 G01X211.1513Y698.5502
N224 G02X191.1513Y678.5502I-20.0000J0.0000
N225 G01X8.0000Y678.5502
N226 G260
N227 M96
N228 M11 ;Beam OFF
N229 M56 ;high
M13 ;Gas OFF
G40 G1X8.0000Y678.5502
;PROCESS_END
[END]
T0 ;(IGNORE_SIMULATION)
G04 0.1
M51
V.E.PROGRAM_STATE=3
G01 Z0 F100000
G04 0.1
$IF V.G.ACS_ACTIVE
#ACS OFF
$ENDIF
G131 100
$IF V.E.PS_AUTO_EXCHANGE
V.E.AUTO_EXCHANGE_PCH=TRUE
$ENDIF
V.E.PROGRAM_STATE=4
G04 0.1
M30
