;CK-AN Post V22.1 SP190  run on 2024.02.28
%_N_ARKUSZ_4001_MPF
;$PATH=/_N_WKS_DIR/_N_ARKUSZ_4001_WPD
; (MAIN PROGRAM)
;*MODEL EAG_INSPIRE_ERIS
;DATE FEB 28 2024 
;*SHEET 2000.0000 1000.0000 1.5 0 1 0.0000 0.0000
;START= BOTTOM-LEFT
;MAT Steel 1.5 
;*T100  B 0.2000  
;(Laser End)
;PROCESS_END
;Start questions
;NumberOfSheets=1
;TRC Active
G90
V.E.SHEET_X=2000.0000
V.E.SHEET_Y=1000.0000
V.E.MATERIAL="ST000-01.50M-N2-F0"
V.E.ESTIMATION_TIME="00:29"
V.E.CONTOURS_QTY=22
LAT/MainParam
$IF V.E.START_PART!="SP0SC0"
$GOTO V.E.START_PART 
$ENDIF
 
;PART: 1
;CONTOUR: 1
[SP1SC1]
V.E.START_PART="SP1SC1"
V.E.ALL_CONTOURS="0"
;@@[DetailName(blacha4_010)]
V.E.ALL_CONTOURS="1"
N111 M115
N112 G00X192.5558Y38.3838 M57
N113 G90
N114 M50 ;Sensor ON
/N115 M10 ;Beam ON
N116 G131 V.E.ACC[14]
N117 G133 V.E.JERK[14]
#CONTOUR MODE [AUTO_DEV, PATH_DEV=0.1]
N118 G261
;(FastCut)
N119 T15 G42 ;(IGNORE_SIMULATION)
N120 M49 G01X188.5558Y38.3838 FV.E.FEEDRATE[14]   ;@@[ENTRY]
N121 G131 V.E.ACC[15]
N122 G133 V.E.JERK[15]
N123 G01X8.0000Y38.3839 FV.E.FEEDRATE[15]
N124 G01X8.0000Y8.0000
N125 G01X188.5558Y8.0000
N126 G01X188.5558Y38.3838
N127 G260
N128 M96
N129 M11 ;Beam OFF
N130 M53 ;ping pong from travel
 
;PART: 2
;CONTOUR: 1
[SP2SC1]
V.E.START_PART="SP2SC1"
V.E.ALL_CONTOURS="0"
;@@[DetailName(blacha4_004)]
V.E.ALL_CONTOURS="1"
N131 M115
N132 G138 G40 G00X190.5558Y66.8867 M57
N133 G90
N134 M50 ;Sensor ON
/N135 M10 ;Beam ON
N136 G131 V.E.ACC[14]
N137 G133 V.E.JERK[14]
#CONTOUR MODE [AUTO_DEV, PATH_DEV=0.1]
N138 G261
;(FastCut)
N139 T15 G41 ;(IGNORE_SIMULATION)
N140 M49 G01X194.5558Y66.8867 FV.E.FEEDRATE[14]   ;@@[ENTRY]
N141 G131 V.E.ACC[15]
N142 G133 V.E.JERK[15]
N143 G01X194.5558Y125.7734 FV.E.FEEDRATE[15]
N144 G01X232.8734Y125.7734
N145 G01X232.8734Y8.0000
N146 G01X194.5558Y8.0000
N147 G01X194.5558Y66.8867
N148 G260
N149 M96
N150 M11 ;Beam OFF
N151 M53 ;ping pong from travel
 
;PART: 3
;CONTOUR: 1
[SP3SC1]
V.E.START_PART="SP3SC1"
V.E.ALL_CONTOURS="0"
;@@[DetailName(blacha4_010)]
V.E.ALL_CONTOURS="1"
N152 M115
N153 G138 G40 G00X98.2779Y78.7677 M57
N154 G90
N155 M50 ;Sensor ON
/N156 M10 ;Beam ON
N157 G131 V.E.ACC[14]
N158 G133 V.E.JERK[14]
#CONTOUR MODE [AUTO_DEV, PATH_DEV=0.1]
N159 G261
;(FastCut)
N160 T15 G41 ;(IGNORE_SIMULATION)
N161 M49 G01X98.2779Y74.7677 FV.E.FEEDRATE[14]   ;@@[ENTRY]
N162 G131 V.E.ACC[15]
N163 G133 V.E.JERK[15]
N164 G01X188.5558Y74.7677 FV.E.FEEDRATE[15]
N165 G01X188.5558Y44.3839
N166 G01X8.0000Y44.3839
N167 G01X8.0000Y74.7677
N168 G01X98.2779Y74.7677
N169 G260
N170 M96
N171 M11 ;Beam OFF
N172 M53 ;ping pong from travel
 
;PART: 4
;CONTOUR: 1
[SP4SC1]
V.E.START_PART="SP4SC1"
V.E.ALL_CONTOURS="0"
;@@[DetailName(blacha4_007)]
V.E.ALL_CONTOURS="1"
N173 M115
N174 G138 G40 G00X55.0344Y146.2627 M57
N175 G90
N176 M50 ;Sensor ON
/N177 M10 ;Beam ON
N178 G131 V.E.ACC[14]
N179 G133 V.E.JERK[14]
#CONTOUR MODE [AUTO_DEV, PATH_DEV=0.1]
N180 G261
;(FastCut)
N181 T15 G41 ;(IGNORE_SIMULATION)
N182 M49 G01X51.0344Y146.2627 FV.E.FEEDRATE[14]   ;@@[ENTRY]
N183 G131 V.E.ACC[15]
N184 G133 V.E.JERK[15]
N185 G01X51.0344Y80.7677 FV.E.FEEDRATE[15]
N186 G01X8.0000Y80.7677
N187 G01X8.0000Y211.7577
N188 G01X51.0344Y211.7577
N189 G01X51.0344Y146.2627
N190 G260
N191 M96
N192 M11 ;Beam OFF
N193 M53 ;ping pong from travel
 
;PART: 5
;CONTOUR: 1
[SP5SC1]
V.E.START_PART="SP5SC1"
V.E.ALL_CONTOURS="0"
;@@[DetailName(blacha4_012)]
V.E.ALL_CONTOURS="1"
N194 M115
N195 G138 G40 G00X192.0244Y123.8021 M57
N196 G90
N197 M50 ;Sensor ON
/N198 M10 ;Beam ON
N199 G131 V.E.ACC[14]
N200 G133 V.E.JERK[14]
#CONTOUR MODE [AUTO_DEV, PATH_DEV=0.1]
N201 G261
;(FastCut)
N202 T15 G42 ;(IGNORE_SIMULATION)
N203 M49 G01X188.0244Y123.8021 FV.E.FEEDRATE[14]   ;@@[ENTRY]
N204 G131 V.E.ACC[15]
N205 G133 V.E.JERK[15]
N206 G01X57.0344Y123.8021 FV.E.FEEDRATE[15]
N207 G01X57.0344Y80.7677
N208 G01X188.0244Y80.7677
N209 G01X188.0244Y123.8021
N210 G260
N211 M96
N212 M11 ;Beam OFF
N213 M53 ;ping pong from travel
 
;PART: 6
;CONTOUR: 1
[SP6SC1]
V.E.START_PART="SP6SC1"
V.E.ALL_CONTOURS="0"
;@@[DetailName(blacha4_004)]
V.E.ALL_CONTOURS="1"
N214 M115
N215 G138 G40 G00X178.8078Y168.1197 M57
N216 G90
N217 M50 ;Sensor ON
/N218 M10 ;Beam ON
N219 G131 V.E.ACC[14]
N220 G133 V.E.JERK[14]
#CONTOUR MODE [AUTO_DEV, PATH_DEV=0.1]
N221 G261
;(FastCut)
N222 T15 G42 ;(IGNORE_SIMULATION)
N223 M49 G01X174.8078Y168.1197 FV.E.FEEDRATE[14]   ;@@[ENTRY]
N224 G131 V.E.ACC[15]
N225 G133 V.E.JERK[15]
N226 G01X57.0344Y168.1197 FV.E.FEEDRATE[15]
N227 G01X57.0344Y129.8021
N228 G01X174.8078Y129.8021
N229 G01X174.8078Y168.1197
N230 G260
N231 M96
N232 M11 ;Beam OFF
N233 M53 ;ping pong from travel
 
;PART: 7
;CONTOUR: 1
[SP7SC1]
V.E.START_PART="SP7SC1"
V.E.ALL_CONTOURS="0"
;@@[DetailName(blacha4_011)]
V.E.ALL_CONTOURS="1"
N234 M115
N235 G138 G40 G00X176.8078Y181.3369 M57
N236 G90
N237 M50 ;Sensor ON
/N238 M10 ;Beam ON
N239 G131 V.E.ACC[14]
N240 G133 V.E.JERK[14]
#CONTOUR MODE [AUTO_DEV, PATH_DEV=0.1]
N241 G261
;(FastCut)
N242 T15 G41 ;(IGNORE_SIMULATION)
N243 M49 G01X180.8078Y181.3369 FV.E.FEEDRATE[14]   ;@@[ENTRY]
N244 G131 V.E.ACC[15]
N245 G133 V.E.JERK[15]
N246 G01X231.0095Y181.3369 FV.E.FEEDRATE[15]
N247 G01X231.0095Y131.7734
N248 G01X180.8078Y131.7734
N249 G01X180.8078Y181.3369
N250 G260
N251 M96
N252 M11 ;Beam OFF
N253 M53 ;ping pong from travel
 
;PART: 8
;CONTOUR: 1
[SP8SC1]
V.E.START_PART="SP8SC1"
V.E.ALL_CONTOURS="0"
;@@[DetailName(blacha4_011)]
V.E.ALL_CONTOURS="1"
N254 M115
N255 G138 G40 G00X179.9802Y241.5386 M57
N256 G90
N257 M50 ;Sensor ON
/N258 M10 ;Beam ON
N259 G131 V.E.ACC[14]
N260 G133 V.E.JERK[14]
#CONTOUR MODE [AUTO_DEV, PATH_DEV=0.1]
N261 G261
;(FastCut)
N262 T15 G42 ;(IGNORE_SIMULATION)
N263 M49 G01X179.9802Y237.5386 FV.E.FEEDRATE[14]   ;@@[ENTRY]
N264 G131 V.E.ACC[15]
N265 G133 V.E.JERK[15]
N266 G01X179.9802Y187.3369 FV.E.FEEDRATE[15]
N267 G01X229.5436Y187.3369
N268 G01X229.5436Y237.5386
N269 G01X179.9802Y237.5386
N270 G260
N271 M96
N272 M11 ;Beam OFF
N273 M53 ;ping pong from travel
 
;PART: 9
;CONTOUR: 1
[SP9SC1]
V.E.START_PART="SP9SC1"
V.E.ALL_CONTOURS="0"
;@@[DetailName(blacha4_008)]
V.E.ALL_CONTOURS="1"
N274 M115
N275 G138 G40 G00X79.8610Y243.9807 M57
N276 G90
N277 M50 ;Sensor ON
/N278 M10 ;Beam ON
N279 G131 V.E.ACC[14]
N280 G133 V.E.JERK[14]
#CONTOUR MODE [AUTO_DEV, PATH_DEV=0.1]
N281 G261
;(FastCut)
N282 T15 G41 ;(IGNORE_SIMULATION)
N283 M49 G01X83.8610Y243.9807 FV.E.FEEDRATE[14]   ;@@[ENTRY]
N284 G131 V.E.ACC[15]
N285 G133 V.E.JERK[15]
N286 G01X173.9802Y243.9807 FV.E.FEEDRATE[15]
N287 G01X173.9802Y174.1197
N288 G01X83.8610Y174.1197
N289 G01X83.8610Y243.9807
N290 G260
N291 M96
N292 M11 ;Beam OFF
N293 M53 ;ping pong from travel
 
;PART: 10
;CONTOUR: 1
[SP10SC1]
V.E.START_PART="SP10SC1"
V.E.ALL_CONTOURS="0"
;@@[DetailName(blacha4_008)]
V.E.ALL_CONTOURS="1"
N294 M115
N295 G138 G40 G00X77.8610Y311.8769 M57
N296 G90
N297 M50 ;Sensor ON
/N298 M10 ;Beam ON
N299 G131 V.E.ACC[14]
N300 G133 V.E.JERK[14]
#CONTOUR MODE [AUTO_DEV, PATH_DEV=0.1]
N301 G261
;(FastCut)
N302 T15 G41 ;(IGNORE_SIMULATION)
N303 M49 G01X77.8610Y307.8769 FV.E.FEEDRATE[14]   ;@@[ENTRY]
N304 G131 V.E.ACC[15]
N305 G133 V.E.JERK[15]
N306 G01X77.8610Y217.7577 FV.E.FEEDRATE[15]
N307 G01X8.0000Y217.7577
N308 G01X8.0000Y307.8769
N309 G01X77.8610Y307.8769
N310 G260
N311 M96
N312 M11 ;Beam OFF
N313 M53 ;ping pong from travel
 
;PART: 11
;CONTOUR: 1
[SP11SC1]
V.E.START_PART="SP11SC1"
V.E.ALL_CONTOURS="0"
;@@[DetailName(blacha4_003)]
V.E.ALL_CONTOURS="1"
N314 M115
N315 G138 G40 G00X83.8610Y297.9896 M57
N316 G90
N317 M50 ;Sensor ON
/N318 M10 ;Beam ON
N319 G131 V.E.ACC[14]
N320 G133 V.E.JERK[14]
#CONTOUR MODE [AUTO_DEV, PATH_DEV=0.1]
N321 G261
;(FastCut)
N322 T15 G42 ;(IGNORE_SIMULATION)
N323 M49 G01X83.8610Y293.9896 FV.E.FEEDRATE[14]   ;@@[ENTRY]
N324 G131 V.E.ACC[15]
N325 G133 V.E.JERK[15]
N326 G01X83.8610Y249.9807 FV.E.FEEDRATE[15]
N327 G01X215.8086Y249.9807
N328 G01X215.8086Y293.9896
N329 G01X83.8610Y293.9896
N330 G260
N331 M96
N332 M11 ;Beam OFF
N333 M53 ;ping pong from travel
 
;PART: 12
;CONTOUR: 1
[SP12SC1]
V.E.START_PART="SP12SC1"
V.E.ALL_CONTOURS="0"
;@@[DetailName(blacha4_002)]
V.E.ALL_CONTOURS="1"
N334 M115
N335 G138 G40 G00X83.1370Y363.1471 M57
N336 G90
N337 M50 ;Sensor ON
/N338 M10 ;Beam ON
N339 G131 V.E.ACC[14]
N340 G133 V.E.JERK[14]
#CONTOUR MODE [AUTO_DEV, PATH_DEV=0.1]
N341 G261
;(FastCut)
N342 T15 G41 ;(IGNORE_SIMULATION)
N343 M49 G01X79.1370Y363.1471 FV.E.FEEDRATE[14]   ;@@[ENTRY]
N344 G131 V.E.ACC[15]
N345 G133 V.E.JERK[15]
N346 G01X79.1370Y313.8769 FV.E.FEEDRATE[15]
N347 G01X8.0000Y313.8769
N348 G01X8.0000Y412.4172
N349 G01X79.1370Y412.4172
N350 G01X79.1370Y363.1471
N351 G260
N352 M96
N353 M11 ;Beam OFF
N354 M53 ;ping pong from travel
 
;PART: 13
;CONTOUR: 1
[SP13SC1]
V.E.START_PART="SP13SC1"
V.E.ALL_CONTOURS="0"
;@@[DetailName(blacha4_003)]
V.E.ALL_CONTOURS="1"
N355 M115
N356 G138 G40 G00X151.1108Y347.9984 M57
N357 G90
N358 M50 ;Sensor ON
/N359 M10 ;Beam ON
N360 G131 V.E.ACC[14]
N361 G133 V.E.JERK[14]
#CONTOUR MODE [AUTO_DEV, PATH_DEV=0.1]
N362 G261
;(FastCut)
N363 T15 G41 ;(IGNORE_SIMULATION)
N364 M49 G01X151.1108Y343.9984 FV.E.FEEDRATE[14]   ;@@[ENTRY]
N365 G131 V.E.ACC[15]
N366 G133 V.E.JERK[15]
N367 G01X217.0846Y343.9984 FV.E.FEEDRATE[15]
N368 G01X217.0846Y299.9896
N369 G01X85.1370Y299.9896
N370 G01X85.1370Y343.9984
N371 G01X151.1108Y343.9984
N372 G260
N373 M96
N374 M11 ;Beam OFF
N375 M53 ;ping pong from travel
 
;PART: 14
;CONTOUR: 1
[SP14SC1]
V.E.START_PART="SP14SC1"
V.E.ALL_CONTOURS="0"
;@@[DetailName(blacha4_006)]
V.E.ALL_CONTOURS="1"
N376 M115
N377 G138 G40 G00X162.5231Y567.7566 M57
N378 G90
N379 M50 ;Sensor ON
/N380 M10 ;Beam ON
N381 G131 V.E.ACC[14]
N382 G133 V.E.JERK[14]
#CONTOUR MODE [AUTO_DEV, PATH_DEV=0.1]
N383 G261
;(FastCut)
N384 T15 G41 ;(IGNORE_SIMULATION)
N385 M49 G01X158.5231Y567.7566 FV.E.FEEDRATE[14]   ;@@[ENTRY]
N386 G131 V.E.ACC[15]
N387 G133 V.E.JERK[15]
N388 G01X158.5231Y349.9984 FV.E.FEEDRATE[15]
N389 G01X91.4548Y349.9984
N390 G01X91.4548Y785.5147
N391 G01X158.5231Y785.5147
N392 G01X158.5231Y567.7566
N393 G260
N394 M96
N395 M11 ;Beam OFF
N396 M53 ;ping pong from travel
 
;PART: 15
;CONTOUR: 1
[SP15SC1]
V.E.START_PART="SP15SC1"
V.E.ALL_CONTOURS="0"
;@@[DetailName(blacha4_006)]
V.E.ALL_CONTOURS="1"
N397 M115
N398 G138 G40 G00X160.5231Y567.7566 M57
N399 G90
N400 M50 ;Sensor ON
/N401 M10 ;Beam ON
N402 G131 V.E.ACC[14]
N403 G133 V.E.JERK[14]
#CONTOUR MODE [AUTO_DEV, PATH_DEV=0.1]
N404 G261
;(FastCut)
N405 T15 G41 ;(IGNORE_SIMULATION)
N406 M49 G01X164.5231Y567.7566 FV.E.FEEDRATE[14]   ;@@[ENTRY]
N407 G131 V.E.ACC[15]
N408 G133 V.E.JERK[15]
N409 G01X164.5231Y785.5147 FV.E.FEEDRATE[15]
N410 G01X231.5915Y785.5147
N411 G01X231.5915Y349.9984
N412 G01X164.5231Y349.9984
N413 G01X164.5231Y567.7566
N414 G260
N415 M96
N416 M11 ;Beam OFF
N417 M53 ;ping pong from travel
 
;PART: 16
;CONTOUR: 1
[SP16SC1]
V.E.START_PART="SP16SC1"
V.E.ALL_CONTOURS="0"
;@@[DetailName(blacha4_009)]
V.E.ALL_CONTOURS="1"
N418 M115
N419 G138 G40 G00X85.4548Y551.7654 M57
N420 G90
N421 M50 ;Sensor ON
/N422 M10 ;Beam ON
N423 G131 V.E.ACC[14]
N424 G133 V.E.JERK[14]
#CONTOUR MODE [AUTO_DEV, PATH_DEV=0.1]
N425 G261
;(FastCut)
N426 T15 G41 ;(IGNORE_SIMULATION)
N427 M49 G01X85.4548Y547.7654 FV.E.FEEDRATE[14]   ;@@[ENTRY]
N428 G131 V.E.ACC[15]
N429 G133 V.E.JERK[15]
N430 G01X85.4548Y418.4172 FV.E.FEEDRATE[15]
N431 G01X8.0000Y418.4172
N432 G01X8.0000Y547.7654
N433 G01X85.4548Y547.7654
N434 G260
N435 M96
N436 M11 ;Beam OFF
N437 M53 ;ping pong from travel
 
;PART: 17
;CONTOUR: 1
[SP17SC1]
V.E.START_PART="SP17SC1"
V.E.ALL_CONTOURS="0"
;@@[DetailName(blacha4_009)]
V.E.ALL_CONTOURS="1"
N438 M115
N439 G138 G40 G00X85.4548Y687.1135 M57
N440 G90
N441 M50 ;Sensor ON
/N442 M10 ;Beam ON
N443 G131 V.E.ACC[14]
N444 G133 V.E.JERK[14]
#CONTOUR MODE [AUTO_DEV, PATH_DEV=0.1]
N445 G261
;(FastCut)
N446 T15 G41 ;(IGNORE_SIMULATION)
N447 M49 G01X85.4548Y683.1135 FV.E.FEEDRATE[14]   ;@@[ENTRY]
N448 G131 V.E.ACC[15]
N449 G133 V.E.JERK[15]
N450 G01X85.4548Y553.7654 FV.E.FEEDRATE[15]
N451 G01X8.0000Y553.7654
N452 G01X8.0000Y683.1135
N453 G01X85.4548Y683.1135
N454 G260
N455 M96
N456 M11 ;Beam OFF
N457 M53 ;ping pong from travel
 
;PART: 18
;CONTOUR: 1
[SP18SC1]
V.E.START_PART="SP18SC1"
V.E.ALL_CONTOURS="0"
;@@[DetailName(blacha4_002)]
V.E.ALL_CONTOURS="1"
N458 M115
N459 G138 G40 G00X83.1370Y787.6538 M57
N460 G90
N461 M50 ;Sensor ON
/N462 M10 ;Beam ON
N463 G131 V.E.ACC[14]
N464 G133 V.E.JERK[14]
#CONTOUR MODE [AUTO_DEV, PATH_DEV=0.1]
N465 G261
;(FastCut)
N466 T15 G42 ;(IGNORE_SIMULATION)
N467 M49 G01X79.1370Y787.6538 FV.E.FEEDRATE[14]   ;@@[ENTRY]
N468 G131 V.E.ACC[15]
N469 G133 V.E.JERK[15]
N470 G01X8.0000Y787.6538 FV.E.FEEDRATE[15]
N471 G01X8.0000Y689.1135
N472 G01X79.1370Y689.1135
N473 G01X79.1370Y787.6538
N474 G260
N475 M96
N476 M11 ;Beam OFF
N477 M53 ;ping pong from travel
 
;PART: 19
;CONTOUR: 1
[SP19SC1]
V.E.START_PART="SP19SC1"
V.E.ALL_CONTOURS="0"
;@@[DetailName(blacha4_001)]
V.E.ALL_CONTOURS="1"
N478 M115
N479 G138 G40 G00X120.7242Y892.1942 M57
N480 G90
N481 M50 ;Sensor ON
/N482 M10 ;Beam ON
N483 G131 V.E.ACC[14]
N484 G133 V.E.JERK[14]
#CONTOUR MODE [AUTO_DEV, PATH_DEV=0.1]
N485 G261
;(FastCut)
N486 T15 G42 ;(IGNORE_SIMULATION)
N487 M49 G01X116.7242Y892.1942 FV.E.FEEDRATE[14]   ;@@[ENTRY]
N488 G131 V.E.ACC[15]
N489 G133 V.E.JERK[15]
N490 G01X8.0000Y892.1942 FV.E.FEEDRATE[15]
N491 G01X8.0000Y793.6538
N492 G01X116.7242Y793.6538
N493 G01X116.7242Y892.1942
N494 G260
N495 M96
N496 M11 ;Beam OFF
N497 M53 ;ping pong from travel
 
;PART: 20
;CONTOUR: 1
[SP20SC1]
V.E.START_PART="SP20SC1"
V.E.ALL_CONTOURS="0"
;@@[DetailName(blacha4_001)]
V.E.ALL_CONTOURS="1"
N498 M115
N499 G138 G40 G00X122.7242Y896.1942 M57
N500 G90
N501 M50 ;Sensor ON
/N502 M10 ;Beam ON
N503 G131 V.E.ACC[14]
N504 G133 V.E.JERK[14]
#CONTOUR MODE [AUTO_DEV, PATH_DEV=0.1]
N505 G261
;(FastCut)
N506 T15 G42 ;(IGNORE_SIMULATION)
N507 M49 G01X122.7242Y892.1942 FV.E.FEEDRATE[14]   ;@@[ENTRY]
N508 G131 V.E.ACC[15]
N509 G133 V.E.JERK[15]
N510 G01X122.7242Y793.6538 FV.E.FEEDRATE[15]
N511 G01X231.4483Y793.6538
N512 G01X231.4483Y892.1942
N513 G01X122.7242Y892.1942
N514 G260
N515 M96
N516 M11 ;Beam OFF
N517 M53 ;ping pong from travel
 
;PART: 21
;CONTOUR: 1
[SP21SC1]
V.E.START_PART="SP21SC1"
V.E.ALL_CONTOURS="0"
;@@[DetailName(blacha4_005)]
V.E.ALL_CONTOURS="1"
N518 M115
N519 G138 G40 G00X122.7242Y894.1942 M57
N520 G90
N521 M50 ;Sensor ON
/N522 M10 ;Beam ON
N523 G131 V.E.ACC[14]
N524 G133 V.E.JERK[14]
#CONTOUR MODE [AUTO_DEV, PATH_DEV=0.1]
N525 G261
;(FastCut)
N526 T15 G41 ;(IGNORE_SIMULATION)
N527 M49 G01X122.7242Y898.1942 FV.E.FEEDRATE[14]   ;@@[ENTRY]
N528 G131 V.E.ACC[15]
N529 G133 V.E.JERK[15]
N530 G01X122.7242Y991.4065 FV.E.FEEDRATE[15]
N531 G01X229.5343Y991.4065
N532 G01X229.5343Y898.1942
N533 G01X122.7242Y898.1942
N534 G260
N535 M96
N536 M11 ;Beam OFF
N537 M53 ;ping pong from travel
 
;PART: 22
;CONTOUR: 1
[SP22SC1]
V.E.START_PART="SP22SC1"
V.E.ALL_CONTOURS="0"
;@@[DetailName(blacha4_005)]
V.E.ALL_CONTOURS="1"
N538 M115
N539 G138 G40 G00X8.0000Y894.1942 M57
N540 G90
N541 M50 ;Sensor ON
/N542 M10 ;Beam ON
N543 G131 V.E.ACC[14]
N544 G133 V.E.JERK[14]
#CONTOUR MODE [AUTO_DEV, PATH_DEV=0.1]
N545 G261
;(FastCut)
N546 T15 G41 ;(IGNORE_SIMULATION)
N547 M49 G01X8.0000Y898.1942 FV.E.FEEDRATE[14]   ;@@[ENTRY]
N548 G131 V.E.ACC[15]
N549 G133 V.E.JERK[15]
N550 G01X8.0000Y991.4065 FV.E.FEEDRATE[15]
N551 G01X114.8101Y991.4065
N552 G01X114.8101Y898.1942
N553 G01X8.0000Y898.1942
N554 G260
N555 M96
N556 M11 ;Beam OFF
N557 M56 ;high
M13 ;Gas OFF
G40 G1X8.0000Y898.1942
;PROCESS_END
[END]
T0 ;(IGNORE_SIMULATION)
G04 0.1
M51
V.E.PROGRAM_STATE=3
G01 Z0 F100000
G04 0.1
$IF V.G.ACS_ACTIVE
#ACS OFF
$ENDIF
G131 100
$IF V.E.PS_AUTO_EXCHANGE
V.E.AUTO_EXCHANGE_PCH=TRUE
$ENDIF
V.E.PROGRAM_STATE=4
G04 0.1
M30
