;CK-AN Post V22.1 SP273  run on 2024.04.25
%_N_BLACHA_1001_MPF
;$PATH=/_N_WKS_DIR/_N_BLACHA_1001_WPD
; (MAIN PROGRAM)
;*MODEL EAG_INSPIRE_ERIS
;DATE APR 25 2024 
;*SHEET 469.5800 803.0400 3.0 0 1 0.0000 0.0000
;START= BOTTOM-LEFT
;MAT Steel 3.0 
;*T100  B 0.2000  
;(Laser End)
;PROCESS_END
;Start questions
;NumberOfSheets=1
;TRC Active
G90
V.E.SHEET_X=469.5800
V.E.SHEET_Y=803.0400
V.E.MATERIAL="ST000-03.00M-N2-F0"
V.E.ESTIMATION_TIME="00:31"
V.E.CONTOURS_QTY=24
LAT/MainParam
$IF V.E.START_PART!="SP0SC0"
$GOTO V.E.START_PART 
$ENDIF
 
;PART: 1
;CONTOUR: 1
[SP1SC1]
V.E.START_PART="SP1SC1"
V.E.ALL_CONTOURS="0"
;@@[DetailName(blacha1_001)]
V.E.ALL_CONTOURS="1"
N111 M115
N112 G00X226.5941Y90.0062 M57
N113 G90
N114 M50 ;Sensor ON
/N115 M10 ;Beam ON
N116 G131 V.E.ACC[14]
N117 G133 V.E.JERK[14]
#CONTOUR MODE [AUTO_DEV, PATH_DEV=0.1]
N118 G261
;(FastCut)
N119 T15 G41 ;(IGNORE_SIMULATION)
N120 M49 G01X223.1205Y86.4099 FV.E.FEEDRATE[14]   ;@@[ENTRY]
N121 G131 V.E.ACC[15]
N122 G133 V.E.JERK[15]
N123 G02X223.8158Y46.3331I-19.6908J-20.3861 FV.E.FEEDRATE[15]
N124 G02X35.2594Y211.6206I-90.2819J87.2025
N125 G02X79.6411Y176.3567I22.1909J-17.6320
N126 G03X183.0436Y85.7145I53.8928J-42.8211
N127 G02X223.1205Y86.4099I20.3861J-19.6907
N128 G260
N129 M96
N130 M11 ;Beam OFF
N131 M53 ;ping pong from travel
 
;PART: 2
;CONTOUR: 1
[SP2SC1]
V.E.START_PART="SP2SC1"
V.E.ALL_CONTOURS="0"
;@@[DetailName(blacha1_016)]
V.E.ALL_CONTOURS="1"
N132 M115
N133 G138 G40 G00X229.3669Y172.8266 M57
N134 G90
N135 M50 ;Sensor ON
/N136 M10 ;Beam ON
N137 G131 V.E.ACC[14]
N138 G133 V.E.JERK[14]
#CONTOUR MODE [AUTO_DEV, PATH_DEV=0.1]
N139 G261
;(FastCut)
N140 T15 G42 ;(IGNORE_SIMULATION)
N141 M49 G01X225.8314Y176.3621 FV.E.FEEDRATE[14]   ;@@[ENTRY]
N142 G131 V.E.ACC[15]
N143 G133 V.E.JERK[15]
N144 G01X171.6008Y230.5927 FV.E.FEEDRATE[15]
N145 G01X97.5203Y210.7429
N146 G01X77.6705Y136.6625
N147 G01X131.9012Y82.4319
N148 G01X205.9816Y102.2817
N149 G01X225.8314Y176.3621
N150 G260
N151 M96
N152 M11 ;Beam OFF
N153 M53 ;ping pong from travel
 
;PART: 3
;CONTOUR: 1
[SP3SC1]
V.E.START_PART="SP3SC1"
V.E.ALL_CONTOURS="0"
;@@[DetailName(blacha1_006)]
V.E.ALL_CONTOURS="1"
N154 M115
N155 G138 G40 G00X339.7885Y154.6773 M57
N156 G90
N157 M50 ;Sensor ON
/N158 M10 ;Beam ON
N159 G131 V.E.ACC[14]
N160 G133 V.E.JERK[14]
#CONTOUR MODE [AUTO_DEV, PATH_DEV=0.1]
N161 G261
;(FastCut)
N162 T15 G41 ;(IGNORE_SIMULATION)
N163 M49 G01X334.7885Y154.6773 FV.E.FEEDRATE[14]   ;@@[ENTRY]
N164 G131 V.E.ACC[15]
N165 G133 V.E.JERK[15]
N166 G01X334.7885Y56.4984 FV.E.FEEDRATE[15]
N167 G02X237.7918Y56.4984I-48.4983J0.0000
N168 G01X237.7918Y154.6773
N169 G02X334.7885Y154.6773I48.4984J0.0000
N170 G260
N171 M96
N172 M11 ;Beam OFF
N173 M53 ;ping pong from travel
 
;PART: 4
;CONTOUR: 1
[SP4SC1]
V.E.START_PART="SP4SC1"
V.E.ALL_CONTOURS="0"
;@@[DetailName(blacha1_012)]
V.E.ALL_CONTOURS="1"
N174 M115
N175 G138 G40 G00X372.2595Y156.6217 M57
N176 G90
N177 M50 ;Sensor ON
/N178 M10 ;Beam ON
N179 G131 V.E.ACC[14]
N180 G133 V.E.JERK[14]
#CONTOUR MODE [AUTO_DEV, PATH_DEV=0.1]
N181 G261
;(FastCut)
N182 T15 G41 ;(IGNORE_SIMULATION)
N183 M49 G01X374.4427Y152.1236 FV.E.FEEDRATE[14]   ;@@[ENTRY]
N184 G131 V.E.ACC[15]
N185 G133 V.E.JERK[15]
N186 G02X426.4092Y45.0575I25.9833J-53.5330 FV.E.FEEDRATE[15]
N187 G02X374.4427Y152.1236I-25.9832J53.5331
N188 G260
N189 M96
N190 M11 ;Beam OFF
N191 M53 ;ping pong from travel
 
;PART: 5
;CONTOUR: 1
[SP5SC1]
V.E.START_PART="SP5SC1"
V.E.ALL_CONTOURS="0"
;@@[DetailName(blacha1_018)]
V.E.ALL_CONTOURS="1"
N192 M115
N193 G138 G40 G00X329.5814Y244.6643 M57
N194 G90
N195 M50 ;Sensor ON
/N196 M10 ;Beam ON
N197 G131 V.E.ACC[14]
N198 G133 V.E.JERK[14]
#CONTOUR MODE [AUTO_DEV, PATH_DEV=0.1]
N199 G261
;(FastCut)
N200 T15 G42 ;(IGNORE_SIMULATION)
N201 M49 G01X331.1300Y239.9102 FV.E.FEEDRATE[14]   ;@@[ENTRY]
N202 G131 V.E.ACC[15]
N203 G133 V.E.JERK[15]
N204 G01X355.7922Y164.1968 FV.E.FEEDRATE[15]
N205 G01X435.4210Y164.2552
N206 G01X459.9721Y240.0048
N207 G01X395.5167Y286.7621
N208 G01X331.1300Y239.9102
N209 G260
N210 M96
N211 M11 ;Beam OFF
N212 M53 ;ping pong from travel
 
;PART: 6
;CONTOUR: 1
[SP6SC1]
V.E.START_PART="SP6SC1"
V.E.ALL_CONTOURS="0"
;@@[DetailName(blacha1_015)]
V.E.ALL_CONTOURS="1"
N213 M115
N214 G138 G40 G00X240.5906Y264.8978 M57
N215 G90
N216 M50 ;Sensor ON
/N217 M10 ;Beam ON
N218 G131 V.E.ACC[14]
N219 G133 V.E.JERK[14]
#CONTOUR MODE [AUTO_DEV, PATH_DEV=0.1]
N220 G261
;(FastCut)
N221 T15 G42 ;(IGNORE_SIMULATION)
N222 M49 G01X240.3289Y259.9046 FV.E.FEEDRATE[14]   ;@@[ENTRY]
N223 G131 V.E.ACC[15]
N224 G133 V.E.JERK[15]
N225 G01X237.8087Y211.8171 FV.E.FEEDRATE[15]
N226 G01X323.3902Y207.3319
N227 G01X325.9103Y255.4195
N228 G01X240.3289Y259.9046
N229 G260
N230 M96
N231 M11 ;Beam OFF
N232 M53 ;ping pong from travel
 
;PART: 7
;CONTOUR: 1
[SP7SC1]
V.E.START_PART="SP7SC1"
V.E.ALL_CONTOURS="0"
;@@[DetailName(blacha1_003)]
V.E.ALL_CONTOURS="1"
N233 M115
N234 G138 G40 G00X234.6746Y376.1319 M57
N235 G90
N236 M50 ;Sensor ON
/N237 M10 ;Beam ON
N238 G131 V.E.ACC[14]
N239 G133 V.E.JERK[14]
#CONTOUR MODE [AUTO_DEV, PATH_DEV=0.1]
N240 G261
;(FastCut)
N241 T15 G42 ;(IGNORE_SIMULATION)
N242 M49 G01X230.0203Y377.9587 FV.E.FEEDRATE[14]   ;@@[ENTRY]
N243 G131 V.E.ACC[15]
N244 G133 V.E.JERK[15]
N245 G03X197.5526Y390.7025I-16.2339J6.3719 FV.E.FEEDRATE[15]
N246 G03X197.5526Y215.2244I223.5345J-87.7390
N247 G03X230.0203Y227.9682I16.2338J6.3719
N248 G02X230.0203Y377.9587I191.0668J74.9953
N249 G260
N250 M96
N251 M11 ;Beam OFF
N252 M53 ;ping pong from travel
 
;PART: 8
;CONTOUR: 1
[SP8SC1]
V.E.START_PART="SP8SC1"
V.E.ALL_CONTOURS="0"
;@@[DetailName(blacha1_013)]
V.E.ALL_CONTOURS="1"
N253 M115
N254 G138 G40 G00X346.5116Y359.7905 M57
N255 G90
N256 M50 ;Sensor ON
/N257 M10 ;Beam ON
N258 G131 V.E.ACC[14]
N259 G133 V.E.JERK[14]
#CONTOUR MODE [AUTO_DEV, PATH_DEV=0.1]
N260 G261
;(FastCut)
N261 T15 G41 ;(IGNORE_SIMULATION)
N262 M49 G01X342.7755Y356.4676 FV.E.FEEDRATE[14]   ;@@[ENTRY]
N263 G131 V.E.ACC[15]
N264 G133 V.E.JERK[15]
N265 G02X258.8536Y281.8245I-41.9609J-37.3216 FV.E.FEEDRATE[15]
N266 G02X342.7755Y356.4676I41.9610J37.3215
N267 G260
N268 M96
N269 M11 ;Beam OFF
N270 M53 ;ping pong from travel
 
;PART: 9
;CONTOUR: 1
[SP9SC1]
V.E.START_PART="SP9SC1"
V.E.ALL_CONTOURS="0"
;@@[DetailName(blacha1_019)]
V.E.ALL_CONTOURS="1"
N271 M115
N272 G138 G40 G00X401.6853Y408.8140 M57
N273 G90
N274 M50 ;Sensor ON
/N275 M10 ;Beam ON
N276 G131 V.E.ACC[14]
N277 G133 V.E.JERK[14]
#CONTOUR MODE [AUTO_DEV, PATH_DEV=0.1]
N278 G261
;(FastCut)
N279 T15 G42 ;(IGNORE_SIMULATION)
N280 M49 G01X396.6853Y408.8140 FV.E.FEEDRATE[14]   ;@@[ENTRY]
N281 G131 V.E.ACC[15]
N282 G133 V.E.JERK[15]
N283 G01X363.1198Y408.8140 FV.E.FEEDRATE[15]
N284 G01X363.1198Y292.7625
N285 G01X396.6853Y292.7625
N286 G01X396.6853Y408.8140
N287 G260
N288 M96
N289 M11 ;Beam OFF
N290 M53 ;ping pong from travel
 
;PART: 10
;CONTOUR: 1
[SP10SC1]
V.E.START_PART="SP10SC1"
V.E.ALL_CONTOURS="0"
;@@[DetailName(blacha1_005)]
V.E.ALL_CONTOURS="1"
N291 M115
N292 G138 G40 G00X397.6853Y443.5174 M57
N293 G90
N294 M50 ;Sensor ON
/N295 M10 ;Beam ON
N296 G131 V.E.ACC[14]
N297 G133 V.E.JERK[14]
#CONTOUR MODE [AUTO_DEV, PATH_DEV=0.1]
N298 G261
;(FastCut)
N299 T15 G41 ;(IGNORE_SIMULATION)
N300 M49 G01X402.6853Y443.5174 FV.E.FEEDRATE[14]   ;@@[ENTRY]
N301 G131 V.E.ACC[15]
N302 G133 V.E.JERK[15]
N303 G02X461.5836Y443.5174I29.4491J0.0000 FV.E.FEEDRATE[15]
N304 G01X461.5836Y304.0169
N305 G02X402.6853Y304.0169I-29.4492J0.0000
N306 G01X402.6853Y443.5174
N307 G260
N308 M96
N309 M11 ;Beam OFF
N310 M53 ;ping pong from travel
 
;PART: 11
;CONTOUR: 1
[SP11SC1]
V.E.START_PART="SP11SC1"
V.E.ALL_CONTOURS="0"
;@@[DetailName(blacha1_010)]
V.E.ALL_CONTOURS="1"
N311 M115
N312 G138 G40 G00X315.0759Y473.1329 M57
N313 G90
N314 M50 ;Sensor ON
/N315 M10 ;Beam ON
N316 G131 V.E.ACC[14]
N317 G133 V.E.JERK[14]
#CONTOUR MODE [AUTO_DEV, PATH_DEV=0.1]
N318 G261
;(FastCut)
N319 T15 G41 ;(IGNORE_SIMULATION)
N320 M49 G01X319.9670Y472.0947 FV.E.FEEDRATE[14]   ;@@[ENTRY]
N321 G131 V.E.ACC[15]
N322 G133 V.E.JERK[15]
N323 G02X398.3849Y455.4498I39.2090J-8.3224 FV.E.FEEDRATE[15]
N324 G02X319.9670Y472.0947I-39.2089J8.3225
N325 G260
N326 M96
N327 M11 ;Beam OFF
N328 M53 ;ping pong from travel
 
;PART: 12
;CONTOUR: 1
[SP12SC1]
V.E.START_PART="SP12SC1"
V.E.ALL_CONTOURS="0"
;@@[DetailName(blacha1_004)]
V.E.ALL_CONTOURS="1"
N329 M115
N330 G138 G40 G00X254.1182Y486.0250 M57
N331 G90
N332 M50 ;Sensor ON
/N333 M10 ;Beam ON
N334 G131 V.E.ACC[14]
N335 G133 V.E.JERK[14]
#CONTOUR MODE [AUTO_DEV, PATH_DEV=0.1]
N336 G261
;(FastCut)
N337 T15 G41 ;(IGNORE_SIMULATION)
N338 M49 G01X255.1461Y481.1318 FV.E.FEEDRATE[14]   ;@@[ENTRY]
N339 G131 V.E.ACC[15]
N340 G133 V.E.JERK[15]
N341 G02X255.1461Y377.3038I10.9054J-51.9140 FV.E.FEEDRATE[15]
N342 G02X264.1220Y420.0324I4.4879J21.3643
N343 G03X264.1220Y438.4032I1.9295J9.1854
N344 G02X255.1461Y481.1318I-4.4880J21.3643
N345 G260
N346 M96
N347 M11 ;Beam OFF
N348 M53 ;ping pong from travel
 
;PART: 13
;CONTOUR: 1
[SP13SC1]
V.E.START_PART="SP13SC1"
V.E.ALL_CONTOURS="0"
;@@[DetailName(blacha1_024)]
V.E.ALL_CONTOURS="1"
N349 M115
N350 G138 G40 G00X303.8296Y574.3996 M57
N351 G90
N352 M50 ;Sensor ON
/N353 M10 ;Beam ON
N354 G131 V.E.ACC[14]
N355 G133 V.E.JERK[14]
#CONTOUR MODE [AUTO_DEV, PATH_DEV=0.1]
N356 G261
;(FastCut)
N357 T15 G42 ;(IGNORE_SIMULATION)
N358 M49 G01X298.8296Y574.3996 FV.E.FEEDRATE[14]   ;@@[ENTRY]
N359 G131 V.E.ACC[15]
N360 G133 V.E.JERK[15]
N361 G01X237.7918Y574.3996 FV.E.FEEDRATE[15]
N362 G01X237.7918Y488.2685
N363 G01X298.8296Y488.2685
N364 G01X298.8296Y504.1785
N365 G01X256.3271Y504.1785
N366 G01X256.3271Y522.8584
N367 G01X277.5783Y522.8584
N368 G01X277.5783Y538.4765
N369 G01X256.3271Y538.4765
N370 G01X256.3271Y553.6995
N371 G01X298.8296Y553.6995
N372 G01X298.8296Y574.3996
N373 G260
N374 M96
N375 M11 ;Beam OFF
N376 M53 ;ping pong from travel
 
;PART: 14
;CONTOUR: 1
[SP14SC1]
V.E.START_PART="SP14SC1"
V.E.ALL_CONTOURS="0"
;@@[DetailName(blacha1_023)]
V.E.ALL_CONTOURS="1"
N377 M115
N378 G138 G40 G00X368.3926Y673.2598 M57
N379 G90
N380 M50 ;Sensor ON
/N381 M10 ;Beam ON
N382 G131 V.E.ACC[14]
N383 G133 V.E.JERK[14]
#CONTOUR MODE [AUTO_DEV, PATH_DEV=0.1]
N384 G261
;(FastCut)
N385 T15 G42 ;(IGNORE_SIMULATION)
N386 M49 G01X368.3926Y678.2598 FV.E.FEEDRATE[14]   ;@@[ENTRY]
N387 G131 V.E.ACC[15]
N388 G133 V.E.JERK[15]
N389 G01X368.3926Y730.8735 FV.E.FEEDRATE[15]
N390 G01X237.7918Y730.8735
N391 G01X237.7918Y580.3996
N392 G01X281.0920Y580.3996
N393 G01X281.0920Y678.2598
N394 G01X368.3926Y678.2598
N395 G260
N396 M96
N397 M11 ;Beam OFF
N398 M53 ;ping pong from travel
 
;PART: 15
;CONTOUR: 1
[SP15SC1]
V.E.START_PART="SP15SC1"
V.E.ALL_CONTOURS="0"
;@@[DetailName(blacha1_011)]
V.E.ALL_CONTOURS="1"
N399 M115
N400 G138 G40 G00X386.4552Y596.9568 M57
N401 G90
N402 M50 ;Sensor ON
/N403 M10 ;Beam ON
N404 G131 V.E.ACC[14]
N405 G133 V.E.JERK[14]
#CONTOUR MODE [AUTO_DEV, PATH_DEV=0.1]
N406 G261
;(FastCut)
N407 T15 G41 ;(IGNORE_SIMULATION)
N408 M49 G01X381.7432Y598.6293 FV.E.FEEDRATE[14]   ;@@[ENTRY]
N409 G131 V.E.ACC[15]
N410 G133 V.E.JERK[15]
N411 G02X290.0502Y631.1752I-45.8465J16.2730 FV.E.FEEDRATE[15]
N412 G02X381.7432Y598.6293I45.8465J-16.2729
N413 G260
N414 M96
N415 M11 ;Beam OFF
N416 M53 ;ping pong from travel
 
;PART: 16
;CONTOUR: 1
[SP16SC1]
V.E.START_PART="SP16SC1"
V.E.ALL_CONTOURS="0"
;@@[DetailName(blacha1_008)]
V.E.ALL_CONTOURS="1"
N417 M115
N418 G138 G40 G00X405.2700Y590.2326 M57
N419 G90
N420 M50 ;Sensor ON
/N421 M10 ;Beam ON
N422 G131 V.E.ACC[14]
N423 G133 V.E.JERK[14]
#CONTOUR MODE [AUTO_DEV, PATH_DEV=0.1]
N424 G261
;(FastCut)
N425 T15 G41 ;(IGNORE_SIMULATION)
N426 M49 G01X406.1556Y585.3116 FV.E.FEEDRATE[14]   ;@@[ENTRY]
N427 G131 V.E.ACC[15]
N428 G133 V.E.JERK[15]
N429 G02X422.7911Y492.8770I8.3177J-46.2173 FV.E.FEEDRATE[15]
N430 G02X406.1556Y585.3116I-8.3178J46.2173
N431 G260
N432 M96
N433 M11 ;Beam OFF
N434 M53 ;ping pong from travel
 
;PART: 17
;CONTOUR: 1
[SP17SC1]
V.E.START_PART="SP17SC1"
V.E.ALL_CONTOURS="0"
;@@[DetailName(blacha1_022)]
V.E.ALL_CONTOURS="1"
N435 M115
N436 G138 G40 G00X390.7014Y671.4601 M57
N437 G90
N438 M50 ;Sensor ON
/N439 M10 ;Beam ON
N440 G131 V.E.ACC[14]
N441 G133 V.E.JERK[14]
#CONTOUR MODE [AUTO_DEV, PATH_DEV=0.1]
N442 G261
;(FastCut)
N443 T15 G42 ;(IGNORE_SIMULATION)
N444 M49 G01X390.7014Y666.4601 FV.E.FEEDRATE[14]   ;@@[ENTRY]
N445 G131 V.E.ACC[15]
N446 G133 V.E.JERK[15]
N447 G01X390.7014Y592.2046 FV.E.FEEDRATE[15]
N448 G01X446.2197Y592.2046
N449 G01X446.2197Y666.4601
N450 G01X390.7014Y666.4601
N451 G260
N452 M96
N453 M11 ;Beam OFF
N454 M53 ;ping pong from travel
 
;PART: 18
;CONTOUR: 1
[SP18SC1]
V.E.START_PART="SP18SC1"
V.E.ALL_CONTOURS="0"
;@@[DetailName(blacha1_020)]
V.E.ALL_CONTOURS="1"
N455 M115
N456 G138 G40 G00X369.3926Y672.4601 M57
N457 G90
N458 M50 ;Sensor ON
/N459 M10 ;Beam ON
N460 G131 V.E.ACC[14]
N461 G133 V.E.JERK[14]
#CONTOUR MODE [AUTO_DEV, PATH_DEV=0.1]
N462 G261
;(FastCut)
N463 T15 G42 ;(IGNORE_SIMULATION)
N464 M49 G01X374.3926Y672.4601 FV.E.FEEDRATE[14]   ;@@[ENTRY]
N465 G131 V.E.ACC[15]
N466 G133 V.E.JERK[15]
N467 G01X454.3704Y672.4601 FV.E.FEEDRATE[15]
N468 G01X454.3704Y731.5602
N469 G01X374.3926Y731.5602
N470 G01X374.3926Y672.4601
N471 G260
N472 M96
N473 M11 ;Beam OFF
N474 M53 ;ping pong from travel
 
;PART: 19
;CONTOUR: 1
[SP19SC1]
V.E.START_PART="SP19SC1"
V.E.ALL_CONTOURS="0"
;@@[DetailName(blacha1_002)]
V.E.ALL_CONTOURS="1"
N475 M115
N476 G138 G40 G00X70.9888Y660.4106 M57
N477 G90
N478 M50 ;Sensor ON
/N479 M10 ;Beam ON
N480 G131 V.E.ACC[14]
N481 G133 V.E.JERK[14]
#CONTOUR MODE [AUTO_DEV, PATH_DEV=0.1]
N482 G261
;(FastCut)
N483 T15 G41 ;(IGNORE_SIMULATION)
N484 M49 G01X75.1741Y663.1461 FV.E.FEEDRATE[14]   ;@@[ENTRY]
N485 G131 V.E.ACC[15]
N486 G133 V.E.JERK[15]
N487 G02X187.6140Y784.4512I71.3469J46.6311 FV.E.FEEDRATE[15]
N488 G02X145.3076Y624.5518I-41.0930J-74.6740
N489 G02X146.0116Y674.0011I0.3520J24.7247
N490 G03X163.7711Y741.1240I0.5094J35.7761
N491 G03X116.5709Y690.2023I-17.2501J-31.3468
N492 G02X75.1741Y663.1461I-20.6984J-13.5281
N493 G260
N494 M96
N495 M11 ;Beam OFF
N496 M53 ;ping pong from travel
 
;PART: 20
;CONTOUR: 1
[SP20SC1]
V.E.START_PART="SP20SC1"
V.E.ALL_CONTOURS="0"
;@@[DetailName(blacha1_009)]
V.E.ALL_CONTOURS="1"
N497 M115
N498 G138 G40 G00X36.6950Y689.9937 M57
N499 G90
N500 M50 ;Sensor ON
/N501 M10 ;Beam ON
N502 G131 V.E.ACC[14]
N503 G133 V.E.JERK[14]
#CONTOUR MODE [AUTO_DEV, PATH_DEV=0.1]
N504 G261
;(FastCut)
N505 T15 G41 ;(IGNORE_SIMULATION)
N506 M49 G01X35.8348Y694.9192 FV.E.FEEDRATE[14]   ;@@[ENTRY]
N507 G131 V.E.ACC[15]
N508 G133 V.E.JERK[15]
N509 G02X27.7096Y741.4456I-4.0626J23.2632 FV.E.FEEDRATE[15]
N510 G02X35.8348Y694.9192I4.0626J-23.2632
N511 G260
N512 M96
N513 M11 ;Beam OFF
N514 M53 ;ping pong from travel
 
;PART: 21
;CONTOUR: 1
[SP21SC1]
V.E.START_PART="SP21SC1"
V.E.ALL_CONTOURS="0"
;@@[DetailName(blacha1_014)]
V.E.ALL_CONTOURS="1"
N515 M115
N516 G138 G40 G00X63.9723Y533.5136 M57
N517 G90
N518 M50 ;Sensor ON
/N519 M10 ;Beam ON
N520 G131 V.E.ACC[14]
N521 G133 V.E.JERK[14]
#CONTOUR MODE [AUTO_DEV, PATH_DEV=0.1]
N522 G261
;(FastCut)
N523 T15 G41 ;(IGNORE_SIMULATION)
N524 M49 G01X58.9723Y533.5136 FV.E.FEEDRATE[14]   ;@@[ENTRY]
N525 G131 V.E.ACC[15]
N526 G133 V.E.JERK[15]
N527 G01X58.9723Y390.3087 FV.E.FEEDRATE[15]
N528 G01X8.0000Y390.3087
N529 G01X8.0000Y676.7185
N530 G01X58.9723Y676.7185
N531 G01X58.9723Y533.5136
N532 G260
N533 M96
N534 M11 ;Beam OFF
N535 M53 ;ping pong from travel
 
;PART: 22
;CONTOUR: 1
[SP22SC1]
V.E.START_PART="SP22SC1"
V.E.ALL_CONTOURS="0"
;@@[DetailName(blacha1_021)]
V.E.ALL_CONTOURS="1"
N536 M115
N537 G138 G40 G00X64.9723Y550.8096 M57
N538 G90
N539 M50 ;Sensor ON
/N540 M10 ;Beam ON
N541 G131 V.E.ACC[14]
N542 G133 V.E.JERK[14]
#CONTOUR MODE [AUTO_DEV, PATH_DEV=0.1]
N543 G261
;(FastCut)
N544 T15 G41 ;(IGNORE_SIMULATION)
N545 M49 G01X64.9723Y555.8096 FV.E.FEEDRATE[14]   ;@@[ENTRY]
N546 G131 V.E.ACC[15]
N547 G133 V.E.JERK[15]
N548 G01X64.9723Y618.5158 FV.E.FEEDRATE[15]
N549 G01X224.4535Y618.5158
N550 G01X224.4535Y555.8096
N551 G01X64.9723Y555.8096
N552 G260
N553 M96
N554 M11 ;Beam OFF
N555 M53 ;ping pong from travel
 
;PART: 23
;CONTOUR: 1
[SP23SC1]
V.E.START_PART="SP23SC1"
V.E.ALL_CONTOURS="0"
;@@[DetailName(blacha1_017)]
V.E.ALL_CONTOURS="1"
N556 M115
N557 G138 G40 G00X77.7417Y422.6300 M57
N558 G90
N559 M50 ;Sensor ON
/N560 M10 ;Beam ON
N561 G131 V.E.ACC[14]
N562 G133 V.E.JERK[14]
#CONTOUR MODE [AUTO_DEV, PATH_DEV=0.1]
N563 G261
;(FastCut)
N564 T15 G42 ;(IGNORE_SIMULATION)
N565 M49 G01X81.8403Y419.7661 FV.E.FEEDRATE[14]   ;@@[ENTRY]
N566 G131 V.E.ACC[15]
N567 G133 V.E.JERK[15]
N568 G01X124.0927Y390.2419 FV.E.FEEDRATE[15]
N569 G01X175.6295Y391.1916
N570 G01X216.7654Y422.2526
N571 G01X231.7879Y471.5605
N572 G01X214.9589Y520.2815
N573 G01X172.7065Y549.8057
N574 G01X121.1696Y548.8559
N575 G01X80.0337Y517.7950
N576 G01X65.0112Y468.4870
N577 G01X81.8403Y419.7661
N578 G260
N579 M96
N580 M11 ;Beam OFF
N581 M53 ;ping pong from travel
 
;PART: 24
;CONTOUR: 1
[SP24SC1]
V.E.START_PART="SP24SC1"
V.E.ALL_CONTOURS="0"
;@@[DetailName(blacha1_007)]
V.E.ALL_CONTOURS="1"
N582 M115
N583 G138 G40 G00X4.1350Y306.8575 M57
N584 G90
N585 M50 ;Sensor ON
/N586 M10 ;Beam ON
N587 G131 V.E.ACC[14]
N588 G133 V.E.JERK[14]
#CONTOUR MODE [AUTO_DEV, PATH_DEV=0.1]
N589 G261
;(FastCut)
N590 T15 G41 ;(IGNORE_SIMULATION)
N591 M49 G01X8.1350Y306.8575 FV.E.FEEDRATE[14]   ;@@[ENTRY]
N592 G131 V.E.ACC[15]
N593 G133 V.E.JERK[15]
N594 G02X174.8150Y306.8575I83.3400J0.0000 FV.E.FEEDRATE[15]
N595 G02X8.1350Y306.8575I-83.3400J0.0000
N596 G260
N597 M96
N598 M11 ;Beam OFF
N599 M56 ;high
M13 ;Gas OFF
G40 G1X8.1350Y306.8575
;PROCESS_END
[END]
T0 ;(IGNORE_SIMULATION)
G04 0.1
M51
V.E.PROGRAM_STATE=3
G01 Z0 F100000
G04 0.1
$IF V.G.ACS_ACTIVE
#ACS OFF
$ENDIF
G131 100
$IF V.E.PS_AUTO_EXCHANGE
V.E.AUTO_EXCHANGE_PCH=TRUE
$ENDIF
V.E.PROGRAM_STATE=4
G04 0.1
M30
