;CK-AN Post V22.1 SP273  run on 2024.04.25
%_N_BLACHA_2001_MPF
;$PATH=/_N_WKS_DIR/_N_BLACHA_2001_WPD
; (MAIN PROGRAM)
;*MODEL EAG_INSPIRE_ERIS
;DATE APR 25 2024 
;*SHEET 430.0000 780.0000 3.0 0 1 0.0000 0.0000
;START= BOTTOM-LEFT
;MAT Steel 3.0 
;*T100  B 0.2000  
;(Laser End)
;PROCESS_END
;Start questions
;NumberOfSheets=1
;TRC Active
G90
V.E.SHEET_X=430.0000
V.E.SHEET_Y=780.0000
V.E.MATERIAL="ST000-03.00M-N2-F0"
V.E.ESTIMATION_TIME="01:01"
V.E.CONTOURS_QTY=108
LAT/MainParam
$IF V.E.START_PART!="SP0SC0"
$GOTO V.E.START_PART 
$ENDIF
 
;PART: 1
;CONTOUR: 1
[SP1SC1]
V.E.START_PART="SP1SC1"
V.E.ALL_CONTOURS="0"
;@@[DetailName(blacha2_009)]
N111 M115
N112 G00X20.0000Y20.0000 M57
N113 G90
N114 M50 ;Sensor ON
/N115 M10 ;Beam ON
N116 G131 V.E.ACC[14]
N117 G133 V.E.JERK[14]
#CONTOUR MODE [AUTO_DEV, PATH_DEV=0.1]
N118 G261
;(FastCut)
N119 T15 G42 ;(IGNORE_SIMULATION)
N120 M49 G01X17.4248Y21.5389 FV.E.FEEDRATE[14]   ;@@[ENTRY]
N121 G131 V.E.ACC[15]
N122 G133 V.E.JERK[15]
N123 G02X22.5752Y18.4611I2.5752J-1.5389 FV.E.FEEDRATE[15]
N124 G02X17.4248Y21.5389I-2.5752J1.5389
N125 G260
N126 M95
N127 M11 ;Beam OFF
N128 M53 ;ping pong from travel
;CONTOUR: 2
[SP1SC2]
V.E.START_PART="SP1SC2"
N129 M115
N130 G138 G40 G00X53.5181Y82.0000 M57
N131 G90
N132 M50 ;Sensor ON
/N133 M10 ;Beam ON
N134 G131 V.E.ACC[14]
N135 G133 V.E.JERK[14]
#CONTOUR MODE [AUTO_DEV, PATH_DEV=0.1]
N136 G261
;(FastCut)
N137 T15 G42 ;(IGNORE_SIMULATION)
N138 M49 G01X52.6610Y86.9260 FV.E.FEEDRATE[14]   ;@@[ENTRY]
N139 G131 V.E.ACC[15]
N140 G133 V.E.JERK[15]
N141 G02X58.4441Y82.8571I0.8571J-4.9260 FV.E.FEEDRATE[15]
N142 G03X82.8571Y58.4441I29.5559J5.1429
N143 G02X81.1429Y48.5921I-0.8571J-4.9260
N144 G02X48.5921Y81.1429I6.8571J39.4079
N145 G02X52.6610Y86.9260I4.9260J0.8571
N146 G260
N147 M95
N148 M11 ;Beam OFF
N149 M53 ;ping pong from travel
;CONTOUR: 3
[SP1SC3]
V.E.START_PART="SP1SC3"
N150 M115
N151 G138 G40 G00X77.6585Y92.7824 M57
N152 G90
N153 M50 ;Sensor ON
/N154 M10 ;Beam ON
N155 G131 V.E.ACC[14]
N156 G133 V.E.JERK[14]
#CONTOUR MODE [AUTO_DEV, PATH_DEV=0.1]
N157 G261
;(FastCut)
N158 T15 G42 ;(IGNORE_SIMULATION)
N159 M49 G01X73.7839Y91.7885 FV.E.FEEDRATE[14]   ;@@[ENTRY]
N160 G131 V.E.ACC[15]
N161 G133 V.E.JERK[15]
N162 G02X122.2161Y104.2115I24.2161J6.2115 FV.E.FEEDRATE[15]
N163 G02X73.7839Y91.7885I-24.2161J-6.2115
N164 G260
N165 M95
N166 M11 ;Beam OFF
N167 M53 ;ping pong from travel
;CONTOUR: 4
[SP1SC4]
V.E.START_PART="SP1SC4"
N168 M115
N169 G138 G40 G00X63.2513Y132.7487 M57
N170 G90
N171 M50 ;Sensor ON
/N172 M10 ;Beam ON
N173 G131 V.E.ACC[14]
N174 G133 V.E.JERK[14]
#CONTOUR MODE [AUTO_DEV, PATH_DEV=0.1]
N175 G261
;(FastCut)
N176 T15 G42 ;(IGNORE_SIMULATION)
N177 M49 G01X59.7157Y136.2843 FV.E.FEEDRATE[14]   ;@@[ENTRY]
N178 G131 V.E.ACC[15]
N179 G133 V.E.JERK[15]
N180 G02X81.1429Y147.4079I28.2843J-28.2843 FV.E.FEEDRATE[15]
N181 G02X82.8571Y137.5559I0.8571J-4.9260
N182 G03X58.4441Y113.1429I5.1429J-29.5559
N183 G02X48.5921Y114.8571I-4.9260J0.8571
N184 G02X59.7157Y136.2843I39.4079J-6.8571
N185 G260
N186 M95
N187 M11 ;Beam OFF
N188 M53 ;ping pong from travel
;CONTOUR: 5
[SP1SC5]
V.E.START_PART="SP1SC5"
N189 M115
N190 G138 G40 G00X20.0000Y176.0000 M57
N191 G90
N192 M50 ;Sensor ON
/N193 M10 ;Beam ON
N194 G131 V.E.ACC[14]
N195 G133 V.E.JERK[14]
#CONTOUR MODE [AUTO_DEV, PATH_DEV=0.1]
N196 G261
;(FastCut)
N197 T15 G42 ;(IGNORE_SIMULATION)
N198 M49 G01X21.1448Y178.7730 FV.E.FEEDRATE[14]   ;@@[ENTRY]
N199 G131 V.E.ACC[15]
N200 G133 V.E.JERK[15]
N201 G02X18.8552Y173.2270I-1.1448J-2.7730 FV.E.FEEDRATE[15]
N202 G02X21.1448Y178.7730I1.1448J2.7730
N203 G260
N204 M95
N205 M11 ;Beam OFF
N206 M53 ;ping pong from travel
;CONTOUR: 6
[SP1SC6]
V.E.START_PART="SP1SC6"
N207 M115
N208 G138 G40 G00X132.7487Y132.7487 M57
N209 G90
N210 M50 ;Sensor ON
/N211 M10 ;Beam ON
N212 G131 V.E.ACC[14]
N213 G133 V.E.JERK[14]
#CONTOUR MODE [AUTO_DEV, PATH_DEV=0.1]
N214 G261
;(FastCut)
N215 T15 G42 ;(IGNORE_SIMULATION)
N216 M49 G01X136.2843Y136.2843 FV.E.FEEDRATE[14]   ;@@[ENTRY]
N217 G131 V.E.ACC[15]
N218 G133 V.E.JERK[15]
N219 G02X147.4079Y114.8571I-28.2843J-28.2843 FV.E.FEEDRATE[15]
N220 G02X137.5559Y113.1429I-4.9260J-0.8571
N221 G03X113.1429Y137.5559I-29.5559J-5.1429
N222 G02X114.8571Y147.4079I0.8571J4.9260
N223 G02X136.2843Y136.2843I-6.8571J-39.4079
N224 G260
N225 M95
N226 M11 ;Beam OFF
N227 M53 ;ping pong from travel
;CONTOUR: 7
[SP1SC7]
V.E.START_PART="SP1SC7"
N228 M115
N229 G138 G40 G00X176.0000Y176.0000 M57
N230 G90
N231 M50 ;Sensor ON
/N232 M10 ;Beam ON
N233 G131 V.E.ACC[14]
N234 G133 V.E.JERK[14]
#CONTOUR MODE [AUTO_DEV, PATH_DEV=0.1]
N235 G261
;(FastCut)
N236 T15 G42 ;(IGNORE_SIMULATION)
N237 M49 G01X178.7730Y174.8552 FV.E.FEEDRATE[14]   ;@@[ENTRY]
N238 G131 V.E.ACC[15]
N239 G133 V.E.JERK[15]
N240 G02X173.2270Y177.1448I-2.7730J1.1448 FV.E.FEEDRATE[15]
N241 G02X178.7730Y174.8552I2.7730J-1.1448
N242 G260
N243 M95
N244 M11 ;Beam OFF
N245 M53 ;ping pong from travel
;CONTOUR: 8
[SP1SC8]
V.E.START_PART="SP1SC8"
N246 M115
N247 G138 G40 G00X132.7487Y63.2513 M57
N248 G90
N249 M50 ;Sensor ON
/N250 M10 ;Beam ON
N251 G131 V.E.ACC[14]
N252 G133 V.E.JERK[14]
#CONTOUR MODE [AUTO_DEV, PATH_DEV=0.1]
N253 G261
;(FastCut)
N254 T15 G42 ;(IGNORE_SIMULATION)
N255 M49 G01X136.2843Y59.7157 FV.E.FEEDRATE[14]   ;@@[ENTRY]
N256 G131 V.E.ACC[15]
N257 G133 V.E.JERK[15]
N258 G02X114.8571Y48.5921I-28.2843J28.2843 FV.E.FEEDRATE[15]
N259 G02X113.1429Y58.4441I-0.8571J4.9260
N260 G03X137.5559Y82.8571I-5.1429J29.5559
N261 G02X147.4079Y81.1429I4.9260J-0.8571
N262 G02X136.2843Y59.7157I-39.4079J6.8571
N263 G260
N264 M95
N265 M11 ;Beam OFF
N266 M53 ;ping pong from travel
;CONTOUR: 9
[SP1SC9]
V.E.START_PART="SP1SC9"
N267 M115
N268 G138 G40 G00X176.0000Y20.0000 M57
N269 G90
N270 M50 ;Sensor ON
/N271 M10 ;Beam ON
N272 G131 V.E.ACC[14]
N273 G133 V.E.JERK[14]
#CONTOUR MODE [AUTO_DEV, PATH_DEV=0.1]
N274 G261
;(FastCut)
N275 T15 G42 ;(IGNORE_SIMULATION)
N276 M49 G01X178.0691Y22.1722 FV.E.FEEDRATE[14]   ;@@[ENTRY]
N277 G131 V.E.ACC[15]
N278 G133 V.E.JERK[15]
N279 G02X173.9309Y17.8278I-2.0691J-2.1722 FV.E.FEEDRATE[15]
N280 G02X178.0691Y22.1722I2.0691J2.1722
N281 G260
N282 M95
N283 M11 ;Beam OFF
N284 M53 ;ping pong from travel
;CONTOUR: 10
[SP1SC10]
V.E.START_PART="SP1SC10"
V.E.ALL_CONTOURS="1"
N285 M115
N286 G138 G40 G00X98.0000Y193.0000 M57
N287 G90
N288 M50 ;Sensor ON
/N289 M10 ;Beam ON
N290 G131 V.E.ACC[14]
N291 G133 V.E.JERK[14]
#CONTOUR MODE [AUTO_DEV, PATH_DEV=0.1]
N292 G261
;(FastCut)
N293 T15 G41 ;(IGNORE_SIMULATION)
N294 M49 G01X98.0000Y188.0000 FV.E.FEEDRATE[14]   ;@@[ENTRY]
N295 G131 V.E.ACC[15]
N296 G133 V.E.JERK[15]
N297 G01X188.0000Y188.0000 FV.E.FEEDRATE[15]
N298 G01X188.0000Y8.0000
N299 G01X8.0000Y8.0000
N300 G01X8.0000Y188.0000
N301 G01X98.0000Y188.0000
N302 G260
N303 M96
N304 M11 ;Beam OFF
N305 M53 ;ping pong from travel
 
;PART: 2
;CONTOUR: 1
[SP2SC1]
V.E.START_PART="SP2SC1"
V.E.ALL_CONTOURS="0"
;@@[DetailName(blacha2_008)]
N306 M115
N307 G138 G40 G00X92.0000Y200.0000 M57
N308 G90
N309 M50 ;Sensor ON
/N310 M10 ;Beam ON
N311 G131 V.E.ACC[14]
N312 G133 V.E.JERK[14]
#CONTOUR MODE [AUTO_DEV, PATH_DEV=0.1]
N313 G261
;(FastCut)
N314 T15 G42 ;(IGNORE_SIMULATION)
N315 M49 G01X91.1677Y198.7521 FV.E.FEEDRATE[14]   ;@@[ENTRY]
N316 G131 V.E.ACC[15]
N317 G133 V.E.JERK[15]
N318 G02X92.8323Y201.2479I0.8323J1.2479 FV.E.FEEDRATE[15]
N319 G02X91.1677Y198.7521I-0.8323J-1.2479
N320 G260
N321 M95
N322 M11 ;Beam OFF
N323 M53 ;ping pong from travel
;CONTOUR: 2
[SP2SC2]
V.E.START_PART="SP2SC2"
N324 M115
N325 G138 G40 G00X63.4630Y217.1876 M57
N326 G90
N327 M50 ;Sensor ON
/N328 M10 ;Beam ON
N329 G131 V.E.ACC[14]
N330 G133 V.E.JERK[14]
#CONTOUR MODE [AUTO_DEV, PATH_DEV=0.1]
N331 G261
;(FastCut)
N332 T15 G42 ;(IGNORE_SIMULATION)
N333 M49 G01X58.5370Y216.3305 FV.E.FEEDRATE[14]   ;@@[ENTRY]
N334 G131 V.E.ACC[15]
N335 G133 V.E.JERK[15]
N336 G02X60.5714Y219.2221I2.4630J0.4286 FV.E.FEEDRATE[15]
N337 G03X72.7780Y231.4286I-2.5714J14.7779
N338 G02X77.7039Y230.5714I2.4629J-0.4286
N339 G02X61.4286Y214.2961I-19.7039J3.4286
N340 G02X58.5370Y216.3305I-0.4286J2.4630
N341 G260
N342 M95
N343 M11 ;Beam OFF
N344 M53 ;ping pong from travel
;CONTOUR: 3
[SP2SC3]
V.E.START_PART="SP2SC3"
N345 M115
N346 G138 G40 G00X31.1876Y228.5370 M57
N347 G90
N348 M50 ;Sensor ON
/N349 M10 ;Beam ON
N350 G131 V.E.ACC[14]
N351 G133 V.E.JERK[14]
#CONTOUR MODE [AUTO_DEV, PATH_DEV=0.1]
N352 G261
;(FastCut)
N353 T15 G42 ;(IGNORE_SIMULATION)
N354 M49 G01X30.3305Y233.4630 FV.E.FEEDRATE[14]   ;@@[ENTRY]
N355 G131 V.E.ACC[15]
N356 G133 V.E.JERK[15]
N357 G02X33.2221Y231.4286I0.4286J-2.4630 FV.E.FEEDRATE[15]
N358 G03X45.4286Y219.2221I14.7779J2.5714
N359 G02X44.5714Y214.2961I-0.4286J-2.4630
N360 G02X28.2961Y230.5714I3.4286J19.7039
N361 G02X30.3305Y233.4630I2.4630J0.4286
N362 G260
N363 M95
N364 M11 ;Beam OFF
N365 M53 ;ping pong from travel
;CONTOUR: 4
[SP2SC4]
V.E.START_PART="SP2SC4"
N366 M115
N367 G138 G40 G00X42.5370Y260.8124 M57
N368 G90
N369 M50 ;Sensor ON
/N370 M10 ;Beam ON
N371 G131 V.E.ACC[14]
N372 G133 V.E.JERK[14]
#CONTOUR MODE [AUTO_DEV, PATH_DEV=0.1]
N373 G261
;(FastCut)
N374 T15 G42 ;(IGNORE_SIMULATION)
N375 M49 G01X47.4630Y261.6695 FV.E.FEEDRATE[14]   ;@@[ENTRY]
N376 G131 V.E.ACC[15]
N377 G133 V.E.JERK[15]
N378 G02X45.4286Y258.7780I-2.4630J-0.4286 FV.E.FEEDRATE[15]
N379 G03X33.2221Y246.5714I2.5714J-14.7780
N380 G02X28.2961Y247.4286I-2.4630J0.4286
N381 G02X44.5714Y263.7039I19.7039J-3.4286
N382 G02X47.4630Y261.6695I0.4286J-2.4630
N383 G260
N384 M95
N385 M11 ;Beam OFF
N386 M53 ;ping pong from travel
;CONTOUR: 5
[SP2SC5]
V.E.START_PART="SP2SC5"
N387 M115
N388 G138 G40 G00X74.8124Y249.4630 M57
N389 G90
N390 M50 ;Sensor ON
/N391 M10 ;Beam ON
N392 G131 V.E.ACC[14]
N393 G133 V.E.JERK[14]
#CONTOUR MODE [AUTO_DEV, PATH_DEV=0.1]
N394 G261
;(FastCut)
N395 T15 G42 ;(IGNORE_SIMULATION)
N396 M49 G01X75.6695Y244.5370 FV.E.FEEDRATE[14]   ;@@[ENTRY]
N397 G131 V.E.ACC[15]
N398 G133 V.E.JERK[15]
N399 G02X72.7780Y246.5714I-0.4286J2.4630 FV.E.FEEDRATE[15]
N400 G03X60.5714Y258.7780I-14.7780J-2.5714
N401 G02X61.4286Y263.7039I0.4286J2.4629
N402 G02X77.7039Y247.4286I-3.4286J-19.7039
N403 G02X75.6695Y244.5370I-2.4630J-0.4286
N404 G260
N405 M95
N406 M11 ;Beam OFF
N407 M53 ;ping pong from travel
;CONTOUR: 6
[SP2SC6]
V.E.START_PART="SP2SC6"
N408 M115
N409 G138 G40 G00X57.4918Y231.7838 M57
N410 G90
N411 M50 ;Sensor ON
/N412 M10 ;Beam ON
N413 G131 V.E.ACC[14]
N414 G133 V.E.JERK[14]
#CONTOUR MODE [AUTO_DEV, PATH_DEV=0.1]
N415 G261
;(FastCut)
N416 T15 G42 ;(IGNORE_SIMULATION)
N417 M49 G01X59.6056Y228.3880 FV.E.FEEDRATE[14]   ;@@[ENTRY]
N418 G131 V.E.ACC[15]
N419 G133 V.E.JERK[15]
N420 G02X46.3944Y249.6120I-6.6056J10.6120 FV.E.FEEDRATE[15]
N421 G02X59.6056Y228.3880I6.6056J-10.6120
N422 G260
N423 M95
N424 M11 ;Beam OFF
N425 M53 ;ping pong from travel
;CONTOUR: 7
[SP2SC7]
V.E.START_PART="SP2SC7"
N426 M115
N427 G138 G40 G00X14.0000Y200.0000 M57
N428 G90
N429 M50 ;Sensor ON
/N430 M10 ;Beam ON
N431 G131 V.E.ACC[14]
N432 G133 V.E.JERK[14]
#CONTOUR MODE [AUTO_DEV, PATH_DEV=0.1]
N433 G261
;(FastCut)
N434 T15 G42 ;(IGNORE_SIMULATION)
N435 M49 G01X12.5003Y200.0288 FV.E.FEEDRATE[14]   ;@@[ENTRY]
N436 G131 V.E.ACC[15]
N437 G133 V.E.JERK[15]
N438 G02X15.4997Y199.9712I1.4997J-0.0288 FV.E.FEEDRATE[15]
N439 G02X12.5003Y200.0288I-1.4997J0.0288
N440 G260
N441 M95
N442 M11 ;Beam OFF
N443 M53 ;ping pong from travel
;CONTOUR: 8
[SP2SC8]
V.E.START_PART="SP2SC8"
N444 M115
N445 G138 G40 G00X14.0000Y278.0000 M57
N446 G90
N447 M50 ;Sensor ON
/N448 M10 ;Beam ON
N449 G131 V.E.ACC[14]
N450 G133 V.E.JERK[14]
#CONTOUR MODE [AUTO_DEV, PATH_DEV=0.1]
N451 G261
;(FastCut)
N452 T15 G42 ;(IGNORE_SIMULATION)
N453 M49 G01X14.0288Y279.4997 FV.E.FEEDRATE[14]   ;@@[ENTRY]
N454 G131 V.E.ACC[15]
N455 G133 V.E.JERK[15]
N456 G02X13.9712Y276.5003I-0.0288J-1.4997 FV.E.FEEDRATE[15]
N457 G02X14.0288Y279.4997I0.0288J1.4997
N458 G260
N459 M95
N460 M11 ;Beam OFF
N461 M53 ;ping pong from travel
;CONTOUR: 9
[SP2SC9]
V.E.START_PART="SP2SC9"
N462 M115
N463 G138 G40 G00X92.0000Y278.0000 M57
N464 G90
N465 M50 ;Sensor ON
/N466 M10 ;Beam ON
N467 G131 V.E.ACC[14]
N468 G133 V.E.JERK[14]
#CONTOUR MODE [AUTO_DEV, PATH_DEV=0.1]
N469 G261
;(FastCut)
N470 T15 G42 ;(IGNORE_SIMULATION)
N471 M49 G01X90.7815Y278.8747 FV.E.FEEDRATE[14]   ;@@[ENTRY]
N472 G131 V.E.ACC[15]
N473 G133 V.E.JERK[15]
N474 G02X93.2185Y277.1253I1.2185J-0.8747 FV.E.FEEDRATE[15]
N475 G02X90.7815Y278.8747I-1.2185J0.8747
N476 G260
N477 M95
N478 M11 ;Beam OFF
N479 M53 ;ping pong from travel
;CONTOUR: 10
[SP2SC10]
V.E.START_PART="SP2SC10"
V.E.ALL_CONTOURS="1"
N480 M115
N481 G138 G40 G00X98.0000Y289.0000 M57
N482 G90
N483 M50 ;Sensor ON
/N484 M10 ;Beam ON
N485 G131 V.E.ACC[14]
N486 G133 V.E.JERK[14]
#CONTOUR MODE [AUTO_DEV, PATH_DEV=0.1]
N487 G261
;(FastCut)
N488 T15 G41 ;(IGNORE_SIMULATION)
N489 M49 G01X98.0000Y284.0000 FV.E.FEEDRATE[14]   ;@@[ENTRY]
N490 G131 V.E.ACC[15]
N491 G133 V.E.JERK[15]
N492 G01X98.0000Y194.0000 FV.E.FEEDRATE[15]
N493 G01X8.0000Y194.0000
N494 G01X8.0000Y284.0000
N495 G01X98.0000Y284.0000
N496 G260
N497 M96
N498 M11 ;Beam OFF
N499 M53 ;ping pong from travel
 
;PART: 3
;CONTOUR: 1
[SP3SC1]
V.E.START_PART="SP3SC1"
V.E.ALL_CONTOURS="0"
;@@[DetailName(blacha2_008)]
N500 M115
N501 G138 G40 G00X110.0000Y278.0000 M57
N502 G90
N503 M50 ;Sensor ON
/N504 M10 ;Beam ON
N505 G131 V.E.ACC[14]
N506 G133 V.E.JERK[14]
#CONTOUR MODE [AUTO_DEV, PATH_DEV=0.1]
N507 G261
;(FastCut)
N508 T15 G42 ;(IGNORE_SIMULATION)
N509 M49 G01X110.8323Y279.2479 FV.E.FEEDRATE[14]   ;@@[ENTRY]
N510 G131 V.E.ACC[15]
N511 G133 V.E.JERK[15]
N512 G02X109.1677Y276.7521I-0.8323J-1.2479 FV.E.FEEDRATE[15]
N513 G02X110.8323Y279.2479I0.8323J1.2479
N514 G260
N515 M95
N516 M11 ;Beam OFF
N517 M53 ;ping pong from travel
;CONTOUR: 2
[SP3SC2]
V.E.START_PART="SP3SC2"
N518 M115
N519 G138 G40 G00X138.5370Y260.8124 M57
N520 G90
N521 M50 ;Sensor ON
/N522 M10 ;Beam ON
N523 G131 V.E.ACC[14]
N524 G133 V.E.JERK[14]
#CONTOUR MODE [AUTO_DEV, PATH_DEV=0.1]
N525 G261
;(FastCut)
N526 T15 G42 ;(IGNORE_SIMULATION)
N527 M49 G01X143.4630Y261.6695 FV.E.FEEDRATE[14]   ;@@[ENTRY]
N528 G131 V.E.ACC[15]
N529 G133 V.E.JERK[15]
N530 G02X141.4286Y258.7780I-2.4630J-0.4286 FV.E.FEEDRATE[15]
N531 G03X129.2221Y246.5714I2.5714J-14.7780
N532 G02X124.2961Y247.4286I-2.4630J0.4286
N533 G02X140.5714Y263.7039I19.7039J-3.4286
N534 G02X143.4630Y261.6695I0.4286J-2.4630
N535 G260
N536 M95
N537 M11 ;Beam OFF
N538 M53 ;ping pong from travel
;CONTOUR: 3
[SP3SC3]
V.E.START_PART="SP3SC3"
N539 M115
N540 G138 G40 G00X170.8124Y249.4630 M57
N541 G90
N542 M50 ;Sensor ON
/N543 M10 ;Beam ON
N544 G131 V.E.ACC[14]
N545 G133 V.E.JERK[14]
#CONTOUR MODE [AUTO_DEV, PATH_DEV=0.1]
N546 G261
;(FastCut)
N547 T15 G42 ;(IGNORE_SIMULATION)
N548 M49 G01X171.6695Y244.5370 FV.E.FEEDRATE[14]   ;@@[ENTRY]
N549 G131 V.E.ACC[15]
N550 G133 V.E.JERK[15]
N551 G02X168.7780Y246.5714I-0.4286J2.4630 FV.E.FEEDRATE[15]
N552 G03X156.5714Y258.7780I-14.7780J-2.5714
N553 G02X157.4286Y263.7039I0.4286J2.4629
N554 G02X173.7039Y247.4286I-3.4286J-19.7039
N555 G02X171.6695Y244.5370I-2.4630J-0.4286
N556 G260
N557 M95
N558 M11 ;Beam OFF
N559 M53 ;ping pong from travel
;CONTOUR: 4
[SP3SC4]
V.E.START_PART="SP3SC4"
N560 M115
N561 G138 G40 G00X159.4630Y217.1876 M57
N562 G90
N563 M50 ;Sensor ON
/N564 M10 ;Beam ON
N565 G131 V.E.ACC[14]
N566 G133 V.E.JERK[14]
#CONTOUR MODE [AUTO_DEV, PATH_DEV=0.1]
N567 G261
;(FastCut)
N568 T15 G42 ;(IGNORE_SIMULATION)
N569 M49 G01X154.5370Y216.3305 FV.E.FEEDRATE[14]   ;@@[ENTRY]
N570 G131 V.E.ACC[15]
N571 G133 V.E.JERK[15]
N572 G02X156.5714Y219.2221I2.4630J0.4286 FV.E.FEEDRATE[15]
N573 G03X168.7780Y231.4286I-2.5714J14.7779
N574 G02X173.7039Y230.5714I2.4629J-0.4286
N575 G02X157.4286Y214.2961I-19.7039J3.4286
N576 G02X154.5370Y216.3305I-0.4286J2.4630
N577 G260
N578 M95
N579 M11 ;Beam OFF
N580 M53 ;ping pong from travel
;CONTOUR: 5
[SP3SC5]
V.E.START_PART="SP3SC5"
N581 M115
N582 G138 G40 G00X127.1876Y228.5370 M57
N583 G90
N584 M50 ;Sensor ON
/N585 M10 ;Beam ON
N586 G131 V.E.ACC[14]
N587 G133 V.E.JERK[14]
#CONTOUR MODE [AUTO_DEV, PATH_DEV=0.1]
N588 G261
;(FastCut)
N589 T15 G42 ;(IGNORE_SIMULATION)
N590 M49 G01X126.3305Y233.4630 FV.E.FEEDRATE[14]   ;@@[ENTRY]
N591 G131 V.E.ACC[15]
N592 G133 V.E.JERK[15]
N593 G02X129.2221Y231.4286I0.4286J-2.4630 FV.E.FEEDRATE[15]
N594 G03X141.4286Y219.2221I14.7779J2.5714
N595 G02X140.5714Y214.2961I-0.4286J-2.4630
N596 G02X124.2961Y230.5714I3.4286J19.7039
N597 G02X126.3305Y233.4630I2.4630J0.4286
N598 G260
N599 M95
N600 M11 ;Beam OFF
N601 M53 ;ping pong from travel
;CONTOUR: 6
[SP3SC6]
V.E.START_PART="SP3SC6"
N602 M115
N603 G138 G40 G00X144.5082Y246.2162 M57
N604 G90
N605 M50 ;Sensor ON
/N606 M10 ;Beam ON
N607 G131 V.E.ACC[14]
N608 G133 V.E.JERK[14]
#CONTOUR MODE [AUTO_DEV, PATH_DEV=0.1]
N609 G261
;(FastCut)
N610 T15 G42 ;(IGNORE_SIMULATION)
N611 M49 G01X142.3944Y249.6120 FV.E.FEEDRATE[14]   ;@@[ENTRY]
N612 G131 V.E.ACC[15]
N613 G133 V.E.JERK[15]
N614 G02X155.6056Y228.3880I6.6056J-10.6120 FV.E.FEEDRATE[15]
N615 G02X142.3944Y249.6120I-6.6056J10.6120
N616 G260
N617 M95
N618 M11 ;Beam OFF
N619 M53 ;ping pong from travel
;CONTOUR: 7
[SP3SC7]
V.E.START_PART="SP3SC7"
N620 M115
N621 G138 G40 G00X188.0000Y278.0000 M57
N622 G90
N623 M50 ;Sensor ON
/N624 M10 ;Beam ON
N625 G131 V.E.ACC[14]
N626 G133 V.E.JERK[14]
#CONTOUR MODE [AUTO_DEV, PATH_DEV=0.1]
N627 G261
;(FastCut)
N628 T15 G42 ;(IGNORE_SIMULATION)
N629 M49 G01X189.4997Y277.9712 FV.E.FEEDRATE[14]   ;@@[ENTRY]
N630 G131 V.E.ACC[15]
N631 G133 V.E.JERK[15]
N632 G02X186.5003Y278.0288I-1.4997J0.0288 FV.E.FEEDRATE[15]
N633 G02X189.4997Y277.9712I1.4997J-0.0288
N634 G260
N635 M95
N636 M11 ;Beam OFF
N637 M53 ;ping pong from travel
;CONTOUR: 8
[SP3SC8]
V.E.START_PART="SP3SC8"
N638 M115
N639 G138 G40 G00X188.0000Y200.0000 M57
N640 G90
N641 M50 ;Sensor ON
/N642 M10 ;Beam ON
N643 G131 V.E.ACC[14]
N644 G133 V.E.JERK[14]
#CONTOUR MODE [AUTO_DEV, PATH_DEV=0.1]
N645 G261
;(FastCut)
N646 T15 G42 ;(IGNORE_SIMULATION)
N647 M49 G01X187.9712Y198.5003 FV.E.FEEDRATE[14]   ;@@[ENTRY]
N648 G131 V.E.ACC[15]
N649 G133 V.E.JERK[15]
N650 G02X188.0288Y201.4997I0.0288J1.4997 FV.E.FEEDRATE[15]
N651 G02X187.9712Y198.5003I-0.0288J-1.4997
N652 G260
N653 M95
N654 M11 ;Beam OFF
N655 M53 ;ping pong from travel
;CONTOUR: 9
[SP3SC9]
V.E.START_PART="SP3SC9"
N656 M115
N657 G138 G40 G00X110.0000Y200.0000 M57
N658 G90
N659 M50 ;Sensor ON
/N660 M10 ;Beam ON
N661 G131 V.E.ACC[14]
N662 G133 V.E.JERK[14]
#CONTOUR MODE [AUTO_DEV, PATH_DEV=0.1]
N663 G261
;(FastCut)
N664 T15 G42 ;(IGNORE_SIMULATION)
N665 M49 G01X110.5607Y198.6087 FV.E.FEEDRATE[14]   ;@@[ENTRY]
N666 G131 V.E.ACC[15]
N667 G133 V.E.JERK[15]
N668 G02X109.4393Y201.3913I-0.5607J1.3913 FV.E.FEEDRATE[15]
N669 G02X110.5607Y198.6087I0.5607J-1.3913
N670 G260
N671 M95
N672 M11 ;Beam OFF
N673 M53 ;ping pong from travel
;CONTOUR: 10
[SP3SC10]
V.E.START_PART="SP3SC10"
V.E.ALL_CONTOURS="1"
N674 M115
N675 G138 G40 G00X99.0000Y284.0000 M57
N676 G90
N677 M50 ;Sensor ON
/N678 M10 ;Beam ON
N679 G131 V.E.ACC[14]
N680 G133 V.E.JERK[14]
#CONTOUR MODE [AUTO_DEV, PATH_DEV=0.1]
N681 G261
;(FastCut)
N682 T15 G41 ;(IGNORE_SIMULATION)
N683 M49 G01X104.0000Y284.0000 FV.E.FEEDRATE[14]   ;@@[ENTRY]
N684 G131 V.E.ACC[15]
N685 G133 V.E.JERK[15]
N686 G01X194.0000Y284.0000 FV.E.FEEDRATE[15]
N687 G01X194.0000Y194.0000
N688 G01X104.0000Y194.0000
N689 G01X104.0000Y284.0000
N690 G260
N691 M96
N692 M11 ;Beam OFF
N693 M53 ;ping pong from travel
 
;PART: 4
;CONTOUR: 1
[SP4SC1]
V.E.START_PART="SP4SC1"
V.E.ALL_CONTOURS="0"
;@@[DetailName(blacha2_003)]
V.E.ALL_CONTOURS="1"
N694 M115
N695 G138 G40 G00X104.5518Y322.0711 M57
N696 G90
N697 M50 ;Sensor ON
/N698 M10 ;Beam ON
N699 G131 V.E.ACC[14]
N700 G133 V.E.JERK[14]
#CONTOUR MODE [AUTO_DEV, PATH_DEV=0.1]
N701 G261
;(FastCut)
N702 T15 G41 ;(IGNORE_SIMULATION)
N703 M49 G01X108.0874Y318.5355 FV.E.FEEDRATE[14]   ;@@[ENTRY]
N704 G131 V.E.ACC[15]
N705 G133 V.E.JERK[15]
N706 G02X111.6229Y320.0000I3.5355J-3.5355 FV.E.FEEDRATE[15]
N707 G01X188.6229Y320.0000
N708 G01X196.6229Y312.0000
N709 G01X196.6229Y292.0000
N710 G02X194.6229Y290.0000I-2.0000J0.0000
N711 G01X108.6229Y290.0000
N712 G01X106.6229Y292.0000
N713 G01X106.6229Y315.0000
N714 G02X108.0874Y318.5355I5.0000J0.0000
N715 G260
N716 M96
N717 M11 ;Beam OFF
N718 M53 ;ping pong from travel
 
;PART: 5
;CONTOUR: 1
[SP5SC1]
V.E.START_PART="SP5SC1"
V.E.ALL_CONTOURS="0"
;@@[DetailName(blacha2_014)]
N719 M115
N720 G138 G40 G00X63.9098Y333.1258 M57
N721 G90
N722 M50 ;Sensor ON
/N723 M10 ;Beam ON
N724 G131 V.E.ACC[14]
N725 G133 V.E.JERK[14]
#CONTOUR MODE [AUTO_DEV, PATH_DEV=0.1]
N726 G261
;(FastCut)
N727 T15 G42 ;(IGNORE_SIMULATION)
N728 M49 G01X59.9194Y332.8503 FV.E.FEEDRATE[14]   ;@@[ENTRY]
N729 G131 V.E.ACC[15]
N730 G133 V.E.JERK[15]
N731 G02X96.8315Y335.3990I18.4560J1.2743 FV.E.FEEDRATE[15]
N732 G02X59.9194Y332.8503I-18.4561J-1.2744
N733 G260
N734 M95
N735 M11 ;Beam OFF
N736 M53 ;ping pong from travel
;CONTOUR: 2
[SP5SC2]
V.E.START_PART="SP5SC2"
V.E.ALL_CONTOURS="1"
N737 M115
N738 G138 G40 G00X55.8303Y391.6046 M57
N739 G90
N740 M50 ;Sensor ON
/N741 M10 ;Beam ON
N742 G131 V.E.ACC[14]
N743 G133 V.E.JERK[14]
#CONTOUR MODE [AUTO_DEV, PATH_DEV=0.1]
N744 G261
;(FastCut)
N745 T15 G41 ;(IGNORE_SIMULATION)
N746 M49 G01X59.8754Y388.6657 FV.E.FEEDRATE[14]   ;@@[ENTRY]
N747 G131 V.E.ACC[15]
N748 G133 V.E.JERK[15]
N749 G01X111.7470Y350.9788 FV.E.FEEDRATE[15]
N750 G01X91.9338Y290.0000
N751 G01X27.8170Y290.0000
N752 G01X8.0038Y350.9788
N753 G01X59.8754Y388.6657
N754 G260
N755 M96
N756 M11 ;Beam OFF
N757 M53 ;ping pong from travel
 
;PART: 6
;CONTOUR: 1
[SP6SC1]
V.E.START_PART="SP6SC1"
V.E.ALL_CONTOURS="0"
;@@[DetailName(blacha2_002)]
V.E.ALL_CONTOURS="1"
N758 M115
N759 G138 G40 G00X59.8754Y421.2491 M57
N760 G90
N761 M50 ;Sensor ON
/N762 M10 ;Beam ON
N763 G131 V.E.ACC[14]
N764 G133 V.E.JERK[14]
#CONTOUR MODE [AUTO_DEV, PATH_DEV=0.1]
N765 G261
;(FastCut)
N766 T15 G41 ;(IGNORE_SIMULATION)
N767 M49 G01X59.8754Y416.2491 FV.E.FEEDRATE[14]   ;@@[ENTRY]
N768 G131 V.E.ACC[15]
N769 G133 V.E.JERK[15]
N770 G02X101.6254Y374.4991I0.0000J-41.7500 FV.E.FEEDRATE[15]
N771 G01X89.6254Y374.4991
N772 G03X30.1254Y374.4991I-29.7500J0.0000
N773 G01X18.1254Y374.4991
N774 G02X59.8754Y416.2491I41.7500J0.0000
N775 G260
N776 M96
N777 M11 ;Beam OFF
N778 M53 ;ping pong from travel
 
;PART: 7
;CONTOUR: 1
[SP7SC1]
V.E.START_PART="SP7SC1"
V.E.ALL_CONTOURS="0"
;@@[DetailName(blacha2_012)]
V.E.ALL_CONTOURS="1"
N779 M115
N780 G138 G40 G00X65.0000Y537.5289 M57
N781 G90
N782 M50 ;Sensor ON
/N783 M10 ;Beam ON
N784 G131 V.E.ACC[14]
N785 G133 V.E.JERK[14]
#CONTOUR MODE [AUTO_DEV, PATH_DEV=0.1]
N786 G261
;(FastCut)
N787 T15 G41 ;(IGNORE_SIMULATION)
N788 M49 G01X65.0000Y532.5289 FV.E.FEEDRATE[14]   ;@@[ENTRY]
N789 G131 V.E.ACC[15]
N790 G133 V.E.JERK[15]
N791 G01X65.0000Y441.1504 FV.E.FEEDRATE[15]
N792 G01X8.0000Y393.3217
N793 G01X8.0000Y484.7002
N794 G01X65.0000Y532.5289
N795 G260
N796 M96
N797 M11 ;Beam OFF
N798 M53 ;ping pong from travel
 
;PART: 8
;CONTOUR: 1
[SP8SC1]
V.E.START_PART="SP8SC1"
V.E.ALL_CONTOURS="0"
;@@[DetailName(blacha2_005)]
V.E.ALL_CONTOURS="1"
N799 M115
N800 G138 G40 G00X3.0000Y583.6360 M57
N801 G90
N802 M50 ;Sensor ON
/N803 M10 ;Beam ON
N804 G131 V.E.ACC[14]
N805 G133 V.E.JERK[14]
#CONTOUR MODE [AUTO_DEV, PATH_DEV=0.1]
N806 G261
;(FastCut)
N807 T15 G41 ;(IGNORE_SIMULATION)
N808 M49 G01X8.0000Y583.6360 FV.E.FEEDRATE[14]   ;@@[ENTRY]
N809 G131 V.E.ACC[15]
N810 G133 V.E.JERK[15]
N811 G01X143.0000Y583.6360 FV.E.FEEDRATE[15]
N812 G01X143.0000Y545.6360
N813 G02X139.5121Y536.4175I-232.5295J82.7116
N814 G02X134.9606Y527.7294I-45.1922J18.1388
N815 G02X132.9527Y525.0650I-22.3424J14.7481
N816 G02X130.2828Y523.2585I-4.6268J3.9619
N817 G02X126.7417Y523.9322I-1.1754J3.4649
N818 G02X124.0128Y526.9943I9.5153J11.2269
N819 G02X121.6176Y531.1829I29.2525J19.5067
N820 G01X119.5631Y535.5609
N821 G01X115.1455Y545.2531
N822 G03X109.7674Y554.3804I-46.4355J-21.2131
N823 G03X103.8564Y560.0286I-19.2394J-14.2174
N824 G03X96.2661Y562.1633I-7.0510J-10.5093
N825 G03X91.8290Y561.3505I0.6960J-16.3161
N826 G03X87.6390Y559.5991I9.3786J-28.3261
N827 G03X79.6547Y554.4652I21.7564J-42.6108
N828 G03X72.3593Y548.3249I102.8416J-129.5929
N829 G03X60.6229Y537.3775I240.9443J-270.0743
N830 G02X48.6667Y526.6872I-129.4924J132.7959
N831 G02X41.2929Y521.1758I-65.6434J80.1363
N832 G02X33.1341Y517.0636I-19.7398J29.0146
N833 G02X25.4901Y516.0340I-6.3303J18.1075
N834 G02X18.3462Y518.5738I0.9628J14.0250
N835 G02X13.8165Y522.9941I11.5588J16.3760
N836 G02X10.4116Y528.4019I33.2723J24.7252
N837 G02X9.1408Y530.9887I45.3162J23.8674
N838 G01X8.0000Y533.6360
N839 G01X8.0000Y583.6360
N840 G260
N841 M96
N842 M11 ;Beam OFF
N843 M53 ;ping pong from travel
 
;PART: 9
;CONTOUR: 1
[SP9SC1]
V.E.START_PART="SP9SC1"
V.E.ALL_CONTOURS="0"
;@@[DetailName(blacha2_009)]
N844 M115
N845 G138 G40 G00X20.0000Y601.6360 M57
N846 G90
N847 M50 ;Sensor ON
/N848 M10 ;Beam ON
N849 G131 V.E.ACC[14]
N850 G133 V.E.JERK[14]
#CONTOUR MODE [AUTO_DEV, PATH_DEV=0.1]
N851 G261
;(FastCut)
N852 T15 G42 ;(IGNORE_SIMULATION)
N853 M49 G01X17.4248Y603.1750 FV.E.FEEDRATE[14]   ;@@[ENTRY]
N854 G131 V.E.ACC[15]
N855 G133 V.E.JERK[15]
N856 G02X22.5752Y600.0971I2.5752J-1.5390 FV.E.FEEDRATE[15]
N857 G02X17.4248Y603.1750I-2.5752J1.5389
N858 G260
N859 M95
N860 M11 ;Beam OFF
N861 M53 ;ping pong from travel
;CONTOUR: 2
[SP9SC2]
V.E.START_PART="SP9SC2"
N862 M115
N863 G138 G40 G00X53.5181Y663.6360 M57
N864 G90
N865 M50 ;Sensor ON
/N866 M10 ;Beam ON
N867 G131 V.E.ACC[14]
N868 G133 V.E.JERK[14]
#CONTOUR MODE [AUTO_DEV, PATH_DEV=0.1]
N869 G261
;(FastCut)
N870 T15 G42 ;(IGNORE_SIMULATION)
N871 M49 G01X52.6610Y668.5620 FV.E.FEEDRATE[14]   ;@@[ENTRY]
N872 G131 V.E.ACC[15]
N873 G133 V.E.JERK[15]
N874 G02X58.4441Y664.4932I0.8571J-4.9260 FV.E.FEEDRATE[15]
N875 G03X82.8571Y640.0801I29.5559J5.1428
N876 G02X81.1429Y630.2282I-0.8571J-4.9260
N877 G02X48.5921Y662.7789I6.8571J39.4078
N878 G02X52.6610Y668.5620I4.9260J0.8571
N879 G260
N880 M95
N881 M11 ;Beam OFF
N882 M53 ;ping pong from travel
;CONTOUR: 3
[SP9SC3]
V.E.START_PART="SP9SC3"
N883 M115
N884 G138 G40 G00X77.6585Y674.4184 M57
N885 G90
N886 M50 ;Sensor ON
/N887 M10 ;Beam ON
N888 G131 V.E.ACC[14]
N889 G133 V.E.JERK[14]
#CONTOUR MODE [AUTO_DEV, PATH_DEV=0.1]
N890 G261
;(FastCut)
N891 T15 G42 ;(IGNORE_SIMULATION)
N892 M49 G01X73.7839Y673.4245 FV.E.FEEDRATE[14]   ;@@[ENTRY]
N893 G131 V.E.ACC[15]
N894 G133 V.E.JERK[15]
N895 G02X122.2161Y685.8475I24.2161J6.2115 FV.E.FEEDRATE[15]
N896 G02X73.7839Y673.4245I-24.2161J-6.2115
N897 G260
N898 M95
N899 M11 ;Beam OFF
N900 M53 ;ping pong from travel
;CONTOUR: 4
[SP9SC4]
V.E.START_PART="SP9SC4"
N901 M115
N902 G138 G40 G00X63.2513Y714.3848 M57
N903 G90
N904 M50 ;Sensor ON
/N905 M10 ;Beam ON
N906 G131 V.E.ACC[14]
N907 G133 V.E.JERK[14]
#CONTOUR MODE [AUTO_DEV, PATH_DEV=0.1]
N908 G261
;(FastCut)
N909 T15 G42 ;(IGNORE_SIMULATION)
N910 M49 G01X59.7157Y717.9203 FV.E.FEEDRATE[14]   ;@@[ENTRY]
N911 G131 V.E.ACC[15]
N912 G133 V.E.JERK[15]
N913 G02X81.1429Y729.0439I28.2843J-28.2843 FV.E.FEEDRATE[15]
N914 G02X82.8571Y719.1919I0.8571J-4.9260
N915 G03X58.4441Y694.7789I5.1429J-29.5559
N916 G02X48.5921Y696.4932I-4.9260J0.8571
N917 G02X59.7157Y717.9203I39.4079J-6.8572
N918 G260
N919 M95
N920 M11 ;Beam OFF
N921 M53 ;ping pong from travel
;CONTOUR: 5
[SP9SC5]
V.E.START_PART="SP9SC5"
N922 M115
N923 G138 G40 G00X20.0000Y757.6360 M57
N924 G90
N925 M50 ;Sensor ON
/N926 M10 ;Beam ON
N927 G131 V.E.ACC[14]
N928 G133 V.E.JERK[14]
#CONTOUR MODE [AUTO_DEV, PATH_DEV=0.1]
N929 G261
;(FastCut)
N930 T15 G42 ;(IGNORE_SIMULATION)
N931 M49 G01X21.1448Y760.4090 FV.E.FEEDRATE[14]   ;@@[ENTRY]
N932 G131 V.E.ACC[15]
N933 G133 V.E.JERK[15]
N934 G02X18.8552Y754.8630I-1.1448J-2.7730 FV.E.FEEDRATE[15]
N935 G02X21.1448Y760.4090I1.1448J2.7730
N936 G260
N937 M95
N938 M11 ;Beam OFF
N939 M53 ;ping pong from travel
;CONTOUR: 6
[SP9SC6]
V.E.START_PART="SP9SC6"
N940 M115
N941 G138 G40 G00X132.7487Y714.3848 M57
N942 G90
N943 M50 ;Sensor ON
/N944 M10 ;Beam ON
N945 G131 V.E.ACC[14]
N946 G133 V.E.JERK[14]
#CONTOUR MODE [AUTO_DEV, PATH_DEV=0.1]
N947 G261
;(FastCut)
N948 T15 G42 ;(IGNORE_SIMULATION)
N949 M49 G01X136.2843Y717.9203 FV.E.FEEDRATE[14]   ;@@[ENTRY]
N950 G131 V.E.ACC[15]
N951 G133 V.E.JERK[15]
N952 G02X147.4079Y696.4932I-28.2843J-28.2843 FV.E.FEEDRATE[15]
N953 G02X137.5559Y694.7789I-4.9260J-0.8572
N954 G03X113.1429Y719.1919I-29.5559J-5.1429
N955 G02X114.8571Y729.0439I0.8571J4.9260
N956 G02X136.2843Y717.9203I-6.8571J-39.4079
N957 G260
N958 M95
N959 M11 ;Beam OFF
N960 M53 ;ping pong from travel
;CONTOUR: 7
[SP9SC7]
V.E.START_PART="SP9SC7"
N961 M115
N962 G138 G40 G00X176.0000Y757.6360 M57
N963 G90
N964 M50 ;Sensor ON
/N965 M10 ;Beam ON
N966 G131 V.E.ACC[14]
N967 G133 V.E.JERK[14]
#CONTOUR MODE [AUTO_DEV, PATH_DEV=0.1]
N968 G261
;(FastCut)
N969 T15 G42 ;(IGNORE_SIMULATION)
N970 M49 G01X178.7730Y756.4912 FV.E.FEEDRATE[14]   ;@@[ENTRY]
N971 G131 V.E.ACC[15]
N972 G133 V.E.JERK[15]
N973 G02X173.2270Y758.7808I-2.7730J1.1448 FV.E.FEEDRATE[15]
N974 G02X178.7730Y756.4912I2.7730J-1.1448
N975 G260
N976 M95
N977 M11 ;Beam OFF
N978 M53 ;ping pong from travel
;CONTOUR: 8
[SP9SC8]
V.E.START_PART="SP9SC8"
N979 M115
N980 G138 G40 G00X132.7487Y644.8873 M57
N981 G90
N982 M50 ;Sensor ON
/N983 M10 ;Beam ON
N984 G131 V.E.ACC[14]
N985 G133 V.E.JERK[14]
#CONTOUR MODE [AUTO_DEV, PATH_DEV=0.1]
N986 G261
;(FastCut)
N987 T15 G42 ;(IGNORE_SIMULATION)
N988 M49 G01X136.2843Y641.3518 FV.E.FEEDRATE[14]   ;@@[ENTRY]
N989 G131 V.E.ACC[15]
N990 G133 V.E.JERK[15]
N991 G02X114.8571Y630.2282I-28.2843J28.2842 FV.E.FEEDRATE[15]
N992 G02X113.1429Y640.0801I-0.8571J4.9259
N993 G03X137.5559Y664.4932I-5.1429J29.5559
N994 G02X147.4079Y662.7789I4.9260J-0.8572
N995 G02X136.2843Y641.3518I-39.4079J6.8571
N996 G260
N997 M95
N998 M11 ;Beam OFF
N999 M53 ;ping pong from travel
;CONTOUR: 9
[SP9SC9]
V.E.START_PART="SP9SC9"
N1000 M115
N1001 G138 G40 G00X176.0000Y601.6360 M57
N1002 G90
N1003 M50 ;Sensor ON
/N1004 M10 ;Beam ON
N1005 G131 V.E.ACC[14]
N1006 G133 V.E.JERK[14]
#CONTOUR MODE [AUTO_DEV, PATH_DEV=0.1]
N1007 G261
;(FastCut)
N1008 T15 G42 ;(IGNORE_SIMULATION)
N1009 M49 G01X178.0691Y603.8083 FV.E.FEEDRATE[14]   ;@@[ENTRY]
N1010 G131 V.E.ACC[15]
N1011 G133 V.E.JERK[15]
N1012 G02X173.9309Y599.4638I-2.0691J-2.1723 FV.E.FEEDRATE[15]
N1013 G02X178.0691Y603.8083I2.0691J2.1722
N1014 G260
N1015 M95
N1016 M11 ;Beam OFF
N1017 M53 ;ping pong from travel
;CONTOUR: 10
[SP9SC10]
V.E.START_PART="SP9SC10"
V.E.ALL_CONTOURS="1"
N1018 M115
N1019 G138 G40 G00X193.0000Y679.6360 M57
N1020 G90
N1021 M50 ;Sensor ON
/N1022 M10 ;Beam ON
N1023 G131 V.E.ACC[14]
N1024 G133 V.E.JERK[14]
#CONTOUR MODE [AUTO_DEV, PATH_DEV=0.1]
N1025 G261
;(FastCut)
N1026 T15 G41 ;(IGNORE_SIMULATION)
N1027 M49 G01X188.0000Y679.6360 FV.E.FEEDRATE[14]   ;@@[ENTRY]
N1028 G131 V.E.ACC[15]
N1029 G133 V.E.JERK[15]
N1030 G01X188.0000Y589.6360 FV.E.FEEDRATE[15]
N1031 G01X8.0000Y589.6360
N1032 G01X8.0000Y769.6360
N1033 G01X188.0000Y769.6360
N1034 G01X188.0000Y679.6360
N1035 G260
N1036 M96
N1037 M11 ;Beam OFF
N1038 M53 ;ping pong from travel
 
;PART: 10
;CONTOUR: 1
[SP10SC1]
V.E.START_PART="SP10SC1"
V.E.ALL_CONTOURS="0"
;@@[DetailName(blacha2_004)]
V.E.ALL_CONTOURS="1"
N1039 M115
N1040 G138 G40 G00X256.5000Y639.3490 M57
N1041 G90
N1042 M50 ;Sensor ON
/N1043 M10 ;Beam ON
N1044 G131 V.E.ACC[14]
N1045 G133 V.E.JERK[14]
#CONTOUR MODE [AUTO_DEV, PATH_DEV=0.1]
N1046 G261
;(FastCut)
N1047 T15 G41 ;(IGNORE_SIMULATION)
N1048 M49 G01X251.5000Y639.3490 FV.E.FEEDRATE[14]   ;@@[ENTRY]
N1049 G131 V.E.ACC[15]
N1050 G133 V.E.JERK[15]
N1051 G02X194.0000Y581.8490I-57.5000J0.0000 FV.E.FEEDRATE[15]
N1052 G01X194.0000Y696.8490
N1053 G02X251.5000Y639.3490I0.0000J-57.5000
N1054 G260
N1055 M96
N1056 M11 ;Beam OFF
N1057 M53 ;ping pong from travel
 
;PART: 11
;CONTOUR: 1
[SP11SC1]
V.E.START_PART="SP11SC1"
V.E.ALL_CONTOURS="0"
;@@[DetailName(blacha2_011)]
V.E.ALL_CONTOURS="1"
N1058 M115
N1059 G138 G40 G00X287.5000Y676.3792 M57
N1060 G90
N1061 M50 ;Sensor ON
/N1062 M10 ;Beam ON
N1063 G131 V.E.ACC[14]
N1064 G133 V.E.JERK[14]
#CONTOUR MODE [AUTO_DEV, PATH_DEV=0.1]
N1065 G261
;(FastCut)
N1066 T15 G41 ;(IGNORE_SIMULATION)
N1067 M49 G01X287.5000Y671.3792 FV.E.FEEDRATE[14]   ;@@[ENTRY]
N1068 G131 V.E.ACC[15]
N1069 G133 V.E.JERK[15]
N1070 G01X317.5000Y671.3792 FV.E.FEEDRATE[15]
N1071 G01X317.5000Y641.3792
N1072 G01X347.5000Y641.3792
N1073 G01X347.5000Y581.3792
N1074 G01X287.5000Y581.3792
N1075 G01X287.5000Y611.3792
N1076 G01X257.5000Y611.3792
N1077 G01X257.5000Y671.3792
N1078 G01X287.5000Y671.3792
N1079 G260
N1080 M96
N1081 M11 ;Beam OFF
N1082 M53 ;ping pong from travel
 
;PART: 12
;CONTOUR: 1
[SP12SC1]
V.E.START_PART="SP12SC1"
V.E.ALL_CONTOURS="0"
;@@[DetailName(blacha2_006)]
V.E.ALL_CONTOURS="1"
N1083 M115
N1084 G138 G40 G00X281.8263Y683.0449 M57
N1085 G90
N1086 M50 ;Sensor ON
/N1087 M10 ;Beam ON
N1088 G131 V.E.ACC[14]
N1089 G133 V.E.JERK[14]
#CONTOUR MODE [AUTO_DEV, PATH_DEV=0.1]
N1090 G261
;(FastCut)
N1091 T15 G41 ;(IGNORE_SIMULATION)
N1092 M49 G01X279.4432Y687.4404 FV.E.FEEDRATE[14]   ;@@[ENTRY]
N1093 G131 V.E.ACC[15]
N1094 G133 V.E.JERK[15]
N1095 G02X281.5313Y765.3547I-21.4479J39.5599 FV.E.FEEDRATE[15]
N1096 G02X279.4432Y687.4404I21.4479J-39.5599
N1097 G260
N1098 M96
N1099 M11 ;Beam OFF
N1100 M53 ;ping pong from travel
 
;PART: 13
;CONTOUR: 1
[SP13SC1]
V.E.START_PART="SP13SC1"
V.E.ALL_CONTOURS="0"
;@@[DetailName(blacha2_020)]
V.E.ALL_CONTOURS="1"
N1101 M115
N1102 G138 G40 G00X278.4229Y481.3792 M57
N1103 G90
N1104 M50 ;Sensor ON
/N1105 M10 ;Beam ON
N1106 G131 V.E.ACC[14]
N1107 G133 V.E.JERK[14]
#CONTOUR MODE [AUTO_DEV, PATH_DEV=0.1]
N1108 G261
;(FastCut)
N1109 T15 G42 ;(IGNORE_SIMULATION)
N1110 M49 G01X278.4229Y486.3792 FV.E.FEEDRATE[14]   ;@@[ENTRY]
N1111 G131 V.E.ACC[15]
N1112 G133 V.E.JERK[15]
N1113 G01X278.4229Y511.3792 FV.E.FEEDRATE[15]
N1114 G01X323.9780Y511.3792
N1115 G01X333.0093Y533.3792
N1116 G01X337.5743Y511.3792
N1117 G01X348.0093Y511.3792
N1118 G01X348.0093Y575.3792
N1119 G01X337.5743Y575.3792
N1120 G01X333.0093Y553.3792
N1121 G01X323.9780Y575.3792
N1122 G01X278.4229Y575.3792
N1123 G01X278.4229Y600.3792
N1124 G01X260.2593Y575.3792
N1125 G01X248.0093Y575.3792
N1126 G01X248.0093Y511.3792
N1127 G01X260.2593Y511.3792
N1128 G01X278.4229Y486.3792
N1129 G260
N1130 M96
N1131 M11 ;Beam OFF
N1132 M53 ;ping pong from travel
 
;PART: 14
;CONTOUR: 1
[SP14SC1]
V.E.START_PART="SP14SC1"
V.E.ALL_CONTOURS="0"
;@@[DetailName(blacha2_001)]
N1133 M115
N1134 G138 G40 G00X287.8488Y457.4484 M57
N1135 G90
N1136 M50 ;Sensor ON
/N1137 M10 ;Beam ON
N1138 G131 V.E.ACC[14]
N1139 G133 V.E.JERK[14]
#CONTOUR MODE [AUTO_DEV, PATH_DEV=0.1]
N1140 G261
;(FastCut)
N1141 T15 G41 ;(IGNORE_SIMULATION)
N1142 M49 G01X292.7728Y456.5802 FV.E.FEEDRATE[14]   ;@@[ENTRY]
N1143 G131 V.E.ACC[15]
N1144 G133 V.E.JERK[15]
N1145 G01X289.3313Y461.4951 FV.E.FEEDRATE[15]
N1146 G03X279.0919Y454.3254I-5.1197J-3.5849
N1147 G01X282.5334Y449.4105
N1148 G01X292.7728Y456.5802
N1149 G260
N1150 M95
N1151 M11 ;Beam OFF
N1152 M53 ;ping pong from travel
;CONTOUR: 2
[SP14SC2]
V.E.START_PART="SP14SC2"
N1153 M115
N1154 G138 G40 G00X326.3489Y484.4065 M57
N1155 G90
N1156 M50 ;Sensor ON
/N1157 M10 ;Beam ON
N1158 G131 V.E.ACC[14]
N1159 G133 V.E.JERK[14]
#CONTOUR MODE [AUTO_DEV, PATH_DEV=0.1]
N1160 G261
;(FastCut)
N1161 T15 G41 ;(IGNORE_SIMULATION)
N1162 M49 G01X331.2730Y483.5383 FV.E.FEEDRATE[14]   ;@@[ENTRY]
N1163 G131 V.E.ACC[15]
N1164 G133 V.E.JERK[15]
N1165 G01X327.8315Y488.4532 FV.E.FEEDRATE[15]
N1166 G03X308.9910Y475.2609I-9.4203J-6.5961
N1167 G01X312.4325Y470.3460
N1168 G01X331.2730Y483.5383
N1169 G260
N1170 M95
N1171 M11 ;Beam OFF
N1172 M53 ;ping pong from travel
;CONTOUR: 3
[SP14SC3]
V.E.START_PART="SP14SC3"
V.E.ALL_CONTOURS="1"
N1173 M115
N1174 G138 G40 G00X265.1664Y444.5746 M57
N1175 G90
N1176 M50 ;Sensor ON
/N1177 M10 ;Beam ON
N1178 G131 V.E.ACC[14]
N1179 G133 V.E.JERK[14]
#CONTOUR MODE [AUTO_DEV, PATH_DEV=0.1]
N1180 G261
;(FastCut)
N1181 T15 G41 ;(IGNORE_SIMULATION)
N1182 M49 G01X269.2621Y447.4425 FV.E.FEEDRATE[14]   ;@@[ENTRY]
N1183 G131 V.E.ACC[15]
N1184 G133 V.E.JERK[15]
N1185 G02X299.1612Y468.3780I14.9495J10.4677 FV.E.FEEDRATE[15]
N1186 G02X337.6613Y495.3361I19.2500J13.4791
N1187 G01X347.9857Y480.5914
N1188 G01X279.5865Y432.6977
N1189 G01X269.2621Y447.4425
N1190 G260
N1191 M96
N1192 M11 ;Beam OFF
N1193 M53 ;ping pong from travel
 
;PART: 15
;CONTOUR: 1
[SP15SC1]
V.E.START_PART="SP15SC1"
V.E.ALL_CONTOURS="0"
;@@[DetailName(blacha2_015)]
N1194 M115
N1195 G138 G40 G00X209.6921Y468.8998 M57
N1196 G90
N1197 M50 ;Sensor ON
/N1198 M10 ;Beam ON
N1199 G131 V.E.ACC[14]
N1200 G133 V.E.JERK[14]
#CONTOUR MODE [AUTO_DEV, PATH_DEV=0.1]
N1201 G261
;(FastCut)
N1202 T15 G42 ;(IGNORE_SIMULATION)
N1203 M49 G01X205.7140Y469.3175 FV.E.FEEDRATE[14]   ;@@[ENTRY]
N1204 G131 V.E.ACC[15]
N1205 G133 V.E.JERK[15]
N1206 G02X225.6047Y467.2291I9.9453J-1.0442 FV.E.FEEDRATE[15]
N1207 G02X205.7140Y469.3175I-9.9454J1.0442
N1208 G260
N1209 M95
N1210 M11 ;Beam OFF
N1211 M53 ;ping pong from travel
;CONTOUR: 2
[SP15SC2]
V.E.START_PART="SP15SC2"
V.E.ALL_CONTOURS="1"
N1212 M115
N1213 G138 G40 G00X211.6142Y525.7533 M57
N1214 G90
N1215 M50 ;Sensor ON
/N1216 M10 ;Beam ON
N1217 G131 V.E.ACC[14]
N1218 G133 V.E.JERK[14]
#CONTOUR MODE [AUTO_DEV, PATH_DEV=0.1]
N1219 G261
;(FastCut)
N1220 T15 G41 ;(IGNORE_SIMULATION)
N1221 M49 G01X215.6593Y522.8143 FV.E.FEEDRATE[14]   ;@@[ENTRY]
N1222 G131 V.E.ACC[15]
N1223 G133 V.E.JERK[15]
N1224 G01X267.5310Y485.1274 FV.E.FEEDRATE[15]
N1225 G01X247.7178Y424.1486
N1226 G01X183.6009Y424.1486
N1227 G01X163.7877Y485.1274
N1228 G01X215.6593Y522.8143
N1229 G260
N1230 M96
N1231 M11 ;Beam OFF
N1232 M53 ;ping pong from travel
 
;PART: 16
;CONTOUR: 1
[SP16SC1]
V.E.START_PART="SP16SC1"
V.E.ALL_CONTOURS="0"
;@@[DetailName(blacha2_010)]
N1233 M115
N1234 G138 G40 G00X207.0445Y547.0041 M57
N1235 G90
N1236 M50 ;Sensor ON
/N1237 M10 ;Beam ON
N1238 G131 V.E.ACC[14]
N1239 G133 V.E.JERK[14]
#CONTOUR MODE [AUTO_DEV, PATH_DEV=0.1]
N1240 G261
;(FastCut)
N1241 T15 G41 ;(IGNORE_SIMULATION)
N1242 M49 G01X204.9423Y542.4675 FV.E.FEEDRATE[14]   ;@@[ENTRY]
N1243 G131 V.E.ACC[15]
N1244 G133 V.E.JERK[15]
N1245 G01X227.4171Y554.4731 FV.E.FEEDRATE[15]
N1246 G01X226.8150Y557.2661
N1247 G01X201.3900Y558.9461
N1248 G01X204.9423Y542.4675
N1249 G260
N1250 M95
N1251 M11 ;Beam OFF
N1252 M53 ;ping pong from travel
;CONTOUR: 2
[SP16SC2]
V.E.START_PART="SP16SC2"
V.E.ALL_CONTOURS="1"
N1253 M115
N1254 G138 G40 G00X166.4636Y497.9302 M57
N1255 G90
N1256 M50 ;Sensor ON
/N1257 M10 ;Beam ON
N1258 G131 V.E.ACC[14]
N1259 G133 V.E.JERK[14]
#CONTOUR MODE [AUTO_DEV, PATH_DEV=0.1]
N1260 G261
;(FastCut)
N1261 T15 G41 ;(IGNORE_SIMULATION)
N1262 M49 G01X165.4099Y502.8179 FV.E.FEEDRATE[14]   ;@@[ENTRY]
N1263 G131 V.E.ACC[15]
N1264 G133 V.E.JERK[15]
N1265 G01X161.8275Y519.4361 FV.E.FEEDRATE[15]
N1266 G01X193.9343Y536.5871
N1267 G01X188.9370Y559.7689
N1268 G01X152.6157Y562.1688
N1269 G01X149.0333Y578.7871
N1270 G01X235.6856Y573.0616
N1271 G01X242.0075Y543.7352
N1272 G01X165.4099Y502.8179
N1273 G260
N1274 M96
N1275 M11 ;Beam OFF
N1276 M53 ;ping pong from travel
 
;PART: 17
;CONTOUR: 1
[SP17SC1]
V.E.START_PART="SP17SC1"
V.E.ALL_CONTOURS="0"
;@@[DetailName(blacha2_019)]
V.E.ALL_CONTOURS="1"
N1277 M115
N1278 G138 G40 G00X157.1129Y454.3971 M57
N1279 G90
N1280 M50 ;Sensor ON
/N1281 M10 ;Beam ON
N1282 G131 V.E.ACC[14]
N1283 G133 V.E.JERK[14]
#CONTOUR MODE [AUTO_DEV, PATH_DEV=0.1]
N1284 G261
;(FastCut)
N1285 T15 G41 ;(IGNORE_SIMULATION)
N1286 M49 G01X152.7600Y451.9370 FV.E.FEEDRATE[14]   ;@@[ENTRY]
N1287 G131 V.E.ACC[15]
N1288 G133 V.E.JERK[15]
N1289 G01X126.6426Y437.1761 FV.E.FEEDRATE[15]
N1290 G01X111.8818Y463.2935
N1291 G01X85.7644Y448.5327
N1292 G01X71.0036Y474.6501
N1293 G01X97.1210Y489.4109
N1294 G01X82.3601Y515.5283
N1295 G01X108.4775Y530.2891
N1296 G01X123.2384Y504.1718
N1297 G01X149.3558Y518.9326
N1298 G01X164.1166Y492.8152
N1299 G01X137.9992Y478.0544
N1300 G01X152.7600Y451.9370
N1301 G260
N1302 M96
N1303 M11 ;Beam OFF
N1304 M53 ;ping pong from travel
 
;PART: 18
;CONTOUR: 1
[SP18SC1]
V.E.START_PART="SP18SC1"
V.E.ALL_CONTOURS="0"
;@@[DetailName(blacha2_013)]
V.E.ALL_CONTOURS="1"
N1305 M115
N1306 G138 G40 G00X209.6814Y397.7836 M57
N1307 G90
N1308 M50 ;Sensor ON
/N1309 M10 ;Beam ON
N1310 G131 V.E.ACC[14]
N1311 G133 V.E.JERK[14]
#CONTOUR MODE [AUTO_DEV, PATH_DEV=0.1]
N1312 G261
;(FastCut)
N1313 T15 G42 ;(IGNORE_SIMULATION)
N1314 M49 G01X205.6363Y400.7226 FV.E.FEEDRATE[14]   ;@@[ENTRY]
N1315 G131 V.E.ACC[15]
N1316 G133 V.E.JERK[15]
N1317 G01X153.7647Y438.4095 FV.E.FEEDRATE[15]
N1318 G01X101.8931Y400.7226
N1319 G01X121.7063Y339.7438
N1320 G01X185.8231Y339.7438
N1321 G01X205.6363Y400.7226
N1322 G260
N1323 M96
N1324 M11 ;Beam OFF
N1325 M53 ;ping pong from travel
 
;PART: 19
;CONTOUR: 1
[SP19SC1]
V.E.START_PART="SP19SC1"
V.E.ALL_CONTOURS="0"
;@@[DetailName(blacha2_017)]
N1326 M115
N1327 G138 G40 G00X328.1678Y389.9640 M57
N1328 G90
N1329 M50 ;Sensor ON
/N1330 M10 ;Beam ON
N1331 G131 V.E.ACC[14]
N1332 G133 V.E.JERK[14]
#CONTOUR MODE [AUTO_DEV, PATH_DEV=0.1]
N1333 G261
;(FastCut)
N1334 T15 G42 ;(IGNORE_SIMULATION)
N1335 M49 G01X332.0828Y390.7841 FV.E.FEEDRATE[14]   ;@@[ENTRY]
N1336 G131 V.E.ACC[15]
N1337 G133 V.E.JERK[15]
N1338 G02X269.4425Y377.6623I-31.3201J-6.5609 FV.E.FEEDRATE[15]
N1339 G02X332.0828Y390.7841I31.3202J6.5609
N1340 G260
N1341 M95
N1342 M11 ;Beam OFF
N1343 M53 ;ping pong from travel
;CONTOUR: 2
[SP19SC2]
V.E.START_PART="SP19SC2"
V.E.ALL_CONTOURS="1"
N1344 M115
N1345 G138 G40 G00X351.0053Y300.6166 M57
N1346 G90
N1347 M50 ;Sensor ON
/N1348 M10 ;Beam ON
N1349 G131 V.E.ACC[14]
N1350 G133 V.E.JERK[14]
#CONTOUR MODE [AUTO_DEV, PATH_DEV=0.1]
N1351 G261
;(FastCut)
N1352 T15 G41 ;(IGNORE_SIMULATION)
N1353 M49 G01X346.6956Y303.1517 FV.E.FEEDRATE[14]   ;@@[ENTRY]
N1354 G131 V.E.ACC[15]
N1355 G133 V.E.JERK[15]
N1356 G01X207.5862Y384.9798 FV.E.FEEDRATE[15]
N1357 G01X348.0061Y464.5381
N1358 G01X346.6956Y303.1517
N1359 G260
N1360 M96
N1361 M11 ;Beam OFF
N1362 M53 ;ping pong from travel
 
;PART: 20
;CONTOUR: 1
[SP20SC1]
V.E.START_PART="SP20SC1"
V.E.ALL_CONTOURS="0"
;@@[DetailName(blacha2_016)]
V.E.ALL_CONTOURS="1"
N1363 M115
N1364 G138 G40 G00X276.1949Y253.4098 M57
N1365 G90
N1366 M50 ;Sensor ON
/N1367 M10 ;Beam ON
N1368 G131 V.E.ACC[14]
N1369 G133 V.E.JERK[14]
#CONTOUR MODE [AUTO_DEV, PATH_DEV=0.1]
N1370 G261
;(FastCut)
N1371 T15 G41 ;(IGNORE_SIMULATION)
N1372 M49 G01X273.7382Y257.7647 FV.E.FEEDRATE[14]   ;@@[ENTRY]
N1373 G131 V.E.ACC[15]
N1374 G133 V.E.JERK[15]
N1375 G01X203.4541Y218.1168 FV.E.FEEDRATE[15]
N1376 G01X205.0660Y379.5004
N1377 G01X344.0224Y297.4127
N1378 G01X273.7382Y257.7647
N1379 G260
N1380 M96
N1381 M11 ;Beam OFF
N1382 M53 ;ping pong from travel
 
;PART: 21
;CONTOUR: 1
[SP21SC1]
V.E.START_PART="SP21SC1"
V.E.ALL_CONTOURS="0"
;@@[DetailName(blacha2_018)]
N1383 M115
N1384 G138 G40 G00X298.0400Y195.4725 M57
N1385 G90
N1386 M50 ;Sensor ON
/N1387 M10 ;Beam ON
N1388 G131 V.E.ACC[14]
N1389 G133 V.E.JERK[14]
#CONTOUR MODE [AUTO_DEV, PATH_DEV=0.1]
N1390 G261
;(FastCut)
N1391 T15 G42 ;(IGNORE_SIMULATION)
N1392 M49 G01X300.8690Y192.6447 FV.E.FEEDRATE[14]   ;@@[ENTRY]
N1393 G131 V.E.ACC[15]
N1394 G133 V.E.JERK[15]
N1395 G02X261.9700Y231.5274I-19.4495J19.4413 FV.E.FEEDRATE[15]
N1396 G02X300.8690Y192.6447I19.4495J-19.4414
N1397 G260
N1398 M95
N1399 M11 ;Beam OFF
N1400 M53 ;ping pong from travel
;CONTOUR: 2
[SP21SC2]
V.E.START_PART="SP21SC2"
V.E.ALL_CONTOURS="1"
N1401 M115
N1402 G138 G40 G00X275.6247Y167.4080 M57
N1403 G90
N1404 M50 ;Sensor ON
/N1405 M10 ;Beam ON
N1406 G131 V.E.ACC[14]
N1407 G133 V.E.JERK[14]
#CONTOUR MODE [AUTO_DEV, PATH_DEV=0.1]
N1408 G261
;(FastCut)
N1409 T15 G41 ;(IGNORE_SIMULATION)
N1410 M49 G01X278.1247Y171.7381 FV.E.FEEDRATE[14]   ;@@[ENTRY]
N1411 G131 V.E.ACC[15]
N1412 G133 V.E.JERK[15]
N1413 G01X208.2400Y212.0860 FV.E.FEEDRATE[15]
N1414 G01X348.0093Y292.7819
N1415 G01X348.0093Y131.3902
N1416 G01X278.1247Y171.7381
N1417 G260
N1418 M96
N1419 M11 ;Beam OFF
N1420 M53 ;ping pong from travel
 
;PART: 22
;CONTOUR: 1
[SP22SC1]
V.E.START_PART="SP22SC1"
V.E.ALL_CONTOURS="0"
;@@[DetailName(blacha2_007)]
N1421 M115
N1422 G138 G40 G00X273.2904Y145.5598 M57
N1423 G90
N1424 M50 ;Sensor ON
/N1425 M10 ;Beam ON
N1426 G131 V.E.ACC[14]
N1427 G133 V.E.JERK[14]
#CONTOUR MODE [AUTO_DEV, PATH_DEV=0.1]
N1428 G261
;(FastCut)
N1429 T15 G42 ;(IGNORE_SIMULATION)
N1430 M49 G01X275.2430Y149.0508 FV.E.FEEDRATE[14]   ;@@[ENTRY]
N1431 G131 V.E.ACC[15]
N1432 G133 V.E.JERK[15]
N1433 G02X263.0395Y127.2317I-6.1018J-10.9096 FV.E.FEEDRATE[15]
N1434 G02X275.2430Y149.0508I6.1017J10.9095
N1435 G260
N1436 M95
N1437 M11 ;Beam OFF
N1438 M53 ;ping pong from travel
;CONTOUR: 2
[SP22SC2]
V.E.START_PART="SP22SC2"
N1439 M115
N1440 G138 G40 G00X312.4415Y128.2896 M57
N1441 G90
N1442 M50 ;Sensor ON
/N1443 M10 ;Beam ON
N1444 G131 V.E.ACC[14]
N1445 G133 V.E.JERK[14]
#CONTOUR MODE [AUTO_DEV, PATH_DEV=0.1]
N1446 G261
;(FastCut)
N1447 T15 G42 ;(IGNORE_SIMULATION)
N1448 M49 G01X316.1813Y129.7088 FV.E.FEEDRATE[14]   ;@@[ENTRY]
N1449 G131 V.E.ACC[15]
N1450 G133 V.E.JERK[15]
N1451 G02X292.8078Y120.8386I-11.6867J-4.4351 FV.E.FEEDRATE[15]
N1452 G02X316.1813Y129.7088I11.6868J4.4351
N1453 G260
N1454 M95
N1455 M11 ;Beam OFF
N1456 M53 ;ping pong from travel
;CONTOUR: 3
[SP22SC3]
V.E.START_PART="SP22SC3"
N1457 M115
N1458 G138 G40 G00X331.3320Y89.8940 M57
N1459 G90
N1460 M50 ;Sensor ON
/N1461 M10 ;Beam ON
N1462 G131 V.E.ACC[14]
N1463 G133 V.E.JERK[14]
#CONTOUR MODE [AUTO_DEV, PATH_DEV=0.1]
N1464 G261
;(FastCut)
N1465 T15 G42 ;(IGNORE_SIMULATION)
N1466 M49 G01X335.1091Y88.5773 FV.E.FEEDRATE[14]   ;@@[ENTRY]
N1467 G131 V.E.ACC[15]
N1468 G133 V.E.JERK[15]
N1469 G02X311.5023Y96.8065I-11.8034J4.1146 FV.E.FEEDRATE[15]
N1470 G02X335.1091Y88.5773I11.8034J-4.1146
N1471 G260
N1472 M95
N1473 M11 ;Beam OFF
N1474 M53 ;ping pong from travel
;CONTOUR: 4
[SP22SC4]
V.E.START_PART="SP22SC4"
N1475 M115
N1476 G138 G40 G00X321.1226Y48.3387 M57
N1477 G90
N1478 M50 ;Sensor ON
/N1479 M10 ;Beam ON
N1480 G131 V.E.ACC[14]
N1481 G133 V.E.JERK[14]
#CONTOUR MODE [AUTO_DEV, PATH_DEV=0.1]
N1482 G261
;(FastCut)
N1483 T15 G42 ;(IGNORE_SIMULATION)
N1484 M49 G01X323.1697Y44.9022 FV.E.FEEDRATE[14]   ;@@[ENTRY]
N1485 G131 V.E.ACC[15]
N1486 G133 V.E.JERK[15]
N1487 G02X310.3756Y66.3803I-6.3971J10.7390 FV.E.FEEDRATE[15]
N1488 G02X323.1697Y44.9022I6.3970J-10.7391
N1489 G260
N1490 M95
N1491 M11 ;Beam OFF
N1492 M53 ;ping pong from travel
;CONTOUR: 5
[SP22SC5]
V.E.START_PART="SP22SC5"
N1493 M115
N1494 G138 G40 G00X286.5901Y23.0680 M57
N1495 G90
N1496 M50 ;Sensor ON
/N1497 M10 ;Beam ON
N1498 G131 V.E.ACC[14]
N1499 G133 V.E.JERK[14]
#CONTOUR MODE [AUTO_DEV, PATH_DEV=0.1]
N1500 G261
;(FastCut)
N1501 T15 G42 ;(IGNORE_SIMULATION)
N1502 M49 G01X285.9491Y19.1197 FV.E.FEEDRATE[14]   ;@@[ENTRY]
N1503 G131 V.E.ACC[15]
N1504 G133 V.E.JERK[15]
N1505 G02X289.9556Y43.7966I2.0033J12.3385 FV.E.FEEDRATE[15]
N1506 G02X285.9491Y19.1197I-2.0032J-12.3384
N1507 G260
N1508 M95
N1509 M11 ;Beam OFF
N1510 M53 ;ping pong from travel
;CONTOUR: 6
[SP22SC6]
V.E.START_PART="SP22SC6"
N1511 M115
N1512 G138 G40 G00X243.8910Y25.9095 M57
N1513 G90
N1514 M50 ;Sensor ON
/N1515 M10 ;Beam ON
N1516 G131 V.E.ACC[14]
N1517 G133 V.E.JERK[14]
#CONTOUR MODE [AUTO_DEV, PATH_DEV=0.1]
N1518 G261
;(FastCut)
N1519 T15 G42 ;(IGNORE_SIMULATION)
N1520 M49 G01X240.8608Y23.2983 FV.E.FEEDRATE[14]   ;@@[ENTRY]
N1521 G131 V.E.ACC[15]
N1522 G133 V.E.JERK[15]
N1523 G02X259.7994Y39.6180I9.4693J8.1599 FV.E.FEEDRATE[15]
N1524 G02X240.8608Y23.2983I-9.4693J-8.1598
N1525 G260
N1526 M95
N1527 M11 ;Beam OFF
N1528 M53 ;ping pong from travel
;CONTOUR: 7
[SP22SC7]
V.E.START_PART="SP22SC7"
N1529 M115
N1530 G138 G40 G00X213.0102Y55.5599 M57
N1531 G90
N1532 M50 ;Sensor ON
/N1533 M10 ;Beam ON
N1534 G131 V.E.ACC[14]
N1535 G133 V.E.JERK[14]
#CONTOUR MODE [AUTO_DEV, PATH_DEV=0.1]
N1536 G261
;(FastCut)
N1537 T15 G42 ;(IGNORE_SIMULATION)
N1538 M49 G01X209.0104Y55.5216 FV.E.FEEDRATE[14]   ;@@[ENTRY]
N1539 G131 V.E.ACC[15]
N1540 G133 V.E.JERK[15]
N1541 G02X234.0093Y55.7609I12.4994J0.1196 FV.E.FEEDRATE[15]
N1542 G02X209.0104Y55.5216I-12.4995J-0.1197
N1543 G260
N1544 M95
N1545 M11 ;Beam OFF
N1546 M53 ;ping pong from travel
;CONTOUR: 8
[SP22SC8]
V.E.START_PART="SP22SC8"
N1547 M115
N1548 G138 G40 G00X208.5638Y98.2708 M57
N1549 G90
N1550 M50 ;Sensor ON
/N1551 M10 ;Beam ON
N1552 G131 V.E.ACC[14]
N1553 G133 V.E.JERK[14]
#CONTOUR MODE [AUTO_DEV, PATH_DEV=0.1]
N1554 G261
;(FastCut)
N1555 T15 G42 ;(IGNORE_SIMULATION)
N1556 M49 G01X205.5460Y100.8961 FV.E.FEEDRATE[14]   ;@@[ENTRY]
N1557 G131 V.E.ACC[15]
N1558 G133 V.E.JERK[15]
N1559 G02X224.4077Y84.4877I9.4308J-8.2042 FV.E.FEEDRATE[15]
N1560 G02X205.5460Y100.8961I-9.4309J8.2042
N1561 G260
N1562 M95
N1563 M11 ;Beam OFF
N1564 M53 ;ping pong from travel
;CONTOUR: 9
[SP22SC9]
V.E.START_PART="SP22SC9"
N1565 M115
N1566 G138 G40 G00X225.4188Y123.7880 M57
N1567 G90
N1568 M50 ;Sensor ON
/N1569 M10 ;Beam ON
N1570 G131 V.E.ACC[14]
N1571 G133 V.E.JERK[14]
#CONTOUR MODE [AUTO_DEV, PATH_DEV=0.1]
N1572 G261
;(FastCut)
N1573 T15 G42 ;(IGNORE_SIMULATION)
N1574 M49 G01X221.4803Y123.0889 FV.E.FEEDRATE[14]   ;@@[ENTRY]
N1575 G131 V.E.ACC[15]
N1576 G133 V.E.JERK[15]
N1577 G02X246.0955Y127.4585I12.3076J2.1848 FV.E.FEEDRATE[15]
N1578 G02X221.4803Y123.0889I-12.3076J-2.1848
N1579 G260
N1580 M95
N1581 M11 ;Beam OFF
N1582 M53 ;ping pong from travel
;CONTOUR: 10
[SP22SC10]
V.E.START_PART="SP22SC10"
V.E.ALL_CONTOURS="1"
N1583 M115
N1584 G138 G40 G00X335.0119Y37.7423 M57
N1585 G90
N1586 M50 ;Sensor ON
/N1587 M10 ;Beam ON
N1588 G131 V.E.ACC[14]
N1589 G133 V.E.JERK[14]
#CONTOUR MODE [AUTO_DEV, PATH_DEV=0.1]
N1590 G261
;(FastCut)
N1591 T15 G41 ;(IGNORE_SIMULATION)
N1592 M49 G01X330.8949Y40.5797 FV.E.FEEDRATE[14]   ;@@[ENTRY]
N1593 G131 V.E.ACC[15]
N1594 G133 V.E.JERK[15]
N1595 G02X207.3876Y125.7028I-61.7537J42.5615 FV.E.FEEDRATE[15]
N1596 G02X330.8949Y40.5797I61.7536J-42.5616
N1597 G260
N1598 M96
N1599 M11 ;Beam OFF
N1600 M53 ;ping pong from travel
 
;PART: 23
;CONTOUR: 1
[SP23SC1]
V.E.START_PART="SP23SC1"
V.E.ALL_CONTOURS="0"
;@@[DetailName()]
V.E.ALL_CONTOURS="1"
N1601 M101
N1602 G138 G40 G00X368.0093Y15.0000 M57
N1603 G90
N1604 M50 ;Sensor ON
/N1605 M9 
N1606 M105
N1607 M50 ;Sensor ON
/N1608 M10 ;Beam ON
N1609 G131 V.E.ACC[5]
N1610 G133 V.E.JERK[5]
#CONTOUR MODE [AUTO_DEV, PATH_DEV=0.1]
N1611 G261
N1612 G01X368.0093Y10.0000 FV.E.FEEDRATE[5]   ;@@[ENTRY]
N1613 G04 0.3
N1614 M52 ;Sensor OFF
N1615 G01X368.0093Y0.0000
N1616 G01X368.0093Y-4.0000
N1617 G260
N1618 M11 ;Beam OFF
N1619 M56 ;high
;CONTOUR: 2
[SP23SC2]
V.E.START_PART="SP23SC2"
V.E.ALL_CONTOURS="1"
N1620 M105
N1621 G00X368.0093Y15.0000 M57
N1622 G90
N1623 M50 ;Sensor ON
/N1624 M10 ;Beam ON
N1625 G131 V.E.ACC[5]
N1626 G133 V.E.JERK[5]
#CONTOUR MODE [AUTO_DEV, PATH_DEV=0.1]
N1627 G261
N1628 G01X368.0093Y770.0000 FV.E.FEEDRATE[5] 
N1629 G04 0.3
N1630 M52 ;Sensor OFF
N1631 G01X368.0093Y780.0000
N1632 G01X368.0093Y792.0000
N1633 G260
N1634 M11 ;Beam OFF
N1635 M56 ;high
M13 ;Gas OFF
;PROCESS_END
[END]
G04 0.1
M51
V.E.PROGRAM_STATE=3
G01 Z0 F100000
G04 0.1
$IF V.G.ACS_ACTIVE
#ACS OFF
$ENDIF
G131 100
$IF V.E.PS_AUTO_EXCHANGE
V.E.AUTO_EXCHANGE_PCH=TRUE
$ENDIF
V.E.PROGRAM_STATE=4
G04 0.1
M30
