;CK-AN Post V22.1 SP273  run on 2024.04.25
%_N_BLACHA_3MM001_MPF
;$PATH=/_N_WKS_DIR/_N_BLACHA_3MM001_WPD
; (MAIN PROGRAM)
;*MODEL EAG_INSPIRE_ERIS
;DATE APR 25 2024 
;*SHEET 660.0000 450.0000 1.5 0 1 0.0000 0.0000
;START= BOTTOM-LEFT
;MAT Steel 1.5 
;*T100  B 0.2000  
;(Laser End)
;PROCESS_END
;Start questions
;NumberOfSheets=1
;TRC Active
G90
V.E.SHEET_X=660.0000
V.E.SHEET_Y=450.0000
V.E.MATERIAL="ST000-01.50M-O2-S0"
V.E.ESTIMATION_TIME="01:26"
V.E.CONTOURS_QTY=25
LAT/MainParam
$IF V.E.START_PART!="SP0SC0"
$GOTO V.E.START_PART 
$ENDIF
 
;PART: 1
;CONTOUR: 1
[SP1SC1]
V.E.START_PART="SP1SC1"
V.E.ALL_CONTOURS="0"
;@@[DetailName(blacha3_001)]
V.E.ALL_CONTOURS="1"
N111 M115
N112 G00X50.0000Y140.0000 M57
N113 G90
N114 M50 ;Sensor ON
/N115 M10 ;Beam ON
N116 G131 V.E.ACC[14]
N117 G133 V.E.JERK[14]
#CONTOUR MODE [AUTO_DEV, PATH_DEV=0.1]
N118 G261
;(FastCut)
N119 T15 G42 ;(IGNORE_SIMULATION)
N120 M49 G01X54.0000Y140.0000 FV.E.FEEDRATE[14]   ;@@[ENTRY]
N121 G131 V.E.ACC[15]
N122 G133 V.E.JERK[15]
N123 G01X84.0000Y140.0000 FV.E.FEEDRATE[15]
N124 G01X84.0000Y80.0000
N125 G01X104.0000Y80.0000
N126 G01X104.0000Y160.0000
N127 G01X54.0000Y160.0000
N128 G01X54.0000Y140.0000
N129 G260
N130 M96
N131 M11 ;Beam OFF
N132 M53 ;ping pong from travel
 
;PART: 2
;CONTOUR: 1
[SP2SC1]
V.E.START_PART="SP2SC1"
V.E.ALL_CONTOURS="0"
;@@[DetailName(blacha3_001)]
V.E.ALL_CONTOURS="1"
N133 M115
N134 G138 G40 G00X54.0000Y138.0000 M57
N135 G90
N136 M50 ;Sensor ON
/N137 M10 ;Beam ON
N138 G131 V.E.ACC[14]
N139 G133 V.E.JERK[14]
#CONTOUR MODE [AUTO_DEV, PATH_DEV=0.1]
N140 G261
;(FastCut)
N141 T15 G42 ;(IGNORE_SIMULATION)
N142 M49 G01X54.0000Y134.0000 FV.E.FEEDRATE[14]   ;@@[ENTRY]
N143 G131 V.E.ACC[15]
N144 G133 V.E.JERK[15]
N145 G01X54.0000Y54.0000 FV.E.FEEDRATE[15]
N146 G01X104.0000Y54.0000
N147 G01X104.0000Y74.0000
N148 G01X74.0000Y74.0000
N149 G01X74.0000Y134.0000
N150 G01X54.0000Y134.0000
N151 G260
N152 M96
N153 M11 ;Beam OFF
N154 M53 ;ping pong from travel
 
;PART: 3
;CONTOUR: 1
[SP3SC1]
V.E.START_PART="SP3SC1"
V.E.ALL_CONTOURS="0"
;@@[DetailName(blacha3_003)]
V.E.ALL_CONTOURS="1"
N155 M115
N156 G138 G40 G00X52.0000Y168.0000 M57
N157 G90
N158 M50 ;Sensor ON
/N159 M10 ;Beam ON
N160 G131 V.E.ACC[14]
N161 G133 V.E.JERK[14]
#CONTOUR MODE [AUTO_DEV, PATH_DEV=0.1]
N162 G261
;(FastCut)
N163 T15 G42 ;(IGNORE_SIMULATION)
N164 M49 G01X48.0000Y168.0000 FV.E.FEEDRATE[14]   ;@@[ENTRY]
N165 G131 V.E.ACC[15]
N166 G133 V.E.JERK[15]
N167 G01X8.0000Y168.0000 FV.E.FEEDRATE[15]
N168 G01X8.0000Y8.0000
N169 G01X108.0000Y8.0000
N170 G01X108.0000Y48.0000
N171 G01X48.0000Y48.0000
N172 G01X48.0000Y168.0000
N173 G260
N174 M96
N175 M11 ;Beam OFF
N176 M53 ;ping pong from travel
 
;PART: 4
;CONTOUR: 1
[SP4SC1]
V.E.START_PART="SP4SC1"
V.E.ALL_CONTOURS="0"
;@@[DetailName(blacha3_002)]
V.E.ALL_CONTOURS="1"
N177 M115
N178 G138 G40 G00X54.0000Y284.0000 M57
N179 G90
N180 M50 ;Sensor ON
/N181 M10 ;Beam ON
N182 G131 V.E.ACC[14]
N183 G133 V.E.JERK[14]
#CONTOUR MODE [AUTO_DEV, PATH_DEV=0.1]
N184 G261
;(FastCut)
N185 T15 G42 ;(IGNORE_SIMULATION)
N186 M49 G01X54.0000Y280.0000 FV.E.FEEDRATE[14]   ;@@[ENTRY]
N187 G131 V.E.ACC[15]
N188 G133 V.E.JERK[15]
N189 G01X54.0000Y220.0000 FV.E.FEEDRATE[15]
N190 G01X114.0000Y220.0000
N191 G01X114.0000Y280.0000
N192 G01X54.0000Y280.0000
N193 G260
N194 M96
N195 M11 ;Beam OFF
N196 M53 ;ping pong from travel
 
;PART: 5
;CONTOUR: 1
[SP5SC1]
V.E.START_PART="SP5SC1"
V.E.ALL_CONTOURS="0"
;@@[DetailName(blacha3_003)]
V.E.ALL_CONTOURS="1"
N197 M115
N198 G138 G40 G00X52.0000Y334.0000 M57
N199 G90
N200 M50 ;Sensor ON
/N201 M10 ;Beam ON
N202 G131 V.E.ACC[14]
N203 G133 V.E.JERK[14]
#CONTOUR MODE [AUTO_DEV, PATH_DEV=0.1]
N204 G261
;(FastCut)
N205 T15 G42 ;(IGNORE_SIMULATION)
N206 M49 G01X48.0000Y334.0000 FV.E.FEEDRATE[14]   ;@@[ENTRY]
N207 G131 V.E.ACC[15]
N208 G133 V.E.JERK[15]
N209 G01X8.0000Y334.0000 FV.E.FEEDRATE[15]
N210 G01X8.0000Y174.0000
N211 G01X108.0000Y174.0000
N212 G01X108.0000Y214.0000
N213 G01X48.0000Y214.0000
N214 G01X48.0000Y334.0000
N215 G260
N216 M96
N217 M11 ;Beam OFF
N218 M53 ;ping pong from travel
 
;PART: 6
;CONTOUR: 1
[SP6SC1]
V.E.START_PART="SP6SC1"
V.E.ALL_CONTOURS="0"
;@@[DetailName(blacha3_003)]
V.E.ALL_CONTOURS="1"
N219 M115
N220 G138 G40 G00X168.0000Y396.0000 M57
N221 G90
N222 M50 ;Sensor ON
/N223 M10 ;Beam ON
N224 G131 V.E.ACC[14]
N225 G133 V.E.JERK[14]
#CONTOUR MODE [AUTO_DEV, PATH_DEV=0.1]
N226 G261
;(FastCut)
N227 T15 G42 ;(IGNORE_SIMULATION)
N228 M49 G01X168.0000Y400.0000 FV.E.FEEDRATE[14]   ;@@[ENTRY]
N229 G131 V.E.ACC[15]
N230 G133 V.E.JERK[15]
N231 G01X168.0000Y440.0000 FV.E.FEEDRATE[15]
N232 G01X8.0000Y440.0000
N233 G01X8.0000Y340.0000
N234 G01X48.0000Y340.0000
N235 G01X48.0000Y400.0000
N236 G01X168.0000Y400.0000
N237 G260
N238 M96
N239 M11 ;Beam OFF
N240 M53 ;ping pong from travel
 
;PART: 7
;CONTOUR: 1
[SP7SC1]
V.E.START_PART="SP7SC1"
V.E.ALL_CONTOURS="0"
;@@[DetailName(blacha3_001)]
V.E.ALL_CONTOURS="1"
N241 M115
N242 G138 G40 G00X184.0000Y343.7689 M57
N243 G90
N244 M50 ;Sensor ON
/N245 M10 ;Beam ON
N246 G131 V.E.ACC[14]
N247 G133 V.E.JERK[14]
#CONTOUR MODE [AUTO_DEV, PATH_DEV=0.1]
N248 G261
;(FastCut)
N249 T15 G42 ;(IGNORE_SIMULATION)
N250 M49 G01X180.0000Y343.7689 FV.E.FEEDRATE[14]   ;@@[ENTRY]
N251 G131 V.E.ACC[15]
N252 G133 V.E.JERK[15]
N253 G01X100.0000Y343.7689 FV.E.FEEDRATE[15]
N254 G01X100.0000Y293.7689
N255 G01X120.0000Y293.7689
N256 G01X120.0000Y323.7689
N257 G01X180.0000Y323.7689
N258 G01X180.0000Y343.7689
N259 G260
N260 M96
N261 M11 ;Beam OFF
N262 M53 ;ping pong from travel
 
;PART: 8
;CONTOUR: 1
[SP8SC1]
V.E.START_PART="SP8SC1"
V.E.ALL_CONTOURS="0"
;@@[DetailName(blacha3_001)]
V.E.ALL_CONTOURS="1"
N263 M115
N264 G138 G40 G00X206.0000Y351.7689 M57
N265 G90
N266 M50 ;Sensor ON
/N267 M10 ;Beam ON
N268 G131 V.E.ACC[14]
N269 G133 V.E.JERK[14]
#CONTOUR MODE [AUTO_DEV, PATH_DEV=0.1]
N270 G261
;(FastCut)
N271 T15 G41 ;(IGNORE_SIMULATION)
N272 M49 G01X206.0000Y347.7689 FV.E.FEEDRATE[14]   ;@@[ENTRY]
N273 G131 V.E.ACC[15]
N274 G133 V.E.JERK[15]
N275 G01X206.0000Y297.7689 FV.E.FEEDRATE[15]
N276 G01X126.0000Y297.7689
N277 G01X126.0000Y317.7689
N278 G01X186.0000Y317.7689
N279 G01X186.0000Y347.7689
N280 G01X206.0000Y347.7689
N281 G260
N282 M96
N283 M11 ;Beam OFF
N284 M53 ;ping pong from travel
 
;PART: 9
;CONTOUR: 1
[SP9SC1]
V.E.START_PART="SP9SC1"
V.E.ALL_CONTOURS="0"
;@@[DetailName(blacha3_003)]
V.E.ALL_CONTOURS="1"
N285 M115
N286 G138 G40 G00X218.0000Y373.7689 M57
N287 G90
N288 M50 ;Sensor ON
/N289 M10 ;Beam ON
N290 G131 V.E.ACC[14]
N291 G133 V.E.JERK[14]
#CONTOUR MODE [AUTO_DEV, PATH_DEV=0.1]
N292 G261
;(FastCut)
N293 T15 G41 ;(IGNORE_SIMULATION)
N294 M49 G01X214.0000Y373.7689 FV.E.FEEDRATE[14]   ;@@[ENTRY]
N295 G131 V.E.ACC[15]
N296 G133 V.E.JERK[15]
N297 G01X214.0000Y353.7689 FV.E.FEEDRATE[15]
N298 G01X94.0000Y353.7689
N299 G01X94.0000Y293.7689
N300 G01X54.0000Y293.7689
N301 G01X54.0000Y393.7689
N302 G01X214.0000Y393.7689
N303 G01X214.0000Y373.7689
N304 G260
N305 M96
N306 M11 ;Beam OFF
N307 M53 ;ping pong from travel
 
;PART: 10
;CONTOUR: 1
[SP10SC1]
V.E.START_PART="SP10SC1"
V.E.ALL_CONTOURS="0"
;@@[DetailName(blacha3_001)]
V.E.ALL_CONTOURS="1"
N308 M115
N309 G138 G40 G00X244.0000Y381.7689 M57
N310 G90
N311 M50 ;Sensor ON
/N312 M10 ;Beam ON
N313 G131 V.E.ACC[14]
N314 G133 V.E.JERK[14]
#CONTOUR MODE [AUTO_DEV, PATH_DEV=0.1]
N315 G261
;(FastCut)
N316 T15 G42 ;(IGNORE_SIMULATION)
N317 M49 G01X240.0000Y381.7689 FV.E.FEEDRATE[14]   ;@@[ENTRY]
N318 G131 V.E.ACC[15]
N319 G133 V.E.JERK[15]
N320 G01X220.0000Y381.7689 FV.E.FEEDRATE[15]
N321 G01X220.0000Y301.7689
N322 G01X270.0000Y301.7689
N323 G01X270.0000Y321.7689
N324 G01X240.0000Y321.7689
N325 G01X240.0000Y381.7689
N326 G260
N327 M96
N328 M11 ;Beam OFF
N329 M53 ;ping pong from travel
 
;PART: 11
;CONTOUR: 1
[SP11SC1]
V.E.START_PART="SP11SC1"
V.E.ALL_CONTOURS="0"
;@@[DetailName(blacha3_004)]
V.E.ALL_CONTOURS="1"
N330 M115
N331 G138 G40 G00X310.0000Y410.3508 M57
N332 G90
N333 M50 ;Sensor ON
/N334 M10 ;Beam ON
N335 G131 V.E.ACC[14]
N336 G133 V.E.JERK[14]
#CONTOUR MODE [AUTO_DEV, PATH_DEV=0.1]
N337 G261
;(FastCut)
N338 T15 G41 ;(IGNORE_SIMULATION)
N339 M49 G01X306.0000Y410.3508 FV.E.FEEDRATE[14]   ;@@[ENTRY]
N340 G131 V.E.ACC[15]
N341 G133 V.E.JERK[15]
N342 G01X276.0000Y410.3508 FV.E.FEEDRATE[15]
N343 G01X276.0000Y340.3508
N344 G01X246.0000Y340.3508
N345 G01X246.0000Y410.3508
N346 G01X216.0000Y410.3508
N347 G01X216.0000Y440.3508
N348 G01X306.0000Y440.3508
N349 G01X306.0000Y410.3508
N350 G260
N351 M96
N352 M11 ;Beam OFF
N353 M53 ;ping pong from travel
 
;PART: 12
;CONTOUR: 1
[SP12SC1]
V.E.START_PART="SP12SC1"
V.E.ALL_CONTOURS="0"
;@@[DetailName(blacha3_001)]
V.E.ALL_CONTOURS="1"
N354 M115
N355 G138 G40 G00X424.9190Y376.4311 M57
N356 G90
N357 M50 ;Sensor ON
/N358 M10 ;Beam ON
N359 G131 V.E.ACC[14]
N360 G133 V.E.JERK[14]
#CONTOUR MODE [AUTO_DEV, PATH_DEV=0.1]
N361 G261
;(FastCut)
N362 T15 G42 ;(IGNORE_SIMULATION)
N363 M49 G01X427.2133Y379.7077 FV.E.FEEDRATE[14]   ;@@[ENTRY]
N364 G131 V.E.ACC[15]
N365 G133 V.E.JERK[15]
N366 G01X455.8922Y420.6653 FV.E.FEEDRATE[15]
N367 G01X439.5091Y432.1369
N368 G01X422.3018Y407.5623
N369 G01X373.1527Y441.9769
N370 G01X361.6812Y425.5938
N371 G01X427.2133Y379.7077
N372 G260
N373 M96
N374 M11 ;Beam OFF
N375 M53 ;ping pong from travel
 
;PART: 13
;CONTOUR: 1
[SP13SC1]
V.E.START_PART="SP13SC1"
V.E.ALL_CONTOURS="0"
;@@[DetailName(blacha3_001)]
V.E.ALL_CONTOURS="1"
N376 M115
N377 G138 G40 G00X489.2372Y251.9425 M57
N378 G90
N379 M50 ;Sensor ON
/N380 M10 ;Beam ON
N381 G131 V.E.ACC[14]
N382 G133 V.E.JERK[14]
#CONTOUR MODE [AUTO_DEV, PATH_DEV=0.1]
N383 G261
;(FastCut)
N384 T15 G42 ;(IGNORE_SIMULATION)
N385 M49 G01X492.0656Y249.1141 FV.E.FEEDRATE[14]   ;@@[ENTRY]
N386 G131 V.E.ACC[15]
N387 G133 V.E.JERK[15]
N388 G01X527.4209Y213.7588 FV.E.FEEDRATE[15]
N389 G01X541.5631Y227.9009
N390 G01X520.3499Y249.1141
N391 G01X562.7763Y291.5405
N392 G01X548.6342Y305.6826
N393 G01X492.0656Y249.1141
N394 G260
N395 M96
N396 M11 ;Beam OFF
N397 M53 ;ping pong from travel
 
;PART: 14
;CONTOUR: 1
[SP14SC1]
V.E.START_PART="SP14SC1"
V.E.ALL_CONTOURS="0"
;@@[DetailName(blacha3_001)]
V.E.ALL_CONTOURS="1"
N398 M115
N399 G138 G40 G00X286.2185Y274.8504 M57
N400 G90
N401 M50 ;Sensor ON
/N402 M10 ;Beam ON
N403 G131 V.E.ACC[14]
N404 G133 V.E.JERK[14]
#CONTOUR MODE [AUTO_DEV, PATH_DEV=0.1]
N405 G261
;(FastCut)
N406 T15 G41 ;(IGNORE_SIMULATION)
N407 M49 G01X289.4951Y272.5561 FV.E.FEEDRATE[14]   ;@@[ENTRY]
N408 G131 V.E.ACC[15]
N409 G133 V.E.JERK[15]
N410 G01X330.4527Y243.8773 FV.E.FEEDRATE[15]
N411 G01X284.5666Y178.3451
N412 G01X268.1836Y189.8167
N413 G01X302.5982Y238.9658
N414 G01X278.0236Y256.1731
N415 G01X289.4951Y272.5561
N416 G260
N417 M96
N418 M11 ;Beam OFF
N419 M53 ;ping pong from travel
 
;PART: 15
;CONTOUR: 1
[SP15SC1]
V.E.START_PART="SP15SC1"
V.E.ALL_CONTOURS="0"
;@@[DetailName(blacha3_005)]
V.E.ALL_CONTOURS="1"
N420 M115
N421 G138 G40 G00X277.7026Y286.3079 M57
N422 G90
N423 M50 ;Sensor ON
/N424 M10 ;Beam ON
N425 G131 V.E.ACC[14]
N426 G133 V.E.JERK[14]
#CONTOUR MODE [AUTO_DEV, PATH_DEV=0.1]
N427 G261
;(FastCut)
N428 T15 G41 ;(IGNORE_SIMULATION)
N429 M49 G01X278.0227Y290.2950 FV.E.FEEDRATE[14]   ;@@[ENTRY]
N430 G131 V.E.ACC[15]
N431 G133 V.E.JERK[15]
N432 G01X285.9429Y388.9336 FV.E.FEEDRATE[15]
N433 G01X350.5109Y424.7478
N434 G01X462.5827Y348.3190
N435 G01X469.5859Y435.5376
N436 G01X559.3407Y432.3656
N437 G01X564.7790Y330.2251
N438 G01X461.5782Y227.4742
N439 G01X551.2246Y200.2461
N440 G01X507.1264Y125.9016
N441 G01X564.7809Y102.8919
N442 G01X547.3112Y16.1415
N443 G01X394.4965Y8.0052
N444 G01X357.2475Y14.9168
N445 G01X292.4459Y43.8058
N446 G01X347.9388Y56.2910
N447 G01X388.4330Y133.3649
N448 G01X293.3258Y80.6114
N449 G01X276.9874Y154.8204
N450 G01X340.3768Y247.7718
N451 G01X278.0227Y290.2950
N452 G260
N453 M96
N454 M11 ;Beam OFF
N455 M53 ;ping pong from travel
 
;PART: 16
;CONTOUR: 1
[SP16SC1]
V.E.START_PART="SP16SC1"
V.E.ALL_CONTOURS="0"
;@@[DetailName(blacha3_004)]
V.E.ALL_CONTOURS="1"
N456 M115
N457 G138 G40 G00X172.0000Y231.7689 M57
N458 G90
N459 M50 ;Sensor ON
/N460 M10 ;Beam ON
N461 G131 V.E.ACC[14]
N462 G133 V.E.JERK[14]
#CONTOUR MODE [AUTO_DEV, PATH_DEV=0.1]
N463 G261
;(FastCut)
N464 T15 G41 ;(IGNORE_SIMULATION)
N465 M49 G01X172.0000Y235.7689 FV.E.FEEDRATE[14]   ;@@[ENTRY]
N466 G131 V.E.ACC[15]
N467 G133 V.E.JERK[15]
N468 G01X172.0000Y265.7689 FV.E.FEEDRATE[15]
N469 G01X242.0000Y265.7689
N470 G01X242.0000Y295.7689
N471 G01X272.0000Y295.7689
N472 G01X272.0000Y205.7689
N473 G01X242.0000Y205.7689
N474 G01X242.0000Y235.7689
N475 G01X172.0000Y235.7689
N476 G260
N477 M96
N478 M11 ;Beam OFF
N479 M53 ;ping pong from travel
 
;PART: 17
;CONTOUR: 1
[SP17SC1]
V.E.START_PART="SP17SC1"
V.E.ALL_CONTOURS="0"
;@@[DetailName(blacha3_001)]
V.E.ALL_CONTOURS="1"
N480 M115
N481 G138 G40 G00X166.0000Y237.7689 M57
N482 G90
N483 M50 ;Sensor ON
/N484 M10 ;Beam ON
N485 G131 V.E.ACC[14]
N486 G133 V.E.JERK[14]
#CONTOUR MODE [AUTO_DEV, PATH_DEV=0.1]
N487 G261
;(FastCut)
N488 T15 G42 ;(IGNORE_SIMULATION)
N489 M49 G01X166.0000Y241.7689 FV.E.FEEDRATE[14]   ;@@[ENTRY]
N490 G131 V.E.ACC[15]
N491 G133 V.E.JERK[15]
N492 G01X166.0000Y271.7689 FV.E.FEEDRATE[15]
N493 G01X226.0000Y271.7689
N494 G01X226.0000Y291.7689
N495 G01X146.0000Y291.7689
N496 G01X146.0000Y241.7689
N497 G01X166.0000Y241.7689
N498 G260
N499 M96
N500 M11 ;Beam OFF
N501 M53 ;ping pong from travel
 
;PART: 18
;CONTOUR: 1
[SP18SC1]
V.E.START_PART="SP18SC1"
V.E.ALL_CONTOURS="0"
;@@[DetailName(blacha3_001)]
V.E.ALL_CONTOURS="1"
N502 M115
N503 G138 G40 G00X174.0000Y206.0000 M57
N504 G90
N505 M50 ;Sensor ON
/N506 M10 ;Beam ON
N507 G131 V.E.ACC[14]
N508 G133 V.E.JERK[14]
#CONTOUR MODE [AUTO_DEV, PATH_DEV=0.1]
N509 G261
;(FastCut)
N510 T15 G41 ;(IGNORE_SIMULATION)
N511 M49 G01X170.0000Y206.0000 FV.E.FEEDRATE[14]   ;@@[ENTRY]
N512 G131 V.E.ACC[15]
N513 G133 V.E.JERK[15]
N514 G01X120.0000Y206.0000 FV.E.FEEDRATE[15]
N515 G01X120.0000Y286.0000
N516 G01X140.0000Y286.0000
N517 G01X140.0000Y226.0000
N518 G01X170.0000Y226.0000
N519 G01X170.0000Y206.0000
N520 G260
N521 M96
N522 M11 ;Beam OFF
N523 M53 ;ping pong from travel
 
;PART: 19
;CONTOUR: 1
[SP19SC1]
V.E.START_PART="SP19SC1"
V.E.ALL_CONTOURS="0"
;@@[DetailName(blacha3_002)]
V.E.ALL_CONTOURS="1"
N524 M115
N525 G138 G40 G00X174.0000Y136.0000 M57
N526 G90
N527 M50 ;Sensor ON
/N528 M10 ;Beam ON
N529 G131 V.E.ACC[14]
N530 G133 V.E.JERK[14]
#CONTOUR MODE [AUTO_DEV, PATH_DEV=0.1]
N531 G261
;(FastCut)
N532 T15 G42 ;(IGNORE_SIMULATION)
N533 M49 G01X174.0000Y140.0000 FV.E.FEEDRATE[14]   ;@@[ENTRY]
N534 G131 V.E.ACC[15]
N535 G133 V.E.JERK[15]
N536 G01X174.0000Y200.0000 FV.E.FEEDRATE[15]
N537 G01X114.0000Y200.0000
N538 G01X114.0000Y140.0000
N539 G01X174.0000Y140.0000
N540 G260
N541 M96
N542 M11 ;Beam OFF
N543 M53 ;ping pong from travel
 
;PART: 20
;CONTOUR: 1
[SP20SC1]
V.E.START_PART="SP20SC1"
V.E.ALL_CONTOURS="0"
;@@[DetailName(blacha3_001)]
V.E.ALL_CONTOURS="1"
N544 M115
N545 G138 G40 G00X200.0000Y136.0000 M57
N546 G90
N547 M50 ;Sensor ON
/N548 M10 ;Beam ON
N549 G131 V.E.ACC[14]
N550 G133 V.E.JERK[14]
#CONTOUR MODE [AUTO_DEV, PATH_DEV=0.1]
N551 G261
;(FastCut)
N552 T15 G42 ;(IGNORE_SIMULATION)
N553 M49 G01X200.0000Y140.0000 FV.E.FEEDRATE[14]   ;@@[ENTRY]
N554 G131 V.E.ACC[15]
N555 G133 V.E.JERK[15]
N556 G01X200.0000Y170.0000 FV.E.FEEDRATE[15]
N557 G01X260.0000Y170.0000
N558 G01X260.0000Y190.0000
N559 G01X180.0000Y190.0000
N560 G01X180.0000Y140.0000
N561 G01X200.0000Y140.0000
N562 G260
N563 M96
N564 M11 ;Beam OFF
N565 M53 ;ping pong from travel
 
;PART: 21
;CONTOUR: 1
[SP21SC1]
V.E.START_PART="SP21SC1"
V.E.ALL_CONTOURS="0"
;@@[DetailName(blacha3_004)]
V.E.ALL_CONTOURS="1"
N566 M115
N567 G138 G40 G00X221.0000Y60.0000 M57
N568 G90
N569 M50 ;Sensor ON
/N570 M10 ;Beam ON
N571 G131 V.E.ACC[14]
N572 G133 V.E.JERK[14]
#CONTOUR MODE [AUTO_DEV, PATH_DEV=0.1]
N573 G261
;(FastCut)
N574 T15 G41 ;(IGNORE_SIMULATION)
N575 M49 G01X221.0000Y64.0000 FV.E.FEEDRATE[14]   ;@@[ENTRY]
N576 G131 V.E.ACC[15]
N577 G133 V.E.JERK[15]
N578 G01X176.0000Y64.0000 FV.E.FEEDRATE[15]
N579 G01X176.0000Y94.0000
N580 G01X206.0000Y94.0000
N581 G01X206.0000Y164.0000
N582 G01X236.0000Y164.0000
N583 G01X236.0000Y94.0000
N584 G01X266.0000Y94.0000
N585 G01X266.0000Y64.0000
N586 G01X221.0000Y64.0000
N587 G260
N588 M96
N589 M11 ;Beam OFF
N590 M53 ;ping pong from travel
 
;PART: 22
;CONTOUR: 1
[SP22SC1]
V.E.START_PART="SP22SC1"
V.E.ALL_CONTOURS="0"
;@@[DetailName(blacha3_001)]
V.E.ALL_CONTOURS="1"
N591 M115
N592 G138 G40 G00X202.0000Y32.0000 M57
N593 G90
N594 M50 ;Sensor ON
/N595 M10 ;Beam ON
N596 G131 V.E.ACC[14]
N597 G133 V.E.JERK[14]
#CONTOUR MODE [AUTO_DEV, PATH_DEV=0.1]
N598 G261
;(FastCut)
N599 T15 G42 ;(IGNORE_SIMULATION)
N600 M49 G01X202.0000Y28.0000 FV.E.FEEDRATE[14]   ;@@[ENTRY]
N601 G131 V.E.ACC[15]
N602 G133 V.E.JERK[15]
N603 G01X202.0000Y8.0000 FV.E.FEEDRATE[15]
N604 G01X282.0000Y8.0000
N605 G01X282.0000Y58.0000
N606 G01X262.0000Y58.0000
N607 G01X262.0000Y28.0000
N608 G01X202.0000Y28.0000
N609 G260
N610 M96
N611 M11 ;Beam OFF
N612 M53 ;ping pong from travel
 
;PART: 23
;CONTOUR: 1
[SP23SC1]
V.E.START_PART="SP23SC1"
V.E.ALL_CONTOURS="0"
;@@[DetailName(blacha3_001)]
V.E.ALL_CONTOURS="1"
N613 M115
N614 G138 G40 G00X176.0000Y62.0000 M57
N615 G90
N616 M50 ;Sensor ON
/N617 M10 ;Beam ON
N618 G131 V.E.ACC[14]
N619 G133 V.E.JERK[14]
#CONTOUR MODE [AUTO_DEV, PATH_DEV=0.1]
N620 G261
;(FastCut)
N621 T15 G42 ;(IGNORE_SIMULATION)
N622 M49 G01X176.0000Y58.0000 FV.E.FEEDRATE[14]   ;@@[ENTRY]
N623 G131 V.E.ACC[15]
N624 G133 V.E.JERK[15]
N625 G01X176.0000Y8.0000 FV.E.FEEDRATE[15]
N626 G01X196.0000Y8.0000
N627 G01X196.0000Y38.0000
N628 G01X256.0000Y38.0000
N629 G01X256.0000Y58.0000
N630 G01X176.0000Y58.0000
N631 G260
N632 M96
N633 M11 ;Beam OFF
N634 M53 ;ping pong from travel
 
;PART: 24
;CONTOUR: 1
[SP24SC1]
V.E.START_PART="SP24SC1"
V.E.ALL_CONTOURS="0"
;@@[DetailName(blacha3_001)]
V.E.ALL_CONTOURS="1"
N635 M115
N636 G138 G40 G00X138.0000Y88.0000 M57
N637 G90
N638 M50 ;Sensor ON
/N639 M10 ;Beam ON
N640 G131 V.E.ACC[14]
N641 G133 V.E.JERK[14]
#CONTOUR MODE [AUTO_DEV, PATH_DEV=0.1]
N642 G261
;(FastCut)
N643 T15 G42 ;(IGNORE_SIMULATION)
N644 M49 G01X134.0000Y88.0000 FV.E.FEEDRATE[14]   ;@@[ENTRY]
N645 G131 V.E.ACC[15]
N646 G133 V.E.JERK[15]
N647 G01X114.0000Y88.0000 FV.E.FEEDRATE[15]
N648 G01X114.0000Y8.0000
N649 G01X164.0000Y8.0000
N650 G01X164.0000Y28.0000
N651 G01X134.0000Y28.0000
N652 G01X134.0000Y88.0000
N653 G260
N654 M96
N655 M11 ;Beam OFF
N656 M53 ;ping pong from travel
 
;PART: 25
;CONTOUR: 1
[SP25SC1]
V.E.START_PART="SP25SC1"
V.E.ALL_CONTOURS="0"
;@@[DetailName(blacha3_004)]
V.E.ALL_CONTOURS="1"
N657 M115
N658 G138 G40 G00X204.0000Y104.0000 M57
N659 G90
N660 M50 ;Sensor ON
/N661 M10 ;Beam ON
N662 G131 V.E.ACC[14]
N663 G133 V.E.JERK[14]
#CONTOUR MODE [AUTO_DEV, PATH_DEV=0.1]
N664 G261
;(FastCut)
N665 T15 G41 ;(IGNORE_SIMULATION)
N666 M49 G01X200.0000Y104.0000 FV.E.FEEDRATE[14]   ;@@[ENTRY]
N667 G131 V.E.ACC[15]
N668 G133 V.E.JERK[15]
N669 G01X170.0000Y104.0000 FV.E.FEEDRATE[15]
N670 G01X170.0000Y34.0000
N671 G01X140.0000Y34.0000
N672 G01X140.0000Y104.0000
N673 G01X110.0000Y104.0000
N674 G01X110.0000Y134.0000
N675 G01X200.0000Y134.0000
N676 G01X200.0000Y104.0000
N677 G260
N678 M96
N679 M11 ;Beam OFF
N680 M56 ;high
M13 ;Gas OFF
G40 G1X200.0000Y104.0000
;PROCESS_END
[END]
T0 ;(IGNORE_SIMULATION)
G04 0.1
M51
V.E.PROGRAM_STATE=3
G01 Z0 F100000
G04 0.1
$IF V.G.ACS_ACTIVE
#ACS OFF
$ENDIF
G131 100
$IF V.E.PS_AUTO_EXCHANGE
V.E.AUTO_EXCHANGE_PCH=TRUE
$ENDIF
V.E.PROGRAM_STATE=4
G04 0.1
M30
