;CK-AN Post V22.1 SP273  run on 2024.04.25
%_N_BLACHA_4001_MPF
;$PATH=/_N_WKS_DIR/_N_BLACHA_4001_WPD
; (MAIN PROGRAM)
;*MODEL EAG_INSPIRE_ERIS
;DATE APR 25 2024 
;*SHEET 660.0000 499.9500 1.5 0 1 0.0000 0.0000
;START= BOTTOM-LEFT
;MAT Steel 1.5 
;*T100  B 0.2000  
;(Laser End)
;PROCESS_END
;Start questions
;NumberOfSheets=1
;TRC Active
G90
V.E.SHEET_X=660.0000
V.E.SHEET_Y=499.9500
V.E.MATERIAL="ST000-01.50M-O2-S0"
V.E.ESTIMATION_TIME="01:24"
V.E.CONTOURS_QTY=23
LAT/MainParam
$IF V.E.START_PART!="SP0SC0"
$GOTO V.E.START_PART 
$ENDIF
 
;PART: 1
;CONTOUR: 1
[SP1SC1]
V.E.START_PART="SP1SC1"
V.E.ALL_CONTOURS="0"
;@@[DetailName(blacha4_006)]
V.E.ALL_CONTOURS="1"
N111 M115
N112 G00X79.0683Y225.7582 M57
N113 G90
N114 M50 ;Sensor ON
/N115 M10 ;Beam ON
N116 G131 V.E.ACC[14]
N117 G133 V.E.JERK[14]
#CONTOUR MODE [AUTO_DEV, PATH_DEV=0.1]
N118 G261
;(FastCut)
N119 T15 G41 ;(IGNORE_SIMULATION)
N120 M49 G01X75.0683Y225.7582 FV.E.FEEDRATE[14]   ;@@[ENTRY]
N121 G131 V.E.ACC[15]
N122 G133 V.E.JERK[15]
N123 G01X75.0683Y8.0000 FV.E.FEEDRATE[15]
N124 G01X8.0000Y8.0000
N125 G01X8.0000Y443.5164
N126 G01X75.0683Y443.5164
N127 G01X75.0683Y225.7582
N128 G260
N129 M96
N130 M11 ;Beam OFF
N131 M53 ;ping pong from travel
 
;PART: 2
;CONTOUR: 1
[SP2SC1]
V.E.START_PART="SP2SC1"
V.E.ALL_CONTOURS="0"
;@@[DetailName(blacha4_006)]
V.E.ALL_CONTOURS="1"
N132 M115
N133 G138 G40 G00X152.1366Y225.7582 M57
N134 G90
N135 M50 ;Sensor ON
/N136 M10 ;Beam ON
N137 G131 V.E.ACC[14]
N138 G133 V.E.JERK[14]
#CONTOUR MODE [AUTO_DEV, PATH_DEV=0.1]
N139 G261
;(FastCut)
N140 T15 G41 ;(IGNORE_SIMULATION)
N141 M49 G01X148.1366Y225.7582 FV.E.FEEDRATE[14]   ;@@[ENTRY]
N142 G131 V.E.ACC[15]
N143 G133 V.E.JERK[15]
N144 G01X148.1366Y8.0000 FV.E.FEEDRATE[15]
N145 G01X81.0683Y8.0000
N146 G01X81.0683Y443.5164
N147 G01X148.1366Y443.5164
N148 G01X148.1366Y225.7582
N149 G260
N150 M96
N151 M11 ;Beam OFF
N152 M53 ;ping pong from travel
 
;PART: 3
;CONTOUR: 1
[SP3SC1]
V.E.START_PART="SP3SC1"
V.E.ALL_CONTOURS="0"
;@@[DetailName(blacha4_009)]
V.E.ALL_CONTOURS="1"
N153 M115
N154 G138 G40 G00X235.5914Y189.6773 M57
N155 G90
N156 M50 ;Sensor ON
/N157 M10 ;Beam ON
N158 G131 V.E.ACC[14]
N159 G133 V.E.JERK[14]
#CONTOUR MODE [AUTO_DEV, PATH_DEV=0.1]
N160 G261
;(FastCut)
N161 T15 G41 ;(IGNORE_SIMULATION)
N162 M49 G01X231.5914Y189.6773 FV.E.FEEDRATE[14]   ;@@[ENTRY]
N163 G131 V.E.ACC[15]
N164 G133 V.E.JERK[15]
N165 G01X154.1367Y189.6773 FV.E.FEEDRATE[15]
N166 G01X154.1366Y319.0255
N167 G01X231.5914Y319.0255
N168 G01X231.5914Y189.6773
N169 G260
N170 M96
N171 M11 ;Beam OFF
N172 M53 ;ping pong from travel
 
;PART: 4
;CONTOUR: 1
[SP4SC1]
V.E.START_PART="SP4SC1"
V.E.ALL_CONTOURS="0"
;@@[DetailName(blacha4_007)]
V.E.ALL_CONTOURS="1"
N173 M115
N174 G138 G40 G00X284.6258Y196.6711 M57
N175 G90
N176 M50 ;Sensor ON
/N177 M10 ;Beam ON
N178 G131 V.E.ACC[14]
N179 G133 V.E.JERK[14]
#CONTOUR MODE [AUTO_DEV, PATH_DEV=0.1]
N180 G261
;(FastCut)
N181 T15 G41 ;(IGNORE_SIMULATION)
N182 M49 G01X280.6258Y196.6711 FV.E.FEEDRATE[14]   ;@@[ENTRY]
N183 G131 V.E.ACC[15]
N184 G133 V.E.JERK[15]
N185 G01X237.5915Y196.6711 FV.E.FEEDRATE[15]
N186 G01X237.5914Y327.6611
N187 G01X280.6258Y327.6611
N188 G01X280.6258Y196.6711
N189 G260
N190 M96
N191 M11 ;Beam OFF
N192 M53 ;ping pong from travel
 
;PART: 5
;CONTOUR: 1
[SP5SC1]
V.E.START_PART="SP5SC1"
V.E.ALL_CONTOURS="0"
;@@[DetailName(blacha4_012)]
V.E.ALL_CONTOURS="1"
N193 M115
N194 G138 G40 G00X282.6258Y196.6711 M57
N195 G90
N196 M50 ;Sensor ON
/N197 M10 ;Beam ON
N198 G131 V.E.ACC[14]
N199 G133 V.E.JERK[14]
#CONTOUR MODE [AUTO_DEV, PATH_DEV=0.1]
N200 G261
;(FastCut)
N201 T15 G42 ;(IGNORE_SIMULATION)
N202 M49 G01X286.6258Y196.6711 FV.E.FEEDRATE[14]   ;@@[ENTRY]
N203 G131 V.E.ACC[15]
N204 G133 V.E.JERK[15]
N205 G01X329.6602Y196.6711 FV.E.FEEDRATE[15]
N206 G01X329.6602Y327.6611
N207 G01X286.6258Y327.6611
N208 G01X286.6258Y196.6711
N209 G260
N210 M96
N211 M11 ;Beam OFF
N212 M53 ;ping pong from travel
 
;PART: 6
;CONTOUR: 1
[SP6SC1]
V.E.START_PART="SP6SC1"
V.E.ALL_CONTOURS="0"
;@@[DetailName(blacha4_008)]
V.E.ALL_CONTOURS="1"
N213 M115
N214 G138 G40 G00X258.6770Y116.8101 M57
N215 G90
N216 M50 ;Sensor ON
/N217 M10 ;Beam ON
N218 G131 V.E.ACC[14]
N219 G133 V.E.JERK[14]
#CONTOUR MODE [AUTO_DEV, PATH_DEV=0.1]
N220 G261
;(FastCut)
N221 T15 G41 ;(IGNORE_SIMULATION)
N222 M49 G01X258.6770Y120.8101 FV.E.FEEDRATE[14]   ;@@[ENTRY]
N223 G131 V.E.ACC[15]
N224 G133 V.E.JERK[15]
N225 G01X258.6770Y190.6711 FV.E.FEEDRATE[15]
N226 G01X348.7961Y190.6711
N227 G01X348.7961Y120.8101
N228 G01X258.6770Y120.8101
N229 G260
N230 M96
N231 M11 ;Beam OFF
N232 M53 ;ping pong from travel
 
;PART: 7
;CONTOUR: 1
[SP7SC1]
V.E.START_PART="SP7SC1"
V.E.ALL_CONTOURS="0"
;@@[DetailName(blacha4_002)]
V.E.ALL_CONTOURS="1"
N233 M115
N234 G138 G40 G00X256.6770Y112.5403 M57
N235 G90
N236 M50 ;Sensor ON
/N237 M10 ;Beam ON
N238 G131 V.E.ACC[14]
N239 G133 V.E.JERK[14]
#CONTOUR MODE [AUTO_DEV, PATH_DEV=0.1]
N240 G261
;(FastCut)
N241 T15 G41 ;(IGNORE_SIMULATION)
N242 M49 G01X252.6770Y112.5403 FV.E.FEEDRATE[14]   ;@@[ENTRY]
N243 G131 V.E.ACC[15]
N244 G133 V.E.JERK[15]
N245 G01X154.1366Y112.5403 FV.E.FEEDRATE[15]
N246 G01X154.1366Y183.6773
N247 G01X252.6770Y183.6773
N248 G01X252.6770Y112.5403
N249 G260
N250 M96
N251 M11 ;Beam OFF
N252 M53 ;ping pong from travel
 
;PART: 8
;CONTOUR: 1
[SP8SC1]
V.E.START_PART="SP8SC1"
V.E.ALL_CONTOURS="0"
;@@[DetailName(blacha4_001)]
V.E.ALL_CONTOURS="1"
N253 M115
N254 G138 G40 G00X262.8608Y110.5403 M57
N255 G90
N256 M50 ;Sensor ON
/N257 M10 ;Beam ON
N258 G131 V.E.ACC[14]
N259 G133 V.E.JERK[14]
#CONTOUR MODE [AUTO_DEV, PATH_DEV=0.1]
N260 G261
;(FastCut)
N261 T15 G41 ;(IGNORE_SIMULATION)
N262 M49 G01X262.8608Y106.5403 FV.E.FEEDRATE[14]   ;@@[ENTRY]
N263 G131 V.E.ACC[15]
N264 G133 V.E.JERK[15]
N265 G01X262.8608Y8.0000 FV.E.FEEDRATE[15]
N266 G01X154.1366Y8.0000
N267 G01X154.1366Y106.5403
N268 G01X262.8608Y106.5403
N269 G260
N270 M96
N271 M11 ;Beam OFF
N272 M53 ;ping pong from travel
 
;PART: 9
;CONTOUR: 1
[SP9SC1]
V.E.START_PART="SP9SC1"
V.E.ALL_CONTOURS="0"
;@@[DetailName(blacha4_005)]
V.E.ALL_CONTOURS="1"
N273 M115
N274 G138 G40 G00X366.0732Y114.8101 M57
N275 G90
N276 M50 ;Sensor ON
/N277 M10 ;Beam ON
N278 G131 V.E.ACC[14]
N279 G133 V.E.JERK[14]
#CONTOUR MODE [AUTO_DEV, PATH_DEV=0.1]
N280 G261
;(FastCut)
N281 T15 G42 ;(IGNORE_SIMULATION)
N282 M49 G01X362.0732Y114.8101 FV.E.FEEDRATE[14]   ;@@[ENTRY]
N283 G131 V.E.ACC[15]
N284 G133 V.E.JERK[15]
N285 G01X268.8608Y114.8101 FV.E.FEEDRATE[15]
N286 G01X268.8608Y8.0000
N287 G01X362.0732Y8.0000
N288 G01X362.0732Y114.8101
N289 G260
N290 M96
N291 M11 ;Beam OFF
N292 M53 ;ping pong from travel
 
;PART: 10
;CONTOUR: 1
[SP10SC1]
V.E.START_PART="SP10SC1"
V.E.ALL_CONTOURS="0"
;@@[DetailName(blacha4_001)]
V.E.ALL_CONTOURS="1"
N293 M115
N294 G138 G40 G00X470.6135Y116.7242 M57
N295 G90
N296 M50 ;Sensor ON
/N297 M10 ;Beam ON
N298 G131 V.E.ACC[14]
N299 G133 V.E.JERK[14]
#CONTOUR MODE [AUTO_DEV, PATH_DEV=0.1]
N300 G261
;(FastCut)
N301 T15 G42 ;(IGNORE_SIMULATION)
N302 M49 G01X466.6135Y116.7242 FV.E.FEEDRATE[14]   ;@@[ENTRY]
N303 G131 V.E.ACC[15]
N304 G133 V.E.JERK[15]
N305 G01X368.0732Y116.7242 FV.E.FEEDRATE[15]
N306 G01X368.0732Y8.0000
N307 G01X466.6135Y8.0000
N308 G01X466.6135Y116.7242
N309 G260
N310 M96
N311 M11 ;Beam OFF
N312 M53 ;ping pong from travel
 
;PART: 11
;CONTOUR: 1
[SP11SC1]
V.E.START_PART="SP11SC1"
V.E.ALL_CONTOURS="0"
;@@[DetailName(blacha4_008)]
V.E.ALL_CONTOURS="1"
N313 M115
N314 G138 G40 G00X448.9153Y192.5852 M57
N315 G90
N316 M50 ;Sensor ON
/N317 M10 ;Beam ON
N318 G131 V.E.ACC[14]
N319 G133 V.E.JERK[14]
#CONTOUR MODE [AUTO_DEV, PATH_DEV=0.1]
N320 G261
;(FastCut)
N321 T15 G42 ;(IGNORE_SIMULATION)
N322 M49 G01X444.9153Y192.5852 FV.E.FEEDRATE[14]   ;@@[ENTRY]
N323 G131 V.E.ACC[15]
N324 G133 V.E.JERK[15]
N325 G01X354.7961Y192.5852 FV.E.FEEDRATE[15]
N326 G01X354.7961Y122.7242
N327 G01X444.9153Y122.7242
N328 G01X444.9153Y192.5852
N329 G260
N330 M96
N331 M11 ;Beam OFF
N332 M53 ;ping pong from travel
 
;PART: 12
;CONTOUR: 1
[SP12SC1]
V.E.START_PART="SP12SC1"
V.E.ALL_CONTOURS="0"
;@@[DetailName(blacha4_010)]
V.E.ALL_CONTOURS="1"
N333 M115
N334 G138 G40 G00X434.5018Y288.8631 M57
N335 G90
N336 M50 ;Sensor ON
/N337 M10 ;Beam ON
N338 G131 V.E.ACC[14]
N339 G133 V.E.JERK[14]
#CONTOUR MODE [AUTO_DEV, PATH_DEV=0.1]
N340 G261
;(FastCut)
N341 T15 G41 ;(IGNORE_SIMULATION)
N342 M49 G01X438.5018Y288.8631 FV.E.FEEDRATE[14]   ;@@[ENTRY]
N343 G131 V.E.ACC[15]
N344 G133 V.E.JERK[15]
N345 G01X438.5019Y379.1410 FV.E.FEEDRATE[15]
N346 G01X468.8857Y379.1410
N347 G01X468.8857Y198.5852
N348 G01X438.5018Y198.5852
N349 G01X438.5018Y288.8631
N350 G260
N351 M96
N352 M11 ;Beam OFF
N353 M53 ;ping pong from travel
 
;PART: 13
;CONTOUR: 1
[SP13SC1]
V.E.START_PART="SP13SC1"
V.E.ALL_CONTOURS="0"
;@@[DetailName(blacha4_003)]
V.E.ALL_CONTOURS="1"
N354 M115
N355 G138 G40 G00X381.6690Y330.5327 M57
N356 G90
N357 M50 ;Sensor ON
/N358 M10 ;Beam ON
N359 G131 V.E.ACC[14]
N360 G133 V.E.JERK[14]
#CONTOUR MODE [AUTO_DEV, PATH_DEV=0.1]
N361 G261
;(FastCut)
N362 T15 G41 ;(IGNORE_SIMULATION)
N363 M49 G01X385.6690Y330.5327 FV.E.FEEDRATE[14]   ;@@[ENTRY]
N364 G131 V.E.ACC[15]
N365 G133 V.E.JERK[15]
N366 G01X429.6779Y330.5327 FV.E.FEEDRATE[15]
N367 G01X429.6779Y198.5852
N368 G01X385.6690Y198.5852
N369 G01X385.6690Y330.5327
N370 G260
N371 M96
N372 M11 ;Beam OFF
N373 M53 ;ping pong from travel
 
;PART: 14
;CONTOUR: 1
[SP14SC1]
V.E.START_PART="SP14SC1"
V.E.ALL_CONTOURS="0"
;@@[DetailName(blacha4_003)]
V.E.ALL_CONTOURS="1"
N374 M115
N375 G138 G40 G00X383.6690Y330.5327 M57
N376 G90
N377 M50 ;Sensor ON
/N378 M10 ;Beam ON
N379 G131 V.E.ACC[14]
N380 G133 V.E.JERK[14]
#CONTOUR MODE [AUTO_DEV, PATH_DEV=0.1]
N381 G261
;(FastCut)
N382 T15 G42 ;(IGNORE_SIMULATION)
N383 M49 G01X379.6690Y330.5327 FV.E.FEEDRATE[14]   ;@@[ENTRY]
N384 G131 V.E.ACC[15]
N385 G133 V.E.JERK[15]
N386 G01X335.6602Y330.5327 FV.E.FEEDRATE[15]
N387 G01X335.6602Y198.5852
N388 G01X379.6690Y198.5852
N389 G01X379.6690Y330.5327
N390 G260
N391 M96
N392 M11 ;Beam OFF
N393 M53 ;ping pong from travel
 
;PART: 15
;CONTOUR: 1
[SP15SC1]
V.E.START_PART="SP15SC1"
V.E.ALL_CONTOURS="0"
;@@[DetailName(blacha4_004)]
V.E.ALL_CONTOURS="1"
N394 M115
N395 G138 G40 G00X373.6151Y378.8504 M57
N396 G90
N397 M50 ;Sensor ON
/N398 M10 ;Beam ON
N399 G131 V.E.ACC[14]
N400 G133 V.E.JERK[14]
#CONTOUR MODE [AUTO_DEV, PATH_DEV=0.1]
N401 G261
;(FastCut)
N402 T15 G41 ;(IGNORE_SIMULATION)
N403 M49 G01X373.6151Y374.8504 FV.E.FEEDRATE[14]   ;@@[ENTRY]
N404 G131 V.E.ACC[15]
N405 G133 V.E.JERK[15]
N406 G01X432.5018Y374.8504 FV.E.FEEDRATE[15]
N407 G01X432.5018Y336.5327
N408 G01X314.7284Y336.5327
N409 G01X314.7284Y374.8504
N410 G01X373.6151Y374.8504
N411 G260
N412 M96
N413 M11 ;Beam OFF
N414 M53 ;ping pong from travel
 
;PART: 16
;CONTOUR: 1
[SP16SC1]
V.E.START_PART="SP16SC1"
V.E.ALL_CONTOURS="0"
;@@[DetailName(blacha4_011)]
V.E.ALL_CONTOURS="1"
N415 M115
N416 G138 G40 G00X368.9302Y430.4138 M57
N417 G90
N418 M50 ;Sensor ON
/N419 M10 ;Beam ON
N420 G131 V.E.ACC[14]
N421 G133 V.E.JERK[14]
#CONTOUR MODE [AUTO_DEV, PATH_DEV=0.1]
N422 G261
;(FastCut)
N423 T15 G42 ;(IGNORE_SIMULATION)
N424 M49 G01X364.9302Y430.4138 FV.E.FEEDRATE[14]   ;@@[ENTRY]
N425 G131 V.E.ACC[15]
N426 G133 V.E.JERK[15]
N427 G01X314.7284Y430.4138 FV.E.FEEDRATE[15]
N428 G01X314.7285Y380.8504
N429 G01X364.9302Y380.8504
N430 G01X364.9302Y430.4138
N431 G260
N432 M96
N433 M11 ;Beam OFF
N434 M53 ;ping pong from travel
 
;PART: 17
;CONTOUR: 1
[SP17SC1]
V.E.START_PART="SP17SC1"
V.E.ALL_CONTOURS="0"
;@@[DetailName(blacha4_005)]
V.E.ALL_CONTOURS="1"
N435 M115
N436 G138 G40 G00X370.5310Y438.5460 M57
N437 G90
N438 M50 ;Sensor ON
/N439 M10 ;Beam ON
N440 G131 V.E.ACC[14]
N441 G133 V.E.JERK[14]
#CONTOUR MODE [AUTO_DEV, PATH_DEV=0.1]
N442 G261
;(FastCut)
N443 T15 G41 ;(IGNORE_SIMULATION)
N444 M49 G01X374.5310Y438.5460 FV.E.FEEDRATE[14]   ;@@[ENTRY]
N445 G131 V.E.ACC[15]
N446 G133 V.E.JERK[15]
N447 G01X374.5310Y491.9511 FV.E.FEEDRATE[15]
N448 G01X467.7433Y491.9511
N449 G01X467.7433Y385.1410
N450 G01X374.5310Y385.1410
N451 G01X374.5310Y438.5460
N452 G260
N453 M96
N454 M11 ;Beam OFF
N455 M53 ;ping pong from travel
 
;PART: 18
;CONTOUR: 1
[SP18SC1]
V.E.START_PART="SP18SC1"
V.E.ALL_CONTOURS="0"
;@@[DetailName(blacha4_011)]
V.E.ALL_CONTOURS="1"
N456 M115
N457 G138 G40 G00X314.3292Y461.1956 M57
N458 G90
N459 M50 ;Sensor ON
/N460 M10 ;Beam ON
N461 G131 V.E.ACC[14]
N462 G133 V.E.JERK[14]
#CONTOUR MODE [AUTO_DEV, PATH_DEV=0.1]
N463 G261
;(FastCut)
N464 T15 G41 ;(IGNORE_SIMULATION)
N465 M49 G01X318.3292Y461.1956 FV.E.FEEDRATE[14]   ;@@[ENTRY]
N466 G131 V.E.ACC[15]
N467 G133 V.E.JERK[15]
N468 G01X318.3292Y485.9773 FV.E.FEEDRATE[15]
N469 G01X368.5309Y485.9773
N470 G01X368.5310Y436.4138
N471 G01X318.3292Y436.4138
N472 G01X318.3292Y461.1956
N473 G260
N474 M96
N475 M11 ;Beam OFF
N476 M53 ;ping pong from travel
 
;PART: 19
;CONTOUR: 1
[SP19SC1]
V.E.START_PART="SP19SC1"
V.E.ALL_CONTOURS="0"
;@@[DetailName(blacha4_010)]
V.E.ALL_CONTOURS="1"
N477 M115
N478 G138 G40 G00X222.0513Y456.3736 M57
N479 G90
N480 M50 ;Sensor ON
/N481 M10 ;Beam ON
N482 G131 V.E.ACC[14]
N483 G133 V.E.JERK[14]
#CONTOUR MODE [AUTO_DEV, PATH_DEV=0.1]
N484 G261
;(FastCut)
N485 T15 G41 ;(IGNORE_SIMULATION)
N486 M49 G01X222.0513Y460.3736 FV.E.FEEDRATE[14]   ;@@[ENTRY]
N487 G131 V.E.ACC[15]
N488 G133 V.E.JERK[15]
N489 G01X131.7734Y460.3736 FV.E.FEEDRATE[15]
N490 G01X131.7734Y490.7575
N491 G01X312.3292Y490.7575
N492 G01X312.3292Y460.3736
N493 G01X222.0513Y460.3736
N494 G260
N495 M96
N496 M11 ;Beam OFF
N497 M53 ;ping pong from travel
 
;PART: 20
;CONTOUR: 1
[SP20SC1]
V.E.START_PART="SP20SC1"
V.E.ALL_CONTOURS="0"
;@@[DetailName(blacha4_002)]
V.E.ALL_CONTOURS="1"
N498 M115
N499 G138 G40 G00X237.5914Y436.2014 M57
N500 G90
N501 M50 ;Sensor ON
/N502 M10 ;Beam ON
N503 G131 V.E.ACC[14]
N504 G133 V.E.JERK[14]
#CONTOUR MODE [AUTO_DEV, PATH_DEV=0.1]
N505 G261
;(FastCut)
N506 T15 G42 ;(IGNORE_SIMULATION)
N507 M49 G01X237.5914Y432.2014 FV.E.FEEDRATE[14]   ;@@[ENTRY]
N508 G131 V.E.ACC[15]
N509 G133 V.E.JERK[15]
N510 G01X237.5914Y333.6611 FV.E.FEEDRATE[15]
N511 G01X308.7284Y333.6611
N512 G01X308.7284Y432.2014
N513 G01X237.5914Y432.2014
N514 G260
N515 M96
N516 M11 ;Beam OFF
N517 M53 ;ping pong from travel
 
;PART: 21
;CONTOUR: 1
[SP21SC1]
V.E.START_PART="SP21SC1"
V.E.ALL_CONTOURS="0"
;@@[DetailName(blacha4_009)]
V.E.ALL_CONTOURS="1"
N518 M115
N519 G138 G40 G00X150.1366Y454.3736 M57
N520 G90
N521 M50 ;Sensor ON
/N522 M10 ;Beam ON
N523 G131 V.E.ACC[14]
N524 G133 V.E.JERK[14]
#CONTOUR MODE [AUTO_DEV, PATH_DEV=0.1]
N525 G261
;(FastCut)
N526 T15 G41 ;(IGNORE_SIMULATION)
N527 M49 G01X154.1366Y454.3736 FV.E.FEEDRATE[14]   ;@@[ENTRY]
N528 G131 V.E.ACC[15]
N529 G133 V.E.JERK[15]
N530 G01X231.5914Y454.3736 FV.E.FEEDRATE[15]
N531 G01X231.5914Y325.0255
N532 G01X154.1366Y325.0255
N533 G01X154.1366Y454.3736
N534 G260
N535 M96
N536 M11 ;Beam OFF
N537 M53 ;ping pong from travel
 
;PART: 22
;CONTOUR: 1
[SP22SC1]
V.E.START_PART="SP22SC1"
V.E.ALL_CONTOURS="0"
;@@[DetailName(blacha4_004)]
V.E.ALL_CONTOURS="1"
N538 M115
N539 G138 G40 G00X125.7734Y445.5164 M57
N540 G90
N541 M50 ;Sensor ON
/N542 M10 ;Beam ON
N543 G131 V.E.ACC[14]
N544 G133 V.E.JERK[14]
#CONTOUR MODE [AUTO_DEV, PATH_DEV=0.1]
N545 G261
;(FastCut)
N546 T15 G42 ;(IGNORE_SIMULATION)
N547 M49 G01X125.7734Y449.5164 FV.E.FEEDRATE[14]   ;@@[ENTRY]
N548 G131 V.E.ACC[15]
N549 G133 V.E.JERK[15]
N550 G01X125.7734Y487.8340 FV.E.FEEDRATE[15]
N551 G01X8.0000Y487.8340
N552 G01X8.0000Y449.5164
N553 G01X125.7734Y449.5164
N554 G260
N555 M96
N556 M11 ;Beam OFF
N557 M53 ;ping pong from travel
 
;PART: 23
;CONTOUR: 1
[SP23SC1]
V.E.START_PART="SP23SC1"
V.E.ALL_CONTOURS="0"
;@@[DetailName()]
V.E.ALL_CONTOURS="1"
N558 M101
N559 G138 G40 G00X488.8857Y15.0000 M57
N560 G90
N561 M50 ;Sensor ON
/N562 M9 
N563 M105
N564 M50 ;Sensor ON
/N565 M10 ;Beam ON
N566 G131 V.E.ACC[5]
N567 G133 V.E.JERK[5]
#CONTOUR MODE [AUTO_DEV, PATH_DEV=0.1]
N568 G261
N569 G01X488.8857Y10.0000 FV.E.FEEDRATE[5]   ;@@[ENTRY]
N570 G04 0.3
N571 M52 ;Sensor OFF
N572 G01X488.8857Y0.0000
N573 G01X488.8857Y-4.0000
N574 G260
N575 M11 ;Beam OFF
N576 M56 ;high
;CONTOUR: 2
[SP23SC2]
V.E.START_PART="SP23SC2"
V.E.ALL_CONTOURS="1"
N577 M105
N578 G00X488.8857Y15.0000 M57
N579 G90
N580 M50 ;Sensor ON
/N581 M10 ;Beam ON
N582 G131 V.E.ACC[5]
N583 G133 V.E.JERK[5]
#CONTOUR MODE [AUTO_DEV, PATH_DEV=0.1]
N584 G261
N585 G01X488.8857Y489.9500 FV.E.FEEDRATE[5] 
N586 G04 0.3
N587 M52 ;Sensor OFF
N588 G01X488.8857Y499.9500
N589 G01X488.8857Y511.9500
N590 G260
N591 M11 ;Beam OFF
N592 M56 ;high
M13 ;Gas OFF
;PROCESS_END
[END]
G04 0.1
M51
V.E.PROGRAM_STATE=3
G01 Z0 F100000
G04 0.1
$IF V.G.ACS_ACTIVE
#ACS OFF
$ENDIF
G131 100
$IF V.E.PS_AUTO_EXCHANGE
V.E.AUTO_EXCHANGE_PCH=TRUE
$ENDIF
V.E.PROGRAM_STATE=4
G04 0.1
M30
