;CK-AN Post V22.1 SP273  run on 2024.04.25
%_N_BLACHA_5001_MPF
;$PATH=/_N_WKS_DIR/_N_BLACHA_5001_WPD
; (MAIN PROGRAM)
;*MODEL EAG_INSPIRE_ERIS
;DATE APR 25 2024 
;*SHEET 780.0000 400.0000 2.0 0 1 0.0000 0.0000
;START= BOTTOM-LEFT
;MAT Steel 2.0 
;*T100  B 0.2000  
;(Laser End)
;PROCESS_END
;Start questions
;NumberOfSheets=1
;TRC Active
G90
V.E.SHEET_X=780.0000
V.E.SHEET_Y=400.0000
V.E.MATERIAL="ST000-02.00M-N2-F0"
V.E.ESTIMATION_TIME="00:09"
V.E.CONTOURS_QTY=5
LAT/MainParam
$IF V.E.START_PART!="SP0SC0"
$GOTO V.E.START_PART 
$ENDIF
 
;PART: 1
;CONTOUR: 1
[SP1SC1]
V.E.START_PART="SP1SC1"
V.E.ALL_CONTOURS="0"
;@@[DetailName(blacha5_001)]
V.E.ALL_CONTOURS="1"
N111 M115
N112 G00X244.1082Y111.3456 M57
N113 G90
N114 M50 ;Sensor ON
/N115 M10 ;Beam ON
N116 G131 V.E.ACC[14]
N117 G133 V.E.JERK[14]
#CONTOUR MODE [AUTO_DEV, PATH_DEV=0.1]
N118 G261
;(FastCut)
N119 T15 G41 ;(IGNORE_SIMULATION)
N120 M49 G01X244.1082Y107.3456 FV.E.FEEDRATE[14]   ;@@[ENTRY]
N121 G131 V.E.ACC[15]
N122 G133 V.E.JERK[15]
N123 G01X430.5437Y107.3456 FV.E.FEEDRATE[15]
N124 G02X430.5437Y8.0000I0.0000J-49.6728
N125 G01X57.6728Y8.0000
N126 G02X57.6728Y107.3456I0.0000J49.6728
N127 G01X244.1082Y107.3456
N128 G260
N129 M96
N130 M11 ;Beam OFF
N131 M53 ;ping pong from travel
 
;PART: 2
;CONTOUR: 1
[SP2SC1]
V.E.START_PART="SP2SC1"
V.E.ALL_CONTOURS="0"
;@@[DetailName(blacha5_005)]
V.E.ALL_CONTOURS="1"
N132 M115
N133 G138 G40 G00X155.0361Y243.8576 M57
N134 G90
N135 M50 ;Sensor ON
/N136 M10 ;Beam ON
N137 G131 V.E.ACC[14]
N138 G133 V.E.JERK[14]
#CONTOUR MODE [AUTO_DEV, PATH_DEV=0.1]
N139 G261
;(FastCut)
N140 T15 G41 ;(IGNORE_SIMULATION)
N141 M49 G01X151.0361Y243.8576 FV.E.FEEDRATE[14]   ;@@[ENTRY]
N142 G131 V.E.ACC[15]
N143 G133 V.E.JERK[15]
N144 G01X151.0361Y113.3456 FV.E.FEEDRATE[15]
N145 G01X8.0000Y113.3456
N146 G01X8.0000Y374.3697
N147 G01X151.0361Y374.3697
N148 G01X151.0361Y243.8576
N149 G260
N150 M96
N151 M11 ;Beam OFF
N152 M53 ;ping pong from travel
 
;PART: 3
;CONTOUR: 1
[SP3SC1]
V.E.START_PART="SP3SC1"
V.E.ALL_CONTOURS="0"
;@@[DetailName(blacha5_006)]
V.E.ALL_CONTOURS="1"
N153 M115
N154 G138 G40 G00X271.7587Y207.6983 M57
N155 G90
N156 M50 ;Sensor ON
/N157 M10 ;Beam ON
N158 G131 V.E.ACC[14]
N159 G133 V.E.JERK[14]
#CONTOUR MODE [AUTO_DEV, PATH_DEV=0.1]
N160 G261
;(FastCut)
N161 T15 G42 ;(IGNORE_SIMULATION)
N162 M49 G01X268.2946Y209.6983 FV.E.FEEDRATE[14]   ;@@[ENTRY]
N163 G131 V.E.ACC[15]
N164 G133 V.E.JERK[15]
N165 G01X212.6654Y241.8158 FV.E.FEEDRATE[15]
N166 G01X157.0361Y209.6983
N167 G01X157.0361Y145.4631
N168 G01X212.6654Y113.3456
N169 G01X268.2946Y145.4631
N170 G01X268.2946Y209.6983
N171 G260
N172 M96
N173 M11 ;Beam OFF
N174 M53 ;ping pong from travel
 
;PART: 4
;CONTOUR: 1
[SP4SC1]
V.E.START_PART="SP4SC1"
V.E.ALL_CONTOURS="0"
;@@[DetailName(blacha5_002)]
V.E.ALL_CONTOURS="1"
N175 M115
N176 G138 G40 G00X543.1386Y231.9012 M57
N177 G90
N178 M50 ;Sensor ON
/N179 M10 ;Beam ON
N180 G131 V.E.ACC[14]
N181 G133 V.E.JERK[14]
#CONTOUR MODE [AUTO_DEV, PATH_DEV=0.1]
N182 G261
;(FastCut)
N183 T15 G41 ;(IGNORE_SIMULATION)
N184 M49 G01X540.2205Y229.1654 FV.E.FEEDRATE[14]   ;@@[ENTRY]
N185 G131 V.E.ACC[15]
N186 G133 V.E.JERK[15]
N187 G02X429.8051Y125.6518I-55.2077J-51.7568 FV.E.FEEDRATE[15]
N188 G02X540.2205Y229.1654I55.2077J51.7568
N189 G260
N190 M96
N191 M11 ;Beam OFF
N192 M53 ;ping pong from travel
 
;PART: 5
;CONTOUR: 1
[SP5SC1]
V.E.START_PART="SP5SC1"
V.E.ALL_CONTOURS="0"
;@@[DetailName(blacha5_003)]
V.E.ALL_CONTOURS="1"
N193 M115
N194 G138 G40 G00X718.1793Y396.0005 M57
N195 G90
N196 M50 ;Sensor ON
/N197 M10 ;Beam ON
N198 G131 V.E.ACC[14]
N199 G133 V.E.JERK[14]
#CONTOUR MODE [AUTO_DEV, PATH_DEV=0.1]
N200 G261
;(FastCut)
N201 T15 G41 ;(IGNORE_SIMULATION)
N202 M49 G01X718.1793Y392.0005 FV.E.FEEDRATE[14]   ;@@[ENTRY]
N203 G131 V.E.ACC[15]
N204 G133 V.E.JERK[15]
N205 G01X718.1793Y43.2090 FV.E.FEEDRATE[15]
N206 G01X566.8300Y43.2090
N207 G01X566.8300Y259.2258
N208 G01X262.0674Y259.2258
N209 G01X262.0674Y392.0005
N210 G01X718.1793Y392.0005
N211 G260
N212 M96
N213 M11 ;Beam OFF
N214 M56 ;high
M13 ;Gas OFF
G40 G1X718.1793Y392.0005
;PROCESS_END
[END]
T0 ;(IGNORE_SIMULATION)
G04 0.1
M51
V.E.PROGRAM_STATE=3
G01 Z0 F100000
G04 0.1
$IF V.G.ACS_ACTIVE
#ACS OFF
$ENDIF
G131 100
$IF V.E.PS_AUTO_EXCHANGE
V.E.AUTO_EXCHANGE_PCH=TRUE
$ENDIF
V.E.PROGRAM_STATE=4
G04 0.1
M30
