;CK-AN Post V22.1 SP273  run on 2024.04.25
%_N_BLACHA_6001_MPF
;$PATH=/_N_WKS_DIR/_N_BLACHA_6001_WPD
; (MAIN PROGRAM)
;*MODEL EAG_INSPIRE_ERIS
;DATE APR 25 2024 
;*SHEET 400.0000 670.0000 2.0 0 1 0.0000 0.0000
;START= BOTTOM-LEFT
;MAT Steel 2.0 
;*T100  B 0.2000  
;(Laser End)
;PROCESS_END
;Start questions
;NumberOfSheets=1
;TRC Active
G90
V.E.SHEET_X=400.0000
V.E.SHEET_Y=670.0000
V.E.MATERIAL="ST000-02.00M-N2-F0"
V.E.ESTIMATION_TIME="00:08"
V.E.CONTOURS_QTY=4
LAT/MainParam
$IF V.E.START_PART!="SP0SC0"
$GOTO V.E.START_PART 
$ENDIF
 
;PART: 1
;CONTOUR: 1
[SP1SC1]
V.E.START_PART="SP1SC1"
V.E.ALL_CONTOURS="0"
;@@[DetailName(blacha6_001)]
V.E.ALL_CONTOURS="1"
N111 M115
N112 G00X80.2084Y268.2551 M57
N113 G90
N114 M50 ;Sensor ON
/N115 M10 ;Beam ON
N116 G131 V.E.ACC[14]
N117 G133 V.E.JERK[14]
#CONTOUR MODE [AUTO_DEV, PATH_DEV=0.1]
N118 G261
;(FastCut)
N119 T15 G41 ;(IGNORE_SIMULATION)
N120 M49 G01X76.6893Y266.3536 FV.E.FEEDRATE[14]   ;@@[ENTRY]
N121 G131 V.E.ACC[15]
N122 G133 V.E.JERK[15]
N123 G01X145.3785Y139.2273 FV.E.FEEDRATE[15]
N124 G01X344.2698Y8.0000
N125 G01X8.0000Y8.0000
N126 G01X8.0000Y393.4800
N127 G01X76.6893Y266.3536
N128 G260
N129 M96
N130 M11 ;Beam OFF
N131 M53 ;ping pong from travel
 
;PART: 2
;CONTOUR: 1
[SP2SC1]
V.E.START_PART="SP2SC1"
V.E.ALL_CONTOURS="0"
;@@[DetailName(blacha6_002)]
V.E.ALL_CONTOURS="1"
N132 M115
N133 G138 G40 G00X364.8091Y364.4199 M57
N134 G90
N135 M50 ;Sensor ON
/N136 M10 ;Beam ON
N137 G131 V.E.ACC[14]
N138 G133 V.E.JERK[14]
#CONTOUR MODE [AUTO_DEV, PATH_DEV=0.1]
N139 G261
;(FastCut)
N140 T15 G42 ;(IGNORE_SIMULATION)
N141 M49 G01X360.8243Y364.0713 FV.E.FEEDRATE[14]   ;@@[ENTRY]
N142 G131 V.E.ACC[15]
N143 G133 V.E.JERK[15]
N144 G01X53.3812Y337.1735 FV.E.FEEDRATE[15]
N145 G01X202.8536Y110.3433
N146 G01X391.9752Y8.0149
N147 G01X360.8243Y364.0713
N148 G260
N149 M96
N150 M11 ;Beam OFF
N151 M53 ;ping pong from travel
 
;PART: 3
;CONTOUR: 1
[SP3SC1]
V.E.START_PART="SP3SC1"
V.E.ALL_CONTOURS="0"
;@@[DetailName(blacha6_004)]
V.E.ALL_CONTOURS="1"
N152 M115
N153 G138 G40 G00X358.9446Y614.8561 M57
N154 G90
N155 M50 ;Sensor ON
/N156 M10 ;Beam ON
N157 G131 V.E.ACC[14]
N158 G133 V.E.JERK[14]
#CONTOUR MODE [AUTO_DEV, PATH_DEV=0.1]
N159 G261
;(FastCut)
N160 T15 G42 ;(IGNORE_SIMULATION)
N161 M49 G01X355.4720Y612.8709 FV.E.FEEDRATE[14]   ;@@[ENTRY]
N162 G131 V.E.ACC[15]
N163 G133 V.E.JERK[15]
N164 G01X191.1798Y518.9526 FV.E.FEEDRATE[15]
N165 G01X21.7136Y580.2026
N166 G01X42.5320Y342.2472
N167 G01X376.5915Y371.4737
N168 G01X355.4720Y612.8709
N169 G260
N170 M96
N171 M11 ;Beam OFF
N172 M53 ;ping pong from travel
 
;PART: 4
;CONTOUR: 1
[SP4SC1]
V.E.START_PART="SP4SC1"
V.E.ALL_CONTOURS="0"
;@@[DetailName(blacha6_003)]
V.E.ALL_CONTOURS="1"
N173 M115
N174 G138 G40 G00X347.1056Y647.8539 M57
N175 G90
N176 M50 ;Sensor ON
/N177 M10 ;Beam ON
N178 G131 V.E.ACC[14]
N179 G133 V.E.JERK[14]
#CONTOUR MODE [AUTO_DEV, PATH_DEV=0.1]
N180 G261
;(FastCut)
N181 T15 G41 ;(IGNORE_SIMULATION)
N182 M49 G01X343.9537Y645.3911 FV.E.FEEDRATE[14]   ;@@[ENTRY]
N183 G131 V.E.ACC[15]
N184 G133 V.E.JERK[15]
N185 G01X190.5812Y525.5501 FV.E.FEEDRATE[15]
N186 G01X13.1594Y590.2985
N187 G01X168.4365Y651.1389
N188 G01X343.9537Y645.3911
N189 G260
N190 M96
N191 M11 ;Beam OFF
N192 M56 ;high
M13 ;Gas OFF
G40 G1X343.9537Y645.3911
;PROCESS_END
[END]
T0 ;(IGNORE_SIMULATION)
G04 0.1
M51
V.E.PROGRAM_STATE=3
G01 Z0 F100000
G04 0.1
$IF V.G.ACS_ACTIVE
#ACS OFF
$ENDIF
G131 100
$IF V.E.PS_AUTO_EXCHANGE
V.E.AUTO_EXCHANGE_PCH=TRUE
$ENDIF
V.E.PROGRAM_STATE=4
G04 0.1
M30
