;CK-AN Post V22.1 SP273  run on 2024.04.25
%_N_BLACHA_7001_MPF
;$PATH=/_N_WKS_DIR/_N_BLACHA_7001_WPD
; (MAIN PROGRAM)
;*MODEL EAG_INSPIRE_ERIS
;DATE APR 25 2024 
;*SHEET 730.0000 560.0000 3.0 0 1 0.0000 0.0000
;START= BOTTOM-LEFT
;MAT Steel 3.0 
;*T100  B 0.2000  
;(Laser End)
;PROCESS_END
;Start questions
;NumberOfSheets=1
;TRC Active
G90
V.E.SHEET_X=730.0000
V.E.SHEET_Y=560.0000
V.E.MATERIAL="ST000-03.00M-N2-F0"
V.E.ESTIMATION_TIME="00:09"
V.E.CONTOURS_QTY=6
LAT/MainParam
$IF V.E.START_PART!="SP0SC0"
$GOTO V.E.START_PART 
$ENDIF
 
;PART: 1
;CONTOUR: 1
[SP1SC1]
V.E.START_PART="SP1SC1"
V.E.ALL_CONTOURS="0"
;@@[DetailName(blacha7_003)]
V.E.ALL_CONTOURS="1"
N111 M115
N112 G00X129.2588Y441.2462 M57
N113 G90
N114 M50 ;Sensor ON
/N115 M10 ;Beam ON
N116 G131 V.E.ACC[14]
N117 G133 V.E.JERK[14]
#CONTOUR MODE [AUTO_DEV, PATH_DEV=0.1]
N118 G261
;(FastCut)
N119 T15 G41 ;(IGNORE_SIMULATION)
N120 M49 G01X124.3058Y441.9297 FV.E.FEEDRATE[14]   ;@@[ENTRY]
N121 G131 V.E.ACC[15]
N122 G133 V.E.JERK[15]
N123 G02X8.7019Y457.8845I-57.8020J7.9774 FV.E.FEEDRATE[15]
N124 G02X124.3058Y441.9297I57.8019J-7.9774
N125 G260
N126 M96
N127 M11 ;Beam OFF
N128 M53 ;ping pong from travel
 
;PART: 2
;CONTOUR: 1
[SP2SC1]
V.E.START_PART="SP2SC1"
V.E.ALL_CONTOURS="0"
;@@[DetailName(blacha7_006)]
V.E.ALL_CONTOURS="1"
N129 M115
N130 G138 G40 G00X298.0406Y417.9968 M57
N131 G90
N132 M50 ;Sensor ON
/N133 M10 ;Beam ON
N134 G131 V.E.ACC[14]
N135 G133 V.E.JERK[14]
#CONTOUR MODE [AUTO_DEV, PATH_DEV=0.1]
N136 G261
;(FastCut)
N137 T15 G42 ;(IGNORE_SIMULATION)
N138 M49 G01X302.0856Y415.0579 FV.E.FEEDRATE[14]   ;@@[ENTRY]
N139 G131 V.E.ACC[15]
N140 G133 V.E.JERK[15]
N141 G01X418.5760Y330.4227 FV.E.FEEDRATE[15]
N142 G01X535.0664Y415.0579
N143 G01X490.5710Y552.0005
N144 G01X346.5810Y552.0005
N145 G01X302.0856Y415.0579
N146 G260
N147 M96
N148 M11 ;Beam OFF
N149 M53 ;ping pong from travel
 
;PART: 3
;CONTOUR: 1
[SP3SC1]
V.E.START_PART="SP3SC1"
V.E.ALL_CONTOURS="0"
;@@[DetailName(blacha7_005)]
V.E.ALL_CONTOURS="1"
N150 M115
N151 G138 G40 G00X241.3993Y457.0850 M57
N152 G90
N153 M50 ;Sensor ON
/N154 M10 ;Beam ON
N155 G131 V.E.ACC[14]
N156 G133 V.E.JERK[14]
#CONTOUR MODE [AUTO_DEV, PATH_DEV=0.1]
N157 G261
;(FastCut)
N158 T15 G42 ;(IGNORE_SIMULATION)
N159 M49 G01X236.8316Y455.0513 FV.E.FEEDRATE[14]   ;@@[ENTRY]
N160 G131 V.E.ACC[15]
N161 G133 V.E.JERK[15]
N162 G01X31.5177Y363.6397 FV.E.FEEDRATE[15]
N163 G01X8.0256Y140.1268
N164 G01X189.8473Y8.0256
N165 G01X395.1612Y99.4372
N166 G01X418.6533Y322.9501
N167 G01X236.8316Y455.0513
N168 G260
N169 M96
N170 M11 ;Beam OFF
N171 M53 ;ping pong from travel
 
;PART: 4
;CONTOUR: 1
[SP4SC1]
V.E.START_PART="SP4SC1"
V.E.ALL_CONTOURS="0"
;@@[DetailName(blacha7_004)]
V.E.ALL_CONTOURS="1"
N172 M115
N173 G138 G40 G00X225.7817Y462.1718 M57
N174 G90
N175 M50 ;Sensor ON
/N176 M10 ;Beam ON
N177 G131 V.E.ACC[14]
N178 G133 V.E.JERK[14]
#CONTOUR MODE [AUTO_DEV, PATH_DEV=0.1]
N179 G261
;(FastCut)
N180 T15 G41 ;(IGNORE_SIMULATION)
N181 M49 G01X221.5567Y464.8455 FV.E.FEEDRATE[14]   ;@@[ENTRY]
N182 G131 V.E.ACC[15]
N183 G133 V.E.JERK[15]
N184 G02X131.2575Y521.9897I-45.1496J28.5721 FV.E.FEEDRATE[15]
N185 G02X221.5567Y464.8455I45.1496J-28.5721
N186 G260
N187 M96
N188 M11 ;Beam OFF
N189 M53 ;ping pong from travel
 
;PART: 5
;CONTOUR: 1
[SP5SC1]
V.E.START_PART="SP5SC1"
V.E.ALL_CONTOURS="0"
;@@[DetailName(blacha7_002)]
V.E.ALL_CONTOURS="1"
N190 M115
N191 G138 G40 G00X616.8178Y214.7542 M57
N192 G90
N193 M50 ;Sensor ON
/N194 M10 ;Beam ON
N195 G131 V.E.ACC[14]
N196 G133 V.E.JERK[14]
#CONTOUR MODE [AUTO_DEV, PATH_DEV=0.1]
N197 G261
;(FastCut)
N198 T15 G41 ;(IGNORE_SIMULATION)
N199 M49 G01X615.7627Y219.6417 FV.E.FEEDRATE[14]   ;@@[ENTRY]
N200 G131 V.E.ACC[15]
N201 G133 V.E.JERK[15]
N202 G02X571.8327Y423.1469I-21.9650J101.7526 FV.E.FEEDRATE[15]
N203 G02X615.7627Y219.6417I21.9650J-101.7526
N204 G260
N205 M96
N206 M11 ;Beam OFF
N207 M53 ;ping pong from travel
 
;PART: 6
;CONTOUR: 1
[SP6SC1]
V.E.START_PART="SP6SC1"
V.E.ALL_CONTOURS="0"
;@@[DetailName(blacha7_001)]
V.E.ALL_CONTOURS="1"
N208 M115
N209 G138 G40 G00X661.4492Y8.0000 M57
N210 G90
N211 M50 ;Sensor ON
/N212 M10 ;Beam ON
N213 G131 V.E.ACC[14]
N214 G133 V.E.JERK[14]
#CONTOUR MODE [AUTO_DEV, PATH_DEV=0.1]
N215 G261
;(FastCut)
N216 T15 G41 ;(IGNORE_SIMULATION)
N217 M49 G01X657.4492Y8.0000 FV.E.FEEDRATE[14]   ;@@[ENTRY]
N218 G131 V.E.ACC[15]
N219 G133 V.E.JERK[15]
N220 G01X432.9616Y8.0000 FV.E.FEEDRATE[15]
N221 G02X412.9616Y28.0000I0.0000J20.0000
N222 G01X412.9616Y211.1513
N223 G01X637.4492Y211.1513
N224 G02X657.4492Y191.1513I0.0000J-20.0000
N225 G01X657.4492Y8.0000
N226 G260
N227 M96
N228 M11 ;Beam OFF
N229 M56 ;high
M13 ;Gas OFF
G40 G1X657.4492Y8.0000
;PROCESS_END
[END]
T0 ;(IGNORE_SIMULATION)
G04 0.1
M51
V.E.PROGRAM_STATE=3
G01 Z0 F100000
G04 0.1
$IF V.G.ACS_ACTIVE
#ACS OFF
$ENDIF
G131 100
$IF V.E.PS_AUTO_EXCHANGE
V.E.AUTO_EXCHANGE_PCH=TRUE
$ENDIF
V.E.PROGRAM_STATE=4
G04 0.1
M30
