;CK-AN Post V22.1 SP273  run on 2024.04.25
%_N_BLACHA_8001_MPF
;$PATH=/_N_WKS_DIR/_N_BLACHA_8001_WPD
; (MAIN PROGRAM)
;*MODEL EAG_INSPIRE_ERIS
;DATE APR 25 2024 
;*SHEET 970.0000 560.0000 3.0 0 1 0.0000 0.0000
;START= BOTTOM-LEFT
;MAT Steel 3.0 
;*T100  B 0.2000  
;(Laser End)
;PROCESS_END
;Start questions
;NumberOfSheets=1
;TRC Active
G90
V.E.SHEET_X=970.0000
V.E.SHEET_Y=560.0000
V.E.MATERIAL="ST000-03.00M-N2-F0"
V.E.ESTIMATION_TIME="00:11"
V.E.CONTOURS_QTY=8
LAT/MainParam
$IF V.E.START_PART!="SP0SC0"
$GOTO V.E.START_PART 
$ENDIF
 
;PART: 1
;CONTOUR: 1
[SP1SC1]
V.E.START_PART="SP1SC1"
V.E.ALL_CONTOURS="0"
;@@[DetailName(blacha8_001)]
V.E.ALL_CONTOURS="1"
N111 M115
N112 G00X106.3258Y94.6296 M57
N113 G90
N114 M50 ;Sensor ON
/N115 M10 ;Beam ON
N116 G131 V.E.ACC[14]
N117 G133 V.E.JERK[14]
#CONTOUR MODE [AUTO_DEV, PATH_DEV=0.1]
N118 G261
;(FastCut)
N119 T15 G41 ;(IGNORE_SIMULATION)
N120 M49 G01X102.3167Y91.6417 FV.E.FEEDRATE[14]   ;@@[ENTRY]
N121 G131 V.E.ACC[15]
N122 G133 V.E.JERK[15]
N123 G02X18.4974Y29.1724I-41.9096J-31.2346 FV.E.FEEDRATE[15]
N124 G02X102.3167Y91.6417I41.9097J31.2347
N125 G260
N126 M96
N127 M11 ;Beam OFF
N128 M53 ;ping pong from travel
 
;PART: 2
;CONTOUR: 1
[SP2SC1]
V.E.START_PART="SP2SC1"
V.E.ALL_CONTOURS="0"
;@@[DetailName(blacha8_001)]
V.E.ALL_CONTOURS="1"
N129 M115
N130 G138 G40 G00X140.9974Y120.4078 M57
N131 G90
N132 M50 ;Sensor ON
/N133 M10 ;Beam ON
N134 G131 V.E.ACC[14]
N135 G133 V.E.JERK[14]
#CONTOUR MODE [AUTO_DEV, PATH_DEV=0.1]
N136 G261
;(FastCut)
N137 T15 G41 ;(IGNORE_SIMULATION)
N138 M49 G01X143.5933Y116.1345 FV.E.FEEDRATE[14]   ;@@[ENTRY]
N139 G131 V.E.ACC[15]
N140 G133 V.E.JERK[15]
N141 G02X197.8663Y26.7895I27.1365J-44.6725 FV.E.FEEDRATE[15]
N142 G02X143.5933Y116.1345I-27.1365J44.6725
N143 G260
N144 M96
N145 M11 ;Beam OFF
N146 M53 ;ping pong from travel
 
;PART: 3
;CONTOUR: 1
[SP3SC1]
V.E.START_PART="SP3SC1"
V.E.ALL_CONTOURS="0"
;@@[DetailName(blacha8_003)]
V.E.ALL_CONTOURS="1"
N147 M115
N148 G138 G40 G00X107.6282Y175.4250 M57
N149 G90
N150 M50 ;Sensor ON
/N151 M10 ;Beam ON
N152 G131 V.E.ACC[14]
N153 G133 V.E.JERK[14]
#CONTOUR MODE [AUTO_DEV, PATH_DEV=0.1]
N154 G261
;(FastCut)
N155 T15 G42 ;(IGNORE_SIMULATION)
N156 M49 G01X111.9584Y172.9250 FV.E.FEEDRATE[14]   ;@@[ENTRY]
N157 G131 V.E.ACC[15]
N158 G133 V.E.JERK[15]
N159 G01X223.1369Y108.7361 FV.E.FEEDRATE[15]
N160 G01X223.1369Y237.1140
N161 G01X111.9584Y172.9250
N162 G260
N163 M96
N164 M11 ;Beam OFF
N165 M53 ;ping pong from travel
 
;PART: 4
;CONTOUR: 1
[SP4SC1]
V.E.START_PART="SP4SC1"
V.E.ALL_CONTOURS="0"
;@@[DetailName(blacha8_003)]
V.E.ALL_CONTOURS="1"
N166 M115
N167 G138 G40 G00X3.8549Y228.6074 M57
N168 G90
N169 M50 ;Sensor ON
/N170 M10 ;Beam ON
N171 G131 V.E.ACC[14]
N172 G133 V.E.JERK[14]
#CONTOUR MODE [AUTO_DEV, PATH_DEV=0.1]
N173 G261
;(FastCut)
N174 T15 G41 ;(IGNORE_SIMULATION)
N175 M49 G01X8.1815Y226.1013 FV.E.FEEDRATE[14]   ;@@[ENTRY]
N176 G131 V.E.ACC[15]
N177 G133 V.E.JERK[15]
N178 G01X119.2694Y161.7557 FV.E.FEEDRATE[15]
N179 G01X8.0006Y97.7235
N180 G01X8.1815Y226.1013
N181 G260
N182 M96
N183 M11 ;Beam OFF
N184 M53 ;ping pong from travel
 
;PART: 5
;CONTOUR: 1
[SP5SC1]
V.E.START_PART="SP5SC1"
V.E.ALL_CONTOURS="0"
;@@[DetailName(blacha8_002)]
V.E.ALL_CONTOURS="1"
N185 M115
N186 G138 G40 G00X109.0007Y400.8583 M57
N187 G90
N188 M50 ;Sensor ON
/N189 M10 ;Beam ON
N190 G131 V.E.ACC[14]
N191 G133 V.E.JERK[14]
#CONTOUR MODE [AUTO_DEV, PATH_DEV=0.1]
N192 G261
;(FastCut)
N193 T15 G41 ;(IGNORE_SIMULATION)
N194 M49 G01X109.0036Y395.8583 FV.E.FEEDRATE[14]   ;@@[ENTRY]
N195 G131 V.E.ACC[15]
N196 G133 V.E.JERK[15]
N197 G02X109.1242Y194.0148I0.0603J-100.9217 FV.E.FEEDRATE[15]
N198 G02X109.0036Y395.8583I-0.0603J100.9218
N199 G260
N200 M96
N201 M11 ;Beam OFF
N202 M53 ;ping pong from travel
 
;PART: 6
;CONTOUR: 1
[SP6SC1]
V.E.START_PART="SP6SC1"
V.E.ALL_CONTOURS="0"
;@@[DetailName(blacha8_004)]
V.E.ALL_CONTOURS="1"
N203 M115
N204 G138 G40 G00X109.0000Y402.0005 M57
N205 G90
N206 M50 ;Sensor ON
/N207 M10 ;Beam ON
N208 G131 V.E.ACC[14]
N209 G133 V.E.JERK[14]
#CONTOUR MODE [AUTO_DEV, PATH_DEV=0.1]
N210 G261
;(FastCut)
N211 T15 G42 ;(IGNORE_SIMULATION)
N212 M49 G01X114.0000Y402.0005 FV.E.FEEDRATE[14]   ;@@[ENTRY]
N213 G131 V.E.ACC[15]
N214 G133 V.E.JERK[15]
N215 G01X214.0000Y402.0005 FV.E.FEEDRATE[15]
N216 G01X214.0000Y552.0005
N217 G01X114.0000Y552.0005
N218 G01X114.0000Y402.0005
N219 G260
N220 M96
N221 M11 ;Beam OFF
N222 M53 ;ping pong from travel
 
;PART: 7
;CONTOUR: 1
[SP7SC1]
V.E.START_PART="SP7SC1"
V.E.ALL_CONTOURS="0"
;@@[DetailName(blacha8_004)]
V.E.ALL_CONTOURS="1"
N223 M115
N224 G138 G40 G00X108.0000Y397.0005 M57
N225 G90
N226 M50 ;Sensor ON
/N227 M10 ;Beam ON
N228 G131 V.E.ACC[14]
N229 G133 V.E.JERK[14]
#CONTOUR MODE [AUTO_DEV, PATH_DEV=0.1]
N230 G261
;(FastCut)
N231 T15 G42 ;(IGNORE_SIMULATION)
N232 M49 G01X108.0000Y402.0005 FV.E.FEEDRATE[14]   ;@@[ENTRY]
N233 G131 V.E.ACC[15]
N234 G133 V.E.JERK[15]
N235 G01X108.0000Y552.0005 FV.E.FEEDRATE[15]
N236 G01X8.0000Y552.0005
N237 G01X8.0000Y402.0005
N238 G01X108.0000Y402.0005
N239 G260
N240 M96
N241 M11 ;Beam OFF
N242 M53 ;ping pong from travel
 
;PART: 8
;CONTOUR: 1
[SP8SC1]
V.E.START_PART="SP8SC1"
V.E.ALL_CONTOURS="0"
;@@[DetailName()]
V.E.ALL_CONTOURS="1"
N243 M101
N244 G138 G40 G00X243.1369Y15.0000 M57
N245 G90
N246 M50 ;Sensor ON
/N247 M9 
N248 M105
N249 M50 ;Sensor ON
/N250 M10 ;Beam ON
N251 G131 V.E.ACC[5]
N252 G133 V.E.JERK[5]
#CONTOUR MODE [AUTO_DEV, PATH_DEV=0.1]
N253 G261
N254 G01X243.1369Y10.0000 FV.E.FEEDRATE[5]   ;@@[ENTRY]
N255 G04 0.3
N256 M52 ;Sensor OFF
N257 G01X243.1369Y0.0000
N258 G01X243.1369Y-4.0000
N259 G260
N260 M11 ;Beam OFF
N261 M56 ;high
;CONTOUR: 2
[SP8SC2]
V.E.START_PART="SP8SC2"
V.E.ALL_CONTOURS="1"
N262 M105
N263 G00X243.1369Y15.0000 M57
N264 G90
N265 M50 ;Sensor ON
/N266 M10 ;Beam ON
N267 G131 V.E.ACC[5]
N268 G133 V.E.JERK[5]
#CONTOUR MODE [AUTO_DEV, PATH_DEV=0.1]
N269 G261
N270 G01X243.1369Y550.0000 FV.E.FEEDRATE[5] 
N271 G04 0.3
N272 M52 ;Sensor OFF
N273 G01X243.1369Y560.0000
N274 G01X243.1369Y572.0000
N275 G260
N276 M11 ;Beam OFF
N277 M56 ;high
M13 ;Gas OFF
;PROCESS_END
[END]
G04 0.1
M51
V.E.PROGRAM_STATE=3
G01 Z0 F100000
G04 0.1
$IF V.G.ACS_ACTIVE
#ACS OFF
$ENDIF
G131 100
$IF V.E.PS_AUTO_EXCHANGE
V.E.AUTO_EXCHANGE_PCH=TRUE
$ENDIF
V.E.PROGRAM_STATE=4
G04 0.1
M30
