;CK-AN Post V22.1 SP190  run on 2024.02.28
%_N_ARKUSZ_1001_MPF
;$PATH=/_N_WKS_DIR/_N_ARKUSZ_1001_WPD
; (MAIN PROGRAM)
;*MODEL EAG_INSPIRE_ERIS
;DATE FEB 28 2024 
;*SHEET 2000.0000 1000.0000 1.5 0 1 0.0000 0.0000
;START= BOTTOM-LEFT
;MAT Steel 1.5 
;*T100  B 0.2000  
;(Laser End)
;PROCESS_END
;Start questions
;NumberOfSheets=1
;TRC Active
G90
V.E.SHEET_X=2000.0000
V.E.SHEET_Y=1000.0000
V.E.MATERIAL="ST000-01.50M-N2-F0"
V.E.ESTIMATION_TIME="00:30"
V.E.CONTOURS_QTY=24
LAT/MainParam
$IF V.E.START_PART!="SP0SC0"
$GOTO V.E.START_PART 
$ENDIF
 
;PART: 1
;CONTOUR: 1
[SP1SC1]
V.E.START_PART="SP1SC1"
V.E.ALL_CONTOURS="0"
;@@[DetailName(blacha1_017)]
V.E.ALL_CONTOURS="1"
N111 M115
N112 G00X175.9528Y82.4811 M57
N113 G90
N114 M50 ;Sensor ON
/N115 M10 ;Beam ON
N116 G131 V.E.ACC[14]
N117 G133 V.E.JERK[14]
#CONTOUR MODE [AUTO_DEV, PATH_DEV=0.1]
N118 G261
;(FastCut)
N119 T15 G42 ;(IGNORE_SIMULATION)
N120 M49 G01X174.7833Y86.3063 FV.E.FEEDRATE[14]   ;@@[ENTRY]
N121 G131 V.E.ACC[15]
N122 G133 V.E.JERK[15]
N123 G01X159.7128Y135.5996 FV.E.FEEDRATE[15]
N124 G01X118.5467Y166.6205
N125 G01X67.0090Y167.5201
N126 G01X24.7853Y137.9548
N127 G01X8.0037Y89.2175
N128 G01X23.0742Y39.9242
N129 G01X64.2403Y8.9033
N130 G01X115.7780Y8.0037
N131 G01X158.0017Y37.5690
N132 G01X174.7833Y86.3063
N133 G260
N134 M96
N135 M11 ;Beam OFF
N136 M53 ;ping pong from travel
 
;PART: 2
;CONTOUR: 1
[SP2SC1]
V.E.START_PART="SP2SC1"
V.E.ALL_CONTOURS="0"
;@@[DetailName(blacha1_009)]
V.E.ALL_CONTOURS="1"
N137 M115
N138 G138 G40 G00X225.8972Y103.2685 M57
N139 G90
N140 M50 ;Sensor ON
/N141 M10 ;Beam ON
N142 G131 V.E.ACC[14]
N143 G133 V.E.JERK[14]
#CONTOUR MODE [AUTO_DEV, PATH_DEV=0.1]
N144 G261
;(FastCut)
N145 T15 G41 ;(IGNORE_SIMULATION)
N146 M49 G01X229.3069Y101.1771 FV.E.FEEDRATE[14]   ;@@[ENTRY]
N147 G131 V.E.ACC[15]
N148 G133 V.E.JERK[15]
N149 G02X269.5671Y76.4822I20.1301J-12.3475 FV.E.FEEDRATE[15]
N150 G02X229.3069Y101.1771I-20.1301J12.3474
N151 G260
N152 M96
N153 M11 ;Beam OFF
N154 M53 ;ping pong from travel
 
;PART: 3
;CONTOUR: 1
[SP3SC1]
V.E.START_PART="SP3SC1"
V.E.ALL_CONTOURS="0"
;@@[DetailName(blacha1_002)]
V.E.ALL_CONTOURS="1"
N155 M115
N156 G138 G40 G00X174.2918Y134.9261 M57
N157 G90
N158 M50 ;Sensor ON
/N159 M10 ;Beam ON
N160 G131 V.E.ACC[14]
N161 G133 V.E.JERK[14]
#CONTOUR MODE [AUTO_DEV, PATH_DEV=0.1]
N162 G261
;(FastCut)
N163 T15 G41 ;(IGNORE_SIMULATION)
N164 M49 G01X177.8290Y133.0586 FV.E.FEEDRATE[14]   ;@@[ENTRY]
N165 G131 V.E.ACC[15]
N166 G133 V.E.JERK[15]
N167 G02X338.4368Y93.5264I75.3742J-39.7942 FV.E.FEEDRATE[15]
N168 G02X178.0751Y53.0077I-85.2336J-0.2620
N169 G02X221.6658Y76.3654I21.7953J11.6788
N170 G03X288.9827Y93.3744I31.5374J16.8990
N171 G03X221.5625Y109.9693I-35.7795J-0.1100
N172 G02X177.8290Y133.0586I-21.8667J11.5447
N173 G260
N174 M96
N175 M11 ;Beam OFF
N176 M53 ;ping pong from travel
 
;PART: 4
;CONTOUR: 1
[SP4SC1]
V.E.START_PART="SP4SC1"
V.E.ALL_CONTOURS="0"
;@@[DetailName(blacha1_018)]
V.E.ALL_CONTOURS="1"
N177 M115
N178 G138 G40 G00X203.1753Y266.7369 M57
N179 G90
N180 M50 ;Sensor ON
/N181 M10 ;Beam ON
N182 G131 V.E.ACC[14]
N183 G133 V.E.JERK[14]
#CONTOUR MODE [AUTO_DEV, PATH_DEV=0.1]
N184 G261
;(FastCut)
N185 T15 G41 ;(IGNORE_SIMULATION)
N186 M49 G01X204.3448Y262.9117 FV.E.FEEDRATE[14]   ;@@[ENTRY]
N187 G131 V.E.ACC[15]
N188 G133 V.E.JERK[15]
N189 G01X227.6260Y186.7623 FV.E.FEEDRATE[15]
N190 G01X162.3979Y141.0891
N191 G01X98.8035Y189.0109
N192 G01X124.7281Y264.3015
N193 G01X204.3448Y262.9117
N194 G260
N195 M96
N196 M11 ;Beam OFF
N197 M53 ;ping pong from travel
 
;PART: 5
;CONTOUR: 1
[SP5SC1]
V.E.START_PART="SP5SC1"
V.E.ALL_CONTOURS="0"
;@@[DetailName(blacha1_013)]
V.E.ALL_CONTOURS="1"
N198 M115
N199 G138 G40 G00X253.5787Y290.8550 M57
N200 G90
N201 M50 ;Sensor ON
/N202 M10 ;Beam ON
N203 G131 V.E.ACC[14]
N204 G133 V.E.JERK[14]
#CONTOUR MODE [AUTO_DEV, PATH_DEV=0.1]
N205 G261
;(FastCut)
N206 T15 G41 ;(IGNORE_SIMULATION)
N207 M49 G01X255.4843Y287.3381 FV.E.FEEDRATE[14]   ;@@[ENTRY]
N208 G131 V.E.ACC[15]
N209 G133 V.E.JERK[15]
N210 G02X308.9919Y188.5888I26.7538J-49.3746 FV.E.FEEDRATE[15]
N211 G02X255.4843Y287.3381I-26.7538J49.3747
N212 G260
N213 M96
N214 M11 ;Beam OFF
N215 M53 ;ping pong from travel
 
;PART: 6
;CONTOUR: 1
[SP6SC1]
V.E.START_PART="SP6SC1"
V.E.ALL_CONTOURS="0"
;@@[DetailName(blacha1_015)]
V.E.ALL_CONTOURS="1"
N216 M115
N217 G138 G40 G00X250.6952Y296.2688 M57
N218 G90
N219 M50 ;Sensor ON
/N220 M10 ;Beam ON
N221 G131 V.E.ACC[14]
N222 G133 V.E.JERK[14]
#CONTOUR MODE [AUTO_DEV, PATH_DEV=0.1]
N223 G261
;(FastCut)
N224 T15 G41 ;(IGNORE_SIMULATION)
N225 M49 G01X250.6952Y300.2688 FV.E.FEEDRATE[14]   ;@@[ENTRY]
N226 G131 V.E.ACC[15]
N227 G133 V.E.JERK[15]
N228 G01X250.6952Y348.4223 FV.E.FEEDRATE[15]
N229 G01X336.3941Y348.4223
N230 G01X336.3941Y300.2688
N231 G01X250.6952Y300.2688
N232 G260
N233 M96
N234 M11 ;Beam OFF
N235 M53 ;ping pong from travel
 
;PART: 7
;CONTOUR: 1
[SP7SC1]
V.E.START_PART="SP7SC1"
V.E.ALL_CONTOURS="0"
;@@[DetailName(blacha1_004)]
V.E.ALL_CONTOURS="1"
N236 M115
N237 G138 G40 G00X136.9731Y284.9255 M57
N238 G90
N239 M50 ;Sensor ON
/N240 M10 ;Beam ON
N241 G131 V.E.ACC[14]
N242 G133 V.E.JERK[14]
#CONTOUR MODE [AUTO_DEV, PATH_DEV=0.1]
N243 G261
;(FastCut)
N244 T15 G41 ;(IGNORE_SIMULATION)
N245 M49 G01X140.8053Y286.0717 FV.E.FEEDRATE[14]   ;@@[ENTRY]
N246 G131 V.E.ACC[15]
N247 G133 V.E.JERK[15]
N248 G02X244.2708Y294.7396I50.8223J15.2013 FV.E.FEEDRATE[15]
N249 G02X200.9420Y300.1170I-21.6644J2.6887
N250 G03X182.6354Y298.5833I-9.3144J1.1560
N251 G02X140.8053Y286.0717I-20.9151J-6.2558
N252 G260
N253 M96
N254 M11 ;Beam OFF
N255 M53 ;ping pong from travel
 
;PART: 8
;CONTOUR: 1
[SP8SC1]
V.E.START_PART="SP8SC1"
V.E.ALL_CONTOURS="0"
;@@[DetailName(blacha1_020)]
V.E.ALL_CONTOURS="1"
N256 M115
N257 G138 G40 G00X74.3705Y355.1720 M57
N258 G90
N259 M50 ;Sensor ON
/N260 M10 ;Beam ON
N261 G131 V.E.ACC[14]
N262 G133 V.E.JERK[14]
#CONTOUR MODE [AUTO_DEV, PATH_DEV=0.1]
N263 G261
;(FastCut)
N264 T15 G42 ;(IGNORE_SIMULATION)
N265 M49 G01X74.3006Y351.1726 FV.E.FEEDRATE[14]   ;@@[ENTRY]
N266 G131 V.E.ACC[15]
N267 G133 V.E.JERK[15]
N268 G01X72.9048Y271.2070 FV.E.FEEDRATE[15]
N269 G01X131.9959Y270.1755
N270 G01X133.3918Y350.1411
N271 G01X74.3006Y351.1726
N272 G260
N273 M96
N274 M11 ;Beam OFF
N275 M53 ;ping pong from travel
 
;PART: 9
;CONTOUR: 1
[SP9SC1]
V.E.START_PART="SP9SC1"
V.E.ALL_CONTOURS="0"
;@@[DetailName(blacha1_005)]
V.E.ALL_CONTOURS="1"
N276 M115
N277 G138 G40 G00X37.4491Y363.0475 M57
N278 G90
N279 M50 ;Sensor ON
/N280 M10 ;Beam ON
N281 G131 V.E.ACC[14]
N282 G133 V.E.JERK[14]
#CONTOUR MODE [AUTO_DEV, PATH_DEV=0.1]
N283 G261
;(FastCut)
N284 T15 G41 ;(IGNORE_SIMULATION)
N285 M49 G01X37.4491Y359.0475 FV.E.FEEDRATE[14]   ;@@[ENTRY]
N286 G131 V.E.ACC[15]
N287 G133 V.E.JERK[15]
N288 G02X66.8983Y329.5984I0.0000J-29.4491 FV.E.FEEDRATE[15]
N289 G01X66.8983Y190.0978
N290 G02X8.0000Y190.0978I-29.4492J0.0000
N291 G01X8.0000Y329.5984
N292 G02X37.4491Y359.0475I29.4491J0.0000
N293 G260
N294 M96
N295 M11 ;Beam OFF
N296 M53 ;ping pong from travel
 
;PART: 10
;CONTOUR: 1
[SP10SC1]
V.E.START_PART="SP10SC1"
V.E.ALL_CONTOURS="0"
;@@[DetailName(blacha1_022)]
V.E.ALL_CONTOURS="1"
N297 M115
N298 G138 G40 G00X86.2555Y420.5658 M57
N299 G90
N300 M50 ;Sensor ON
/N301 M10 ;Beam ON
N302 G131 V.E.ACC[14]
N303 G133 V.E.JERK[14]
#CONTOUR MODE [AUTO_DEV, PATH_DEV=0.1]
N304 G261
;(FastCut)
N305 T15 G42 ;(IGNORE_SIMULATION)
N306 M49 G01X82.2555Y420.5658 FV.E.FEEDRATE[14]   ;@@[ENTRY]
N307 G131 V.E.ACC[15]
N308 G133 V.E.JERK[15]
N309 G01X8.0000Y420.5658 FV.E.FEEDRATE[15]
N310 G01X8.0000Y365.0475
N311 G01X82.2555Y365.0475
N312 G01X82.2555Y420.5658
N313 G260
N314 M96
N315 M11 ;Beam OFF
N316 M53 ;ping pong from travel
 
;PART: 11
;CONTOUR: 1
[SP11SC1]
V.E.START_PART="SP11SC1"
V.E.ALL_CONTOURS="0"
;@@[DetailName(blacha1_008)]
V.E.ALL_CONTOURS="1"
N317 M115
N318 G138 G40 G00X184.2793Y417.5444 M57
N319 G90
N320 M50 ;Sensor ON
/N321 M10 ;Beam ON
N322 G131 V.E.ACC[14]
N323 G133 V.E.JERK[14]
#CONTOUR MODE [AUTO_DEV, PATH_DEV=0.1]
N324 G261
;(FastCut)
N325 T15 G41 ;(IGNORE_SIMULATION)
N326 M49 G01X180.4400Y416.4223 FV.E.FEEDRATE[14]   ;@@[ENTRY]
N327 G131 V.E.ACC[15]
N328 G133 V.E.JERK[15]
N329 G02X90.2916Y390.0751I-45.0742J-13.1736 FV.E.FEEDRATE[15]
N330 G02X180.4400Y416.4223I45.0742J13.1736
N331 G260
N332 M96
N333 M11 ;Beam OFF
N334 M53 ;ping pong from travel
 
;PART: 12
;CONTOUR: 1
[SP12SC1]
V.E.START_PART="SP12SC1"
V.E.ALL_CONTOURS="0"
;@@[DetailName(blacha1_024)]
V.E.ALL_CONTOURS="1"
N335 M115
N336 G138 G40 G00X259.1651Y439.4557 M57
N337 G90
N338 M50 ;Sensor ON
/N339 M10 ;Beam ON
N340 G131 V.E.ACC[14]
N341 G133 V.E.JERK[14]
#CONTOUR MODE [AUTO_DEV, PATH_DEV=0.1]
N342 G261
;(FastCut)
N343 T15 G41 ;(IGNORE_SIMULATION)
N344 M49 G01X258.3335Y435.5431 FV.E.FEEDRATE[14]   ;@@[ENTRY]
N345 G131 V.E.ACC[15]
N346 G133 V.E.JERK[15]
N347 G01X240.4258Y351.2941 FV.E.FEEDRATE[15]
N348 G01X180.7218Y363.9846
N349 G01X185.0257Y384.2324
N350 G01X226.5994Y375.3957
N351 G01X229.7644Y390.2860
N352 G01X208.9775Y394.7044
N353 G01X212.2247Y409.9812
N354 G01X233.0116Y405.5628
N355 G01X236.8954Y423.8345
N356 G01X195.3216Y432.6713
N357 G01X198.6295Y448.2335
N358 G01X258.3335Y435.5431
N359 G260
N360 M96
N361 M11 ;Beam OFF
N362 M53 ;ping pong from travel
 
;PART: 13
;CONTOUR: 1
[SP13SC1]
V.E.START_PART="SP13SC1"
V.E.ALL_CONTOURS="0"
;@@[DetailName(blacha1_010)]
V.E.ALL_CONTOURS="1"
N363 M115
N364 G138 G40 G00X299.0563Y438.6649 M57
N365 G90
N366 M50 ;Sensor ON
/N367 M10 ;Beam ON
N368 G131 V.E.ACC[14]
N369 G133 V.E.JERK[14]
#CONTOUR MODE [AUTO_DEV, PATH_DEV=0.1]
N370 G261
;(FastCut)
N371 T15 G41 ;(IGNORE_SIMULATION)
N372 M49 G01X298.8633Y434.6695 FV.E.FEEDRATE[14]   ;@@[ENTRY]
N373 G131 V.E.ACC[15]
N374 G133 V.E.JERK[15]
N375 G02X294.9961Y354.5978I-1.9336J-40.0358 FV.E.FEEDRATE[15]
N376 G02X298.8633Y434.6695I1.9336J40.0359
N377 G260
N378 M96
N379 M11 ;Beam OFF
N380 M53 ;ping pong from travel
 
;PART: 14
;CONTOUR: 1
[SP14SC1]
V.E.START_PART="SP14SC1"
V.E.ALL_CONTOURS="0"
;@@[DetailName(blacha1_019)]
V.E.ALL_CONTOURS="1"
N381 M115
N382 G138 G40 G00X304.9779Y560.2394 M57
N383 G90
N384 M50 ;Sensor ON
/N385 M10 ;Beam ON
N386 G131 V.E.ACC[14]
N387 G133 V.E.JERK[14]
#CONTOUR MODE [AUTO_DEV, PATH_DEV=0.1]
N388 G261
;(FastCut)
N389 T15 G42 ;(IGNORE_SIMULATION)
N390 M49 G01X304.9779Y556.2394 FV.E.FEEDRATE[14]   ;@@[ENTRY]
N391 G131 V.E.ACC[15]
N392 G133 V.E.JERK[15]
N393 G01X304.9779Y440.1879 FV.E.FEEDRATE[15]
N394 G01X338.5434Y440.1879
N395 G01X338.5434Y556.2394
N396 G01X304.9779Y556.2394
N397 G260
N398 M96
N399 M11 ;Beam OFF
N400 M53 ;ping pong from travel
 
;PART: 15
;CONTOUR: 1
[SP15SC1]
V.E.START_PART="SP15SC1"
V.E.ALL_CONTOURS="0"
;@@[DetailName(blacha1_012)]
V.E.ALL_CONTOURS="1"
N401 M115
N402 G138 G40 G00X218.5289Y566.7267 M57
N403 G90
N404 M50 ;Sensor ON
/N405 M10 ;Beam ON
N406 G131 V.E.ACC[14]
N407 G133 V.E.JERK[14]
#CONTOUR MODE [AUTO_DEV, PATH_DEV=0.1]
N408 G261
;(FastCut)
N409 T15 G41 ;(IGNORE_SIMULATION)
N410 M49 G01X219.8397Y562.9476 FV.E.FEEDRATE[14]   ;@@[ENTRY]
N411 G131 V.E.ACC[15]
N412 G133 V.E.JERK[15]
N413 G02X258.8412Y450.5086I19.5008J-56.2195 FV.E.FEEDRATE[15]
N414 G02X219.8397Y562.9476I-19.5007J56.2195
N415 G260
N416 M96
N417 M11 ;Beam OFF
N418 M53 ;ping pong from travel
 
;PART: 16
;CONTOUR: 1
[SP16SC1]
V.E.START_PART="SP16SC1"
V.E.ALL_CONTOURS="0"
;@@[DetailName(blacha1_003)]
V.E.ALL_CONTOURS="1"
N419 M115
N420 G138 G40 G00X183.6570Y667.1228 M57
N421 G90
N422 M50 ;Sensor ON
/N423 M10 ;Beam ON
N424 G131 V.E.ACC[14]
N425 G133 V.E.JERK[14]
#CONTOUR MODE [AUTO_DEV, PATH_DEV=0.1]
N426 G261
;(FastCut)
N427 T15 G42 ;(IGNORE_SIMULATION)
N428 M49 G01X180.8165Y664.3064 FV.E.FEEDRATE[14]   ;@@[ENTRY]
N429 G131 V.E.ACC[15]
N430 G133 V.E.JERK[15]
N431 G03X156.0483Y639.7485I-12.3841J-12.2790 FV.E.FEEDRATE[15]
N432 G03X316.5867Y568.8964I170.5247J169.0773
N433 G03X318.0372Y603.7454I0.7252J17.4245
N434 G02X180.8165Y664.3064I8.5358J205.0804
N435 G260
N436 M96
N437 M11 ;Beam OFF
N438 M53 ;ping pong from travel
 
;PART: 17
;CONTOUR: 1
[SP17SC1]
V.E.START_PART="SP17SC1"
V.E.ALL_CONTOURS="0"
;@@[DetailName(blacha1_011)]
V.E.ALL_CONTOURS="1"
N439 M115
N440 G138 G40 G00X262.3003Y789.1508 M57
N441 G90
N442 M50 ;Sensor ON
/N443 M10 ;Beam ON
N444 G131 V.E.ACC[14]
N445 G133 V.E.JERK[14]
#CONTOUR MODE [AUTO_DEV, PATH_DEV=0.1]
N446 G261
;(FastCut)
N447 T15 G41 ;(IGNORE_SIMULATION)
N448 M49 G01X263.2815Y785.2730 FV.E.FEEDRATE[14]   ;@@[ENTRY]
N449 G131 V.E.ACC[15]
N450 G133 V.E.JERK[15]
N451 G02X287.1489Y690.9481I11.9337J-47.1625 FV.E.FEEDRATE[15]
N452 G02X263.2815Y785.2730I-11.9337J47.1624
N453 G260
N454 M96
N455 M11 ;Beam OFF
N456 M53 ;ping pong from travel
 
;PART: 18
;CONTOUR: 1
[SP18SC1]
V.E.START_PART="SP18SC1"
V.E.ALL_CONTOURS="0"
;@@[DetailName(blacha1_001)]
V.E.ALL_CONTOURS="1"
N457 M115
N458 G138 G40 G00X241.1201Y872.8713 M57
N459 G90
N460 M50 ;Sensor ON
/N461 M10 ;Beam ON
N462 G131 V.E.ACC[14]
N463 G133 V.E.JERK[14]
#CONTOUR MODE [AUTO_DEV, PATH_DEV=0.1]
N464 G261
;(FastCut)
N465 T15 G41 ;(IGNORE_SIMULATION)
N466 M49 G01X242.3895Y869.0780 FV.E.FEEDRATE[14]   ;@@[ENTRY]
N467 G131 V.E.ACC[15]
N468 G133 V.E.JERK[15]
N469 G02X260.3795Y815.3228I8.9950J-26.8776 FV.E.FEEDRATE[15]
N470 G03X297.6700Y682.9690I21.8452J-65.2753
N471 G02X310.3895Y627.7288I6.3598J-27.6201
N472 G02X242.3895Y869.0780I-28.1648J122.3187
N473 G260
N474 M96
N475 M11 ;Beam OFF
N476 M53 ;ping pong from travel
 
;PART: 19
;CONTOUR: 1
[SP19SC1]
V.E.START_PART="SP19SC1"
V.E.ALL_CONTOURS="0"
;@@[DetailName(blacha1_023)]
V.E.ALL_CONTOURS="1"
N477 M115
N478 G138 G40 G00X183.8923Y922.5448 M57
N479 G90
N480 M50 ;Sensor ON
/N481 M10 ;Beam ON
N482 G131 V.E.ACC[14]
N483 G133 V.E.JERK[14]
#CONTOUR MODE [AUTO_DEV, PATH_DEV=0.1]
N484 G261
;(FastCut)
N485 T15 G41 ;(IGNORE_SIMULATION)
N486 M49 G01X187.8923Y922.5448 FV.E.FEEDRATE[14]   ;@@[ENTRY]
N487 G131 V.E.ACC[15]
N488 G133 V.E.JERK[15]
N489 G01X338.3662Y922.5448 FV.E.FEEDRATE[15]
N490 G01X338.3662Y791.9440
N491 G01X285.7525Y791.9440
N492 G01X285.7525Y879.2446
N493 G01X187.8923Y879.2446
N494 G01X187.8923Y922.5448
N495 G260
N496 M96
N497 M11 ;Beam OFF
N498 M53 ;ping pong from travel
 
;PART: 20
;CONTOUR: 1
[SP20SC1]
V.E.START_PART="SP20SC1"
V.E.ALL_CONTOURS="0"
;@@[DetailName(blacha1_014)]
V.E.ALL_CONTOURS="1"
N499 M115
N500 G138 G40 G00X151.2049Y934.8706 M57
N501 G90
N502 M50 ;Sensor ON
/N503 M10 ;Beam ON
N504 G131 V.E.ACC[14]
N505 G133 V.E.JERK[14]
#CONTOUR MODE [AUTO_DEV, PATH_DEV=0.1]
N506 G261
;(FastCut)
N507 T15 G41 ;(IGNORE_SIMULATION)
N508 M49 G01X151.2049Y938.8706 FV.E.FEEDRATE[14]   ;@@[ENTRY]
N509 G131 V.E.ACC[15]
N510 G133 V.E.JERK[15]
N511 G01X8.0000Y938.8706 FV.E.FEEDRATE[15]
N512 G01X8.0000Y989.8429
N513 G01X294.4098Y989.8429
N514 G01X294.4098Y938.8706
N515 G01X151.2049Y938.8706
N516 G260
N517 M96
N518 M11 ;Beam OFF
N519 M53 ;ping pong from travel
 
;PART: 21
;CONTOUR: 1
[SP21SC1]
V.E.START_PART="SP21SC1"
V.E.ALL_CONTOURS="0"
;@@[DetailName(blacha1_007)]
V.E.ALL_CONTOURS="1"
N520 M115
N521 G138 G40 G00X101.0580Y762.5830 M57
N522 G90
N523 M50 ;Sensor ON
/N524 M10 ;Beam ON
N525 G131 V.E.ACC[14]
N526 G133 V.E.JERK[14]
#CONTOUR MODE [AUTO_DEV, PATH_DEV=0.1]
N527 G261
;(FastCut)
N528 T15 G41 ;(IGNORE_SIMULATION)
N529 M49 G01X100.6191Y766.5588 FV.E.FEEDRATE[14]   ;@@[ENTRY]
N530 G131 V.E.ACC[15]
N531 G133 V.E.JERK[15]
N532 G02X82.3309Y932.2324I-9.1441J82.8368 FV.E.FEEDRATE[15]
N533 G02X100.6191Y766.5588I9.1441J-82.8368
N534 G260
N535 M96
N536 M11 ;Beam OFF
N537 M53 ;ping pong from travel
 
;PART: 22
;CONTOUR: 1
[SP22SC1]
V.E.START_PART="SP22SC1"
V.E.ALL_CONTOURS="0"
;@@[DetailName(blacha1_016)]
V.E.ALL_CONTOURS="1"
N538 M115
N539 G138 G40 G00X116.6651Y621.3102 M57
N540 G90
N541 M50 ;Sensor ON
/N542 M10 ;Beam ON
N543 G131 V.E.ACC[14]
N544 G133 V.E.JERK[14]
#CONTOUR MODE [AUTO_DEV, PATH_DEV=0.1]
N545 G261
;(FastCut)
N546 T15 G41 ;(IGNORE_SIMULATION)
N547 M49 G01X112.7040Y621.8669 FV.E.FEEDRATE[14]   ;@@[ENTRY]
N548 G131 V.E.ACC[15]
N549 G133 V.E.JERK[15]
N550 G01X36.7567Y632.5406 FV.E.FEEDRATE[15]
N551 G01X8.0267Y703.6498
N552 G01X55.2441Y764.0852
N553 G01X131.1914Y753.4115
N554 G01X159.9214Y682.3024
N555 G01X112.7040Y621.8669
N556 G260
N557 M96
N558 M11 ;Beam OFF
N559 M53 ;ping pong from travel
 
;PART: 23
;CONTOUR: 1
[SP23SC1]
V.E.START_PART="SP23SC1"
V.E.ALL_CONTOURS="0"
;@@[DetailName(blacha1_021)]
V.E.ALL_CONTOURS="1"
N560 M115
N561 G138 G40 G00X106.9967Y456.3590 M57
N562 G90
N563 M50 ;Sensor ON
/N564 M10 ;Beam ON
N565 G131 V.E.ACC[14]
N566 G133 V.E.JERK[14]
#CONTOUR MODE [AUTO_DEV, PATH_DEV=0.1]
N567 G261
;(FastCut)
N568 T15 G42 ;(IGNORE_SIMULATION)
N569 M49 G01X110.9967Y456.3590 FV.E.FEEDRATE[14]   ;@@[ENTRY]
N570 G131 V.E.ACC[15]
N571 G133 V.E.JERK[15]
N572 G01X173.7030Y456.3590 FV.E.FEEDRATE[15]
N573 G01X173.7030Y615.8402
N574 G01X110.9967Y615.8402
N575 G01X110.9967Y456.3590
N576 G260
N577 M96
N578 M11 ;Beam OFF
N579 M53 ;ping pong from travel
 
;PART: 24
;CONTOUR: 1
[SP24SC1]
V.E.START_PART="SP24SC1"
V.E.ALL_CONTOURS="0"
;@@[DetailName(blacha1_006)]
V.E.ALL_CONTOURS="1"
N580 M115
N581 G138 G40 G00X108.9967Y475.0642 M57
N582 G90
N583 M50 ;Sensor ON
/N584 M10 ;Beam ON
N585 G131 V.E.ACC[14]
N586 G133 V.E.JERK[14]
#CONTOUR MODE [AUTO_DEV, PATH_DEV=0.1]
N587 G261
;(FastCut)
N588 T15 G41 ;(IGNORE_SIMULATION)
N589 M49 G01X104.9967Y475.0642 FV.E.FEEDRATE[14]   ;@@[ENTRY]
N590 G131 V.E.ACC[15]
N591 G133 V.E.JERK[15]
N592 G02X8.0000Y475.0642I-48.4983J0.0000 FV.E.FEEDRATE[15]
N593 G01X8.0000Y573.2431
N594 G02X104.9967Y573.2431I48.4984J0.0000
N595 G01X104.9967Y475.0642
N596 G260
N597 M96
N598 M11 ;Beam OFF
N599 M56 ;high
M13 ;Gas OFF
G40 G1X104.9967Y475.0642
;PROCESS_END
[END]
T0 ;(IGNORE_SIMULATION)
G04 0.1
M51
V.E.PROGRAM_STATE=3
G01 Z0 F100000
G04 0.1
$IF V.G.ACS_ACTIVE
#ACS OFF
$ENDIF
G131 100
$IF V.E.PS_AUTO_EXCHANGE
V.E.AUTO_EXCHANGE_PCH=TRUE
$ENDIF
V.E.PROGRAM_STATE=4
G04 0.1
M30
