;CK-AN Post V22.1 SP190  run on 2024.02.28
%_N_ARKUSZ_5001_MPF
;$PATH=/_N_WKS_DIR/_N_ARKUSZ_5001_WPD
; (MAIN PROGRAM)
;*MODEL EAG_INSPIRE_ERIS
;DATE FEB 28 2024 
;*SHEET 1000.0000 1000.0000 1.5 0 1 0.0000 0.0000
;START= BOTTOM-LEFT
;MAT Steel 1.5 
;*T100  B 0.2000  
;(Laser End)
;PROCESS_END
;Start questions
;NumberOfSheets=1
;TRC Active
G90
V.E.SHEET_X=1000.0000
V.E.SHEET_Y=1000.0000
V.E.MATERIAL="ST000-01.50M-N2-F0"
V.E.ESTIMATION_TIME="00:12"
V.E.CONTOURS_QTY=6
LAT/MainParam
$IF V.E.START_PART!="SP0SC0"
$GOTO V.E.START_PART 
$ENDIF
 
;PART: 1
;CONTOUR: 1
[SP1SC1]
V.E.START_PART="SP1SC1"
V.E.ALL_CONTOURS="0"
;@@[DetailName(blacha5_002)]
V.E.ALL_CONTOURS="1"
N111 M115
N112 G00X94.0372Y162.8337 M57
N113 G90
N114 M50 ;Sensor ON
/N115 M10 ;Beam ON
N116 G131 V.E.ACC[14]
N117 G133 V.E.JERK[14]
#CONTOUR MODE [AUTO_DEV, PATH_DEV=0.1]
N118 G261
;(FastCut)
N119 T15 G41 ;(IGNORE_SIMULATION)
N120 M49 G01X93.5241Y158.8667 FV.E.FEEDRATE[14]   ;@@[ENTRY]
N121 G131 V.E.ACC[15]
N122 G133 V.E.JERK[15]
N123 G02X74.1103Y8.7677I-9.7069J-75.0495 FV.E.FEEDRATE[15]
N124 G02X93.5241Y158.8667I9.7069J75.0495
N125 G260
N126 M96
N127 M11 ;Beam OFF
N128 M53 ;ping pong from travel
 
;PART: 2
;CONTOUR: 1
[SP2SC1]
V.E.START_PART="SP2SC1"
V.E.ALL_CONTOURS="0"
;@@[DetailName(blacha5_006)]
V.E.ALL_CONTOURS="1"
N129 M115
N130 G138 G40 G00X123.8756Y393.8404 M57
N131 G90
N132 M50 ;Sensor ON
/N133 M10 ;Beam ON
N134 G131 V.E.ACC[14]
N135 G133 V.E.JERK[14]
#CONTOUR MODE [AUTO_DEV, PATH_DEV=0.1]
N136 G261
;(FastCut)
N137 T15 G41 ;(IGNORE_SIMULATION)
N138 M49 G01X120.4115Y391.8404 FV.E.FEEDRATE[14]   ;@@[ENTRY]
N139 G131 V.E.ACC[15]
N140 G133 V.E.JERK[15]
N141 G01X136.4702Y364.0258 FV.E.FEEDRATE[15]
N142 G01X104.3527Y308.3965
N143 G01X40.1176Y308.3965
N144 G01X8.0000Y364.0258
N145 G01X40.1176Y419.6550
N146 G01X104.3527Y419.6550
N147 G01X120.4115Y391.8404
N148 G260
N149 M96
N150 M11 ;Beam OFF
N151 M53 ;ping pong from travel
 
;PART: 3
;CONTOUR: 1
[SP3SC1]
V.E.START_PART="SP3SC1"
V.E.ALL_CONTOURS="0"
;@@[DetailName(blacha5_004)]
V.E.ALL_CONTOURS="1"
N152 M115
N153 G138 G40 G00X262.6662Y469.3650 M57
N154 G90
N155 M50 ;Sensor ON
/N156 M10 ;Beam ON
N157 G131 V.E.ACC[14]
N158 G133 V.E.JERK[14]
#CONTOUR MODE [AUTO_DEV, PATH_DEV=0.1]
N159 G261
;(FastCut)
N160 T15 G41 ;(IGNORE_SIMULATION)
N161 M49 G01X266.6662Y469.3650 FV.E.FEEDRATE[14]   ;@@[ENTRY]
N162 G131 V.E.ACC[15]
N163 G133 V.E.JERK[15]
N164 G01X433.2845Y469.3650 FV.E.FEEDRATE[15]
N165 G01X433.2845Y13.2531
N166 G01X266.6662Y13.2531
N167 G01X266.6662Y165.6344
N168 G01X8.0000Y165.6344
N169 G01X8.0000Y302.3965
N170 G01X266.6662Y302.3965
N171 G01X266.6662Y469.3650
N172 G260
N173 M96
N174 M11 ;Beam OFF
N175 M53 ;ping pong from travel
 
;PART: 4
;CONTOUR: 1
[SP4SC1]
V.E.START_PART="SP4SC1"
V.E.ALL_CONTOURS="0"
;@@[DetailName(blacha5_003)]
V.E.ALL_CONTOURS="1"
N176 M115
N177 G138 G40 G00X144.7747Y481.8504 M57
N178 G90
N179 M50 ;Sensor ON
/N180 M10 ;Beam ON
N181 G131 V.E.ACC[14]
N182 G133 V.E.JERK[14]
#CONTOUR MODE [AUTO_DEV, PATH_DEV=0.1]
N183 G261
;(FastCut)
N184 T15 G41 ;(IGNORE_SIMULATION)
N185 M49 G01X140.7747Y481.8504 FV.E.FEEDRATE[14]   ;@@[ENTRY]
N186 G131 V.E.ACC[15]
N187 G133 V.E.JERK[15]
N188 G01X8.0000Y481.8504 FV.E.FEEDRATE[15]
N189 G01X8.0000Y937.9623
N190 G01X356.7915Y937.9623
N191 G01X356.7915Y786.6130
N192 G01X140.7747Y786.6130
N193 G01X140.7747Y481.8504
N194 G260
N195 M96
N196 M11 ;Beam OFF
N197 M53 ;ping pong from travel
 
;PART: 5
;CONTOUR: 1
[SP5SC1]
V.E.START_PART="SP5SC1"
V.E.ALL_CONTOURS="0"
;@@[DetailName(blacha5_001)]
V.E.ALL_CONTOURS="1"
N198 M115
N199 G138 G40 G00X250.1203Y544.5048 M57
N200 G90
N201 M50 ;Sensor ON
/N202 M10 ;Beam ON
N203 G131 V.E.ACC[14]
N204 G133 V.E.JERK[14]
#CONTOUR MODE [AUTO_DEV, PATH_DEV=0.1]
N205 G261
;(FastCut)
N206 T15 G41 ;(IGNORE_SIMULATION)
N207 M49 G01X246.1203Y544.5048 FV.E.FEEDRATE[14]   ;@@[ENTRY]
N208 G131 V.E.ACC[15]
N209 G133 V.E.JERK[15]
N210 G01X246.1203Y358.0693 FV.E.FEEDRATE[15]
N211 G02X146.7747Y358.0693I-49.6728J0.0000
N212 G01X146.7747Y730.9402
N213 G02X246.1203Y730.9402I49.6728J0.0000
N214 G01X246.1203Y544.5048
N215 G260
N216 M96
N217 M11 ;Beam OFF
N218 M53 ;ping pong from travel
 
;PART: 6
;CONTOUR: 1
[SP6SC1]
V.E.START_PART="SP6SC1"
V.E.ALL_CONTOURS="0"
;@@[DetailName(blacha5_005)]
V.E.ALL_CONTOURS="1"
N219 M115
N220 G138 G40 G00X252.1203Y471.3650 M57
N221 G90
N222 M50 ;Sensor ON
/N223 M10 ;Beam ON
N224 G131 V.E.ACC[14]
N225 G133 V.E.JERK[14]
#CONTOUR MODE [AUTO_DEV, PATH_DEV=0.1]
N226 G261
;(FastCut)
N227 T15 G41 ;(IGNORE_SIMULATION)
N228 M49 G01X252.1203Y475.3650 FV.E.FEEDRATE[14]   ;@@[ENTRY]
N229 G131 V.E.ACC[15]
N230 G133 V.E.JERK[15]
N231 G01X252.1203Y736.3891 FV.E.FEEDRATE[15]
N232 G01X395.1564Y736.3891
N233 G01X395.1564Y475.3650
N234 G01X252.1203Y475.3650
N235 G260
N236 M96
N237 M11 ;Beam OFF
N238 M56 ;high
M13 ;Gas OFF
G40 G1X252.1203Y475.3650
;PROCESS_END
[END]
T0 ;(IGNORE_SIMULATION)
G04 0.1
M51
V.E.PROGRAM_STATE=3
G01 Z0 F100000
G04 0.1
$IF V.G.ACS_ACTIVE
#ACS OFF
$ENDIF
G131 100
$IF V.E.PS_AUTO_EXCHANGE
V.E.AUTO_EXCHANGE_PCH=TRUE
$ENDIF
V.E.PROGRAM_STATE=4
G04 0.1
M30
