;CK-AN Post V22.1 SP190  run on 2024.02.28
%_N_ARKUSZ_6001_MPF
;$PATH=/_N_WKS_DIR/_N_ARKUSZ_6001_WPD
; (MAIN PROGRAM)
;*MODEL EAG_INSPIRE_ERIS
;DATE FEB 28 2024 
;*SHEET 1000.0000 1000.0000 1.5 0 1 0.0000 0.0000
;START= BOTTOM-LEFT
;MAT Steel 1.5 
;*T100  B 0.2000  
;(Laser End)
;PROCESS_END
;Start questions
;NumberOfSheets=1
;TRC Active
G90
V.E.SHEET_X=1000.0000
V.E.SHEET_Y=1000.0000
V.E.MATERIAL="ST000-01.50M-N2-F0"
V.E.ESTIMATION_TIME="00:09"
V.E.CONTOURS_QTY=4
LAT/MainParam
$IF V.E.START_PART!="SP0SC0"
$GOTO V.E.START_PART 
$ENDIF
 
;PART: 1
;CONTOUR: 1
[SP1SC1]
V.E.START_PART="SP1SC1"
V.E.ALL_CONTOURS="0"
;@@[DetailName(blacha6_004)]
V.E.ALL_CONTOURS="1"
N111 M115
N112 G00X118.6937Y279.5902 M57
N113 G90
N114 M50 ;Sensor ON
/N115 M10 ;Beam ON
N116 G131 V.E.ACC[14]
N117 G133 V.E.JERK[14]
#CONTOUR MODE [AUTO_DEV, PATH_DEV=0.1]
N118 G261
;(FastCut)
N119 T15 G41 ;(IGNORE_SIMULATION)
N120 M49 G01X117.0114Y275.9612 FV.E.FEEDRATE[14]   ;@@[ENTRY]
N121 G131 V.E.ACC[15]
N122 G133 V.E.JERK[15]
N123 G01X226.0000Y225.4366 FV.E.FEEDRATE[15]
N124 G01X455.1368Y331.0925
N125 G01X455.1368Y8.0000
N126 G01X8.0227Y8.0000
N127 G01X8.0227Y326.4858
N128 G01X117.0114Y275.9612
N129 G260
N130 M96
N131 M11 ;Beam OFF
N132 M53 ;ping pong from travel
 
;PART: 2
;CONTOUR: 1
[SP2SC1]
V.E.START_PART="SP2SC1"
V.E.ALL_CONTOURS="0"
;@@[DetailName(blacha6_003)]
V.E.ALL_CONTOURS="1"
N133 M115
N134 G138 G40 G00X222.0991Y402.9270 M57
N135 G90
N136 M50 ;Sensor ON
/N137 M10 ;Beam ON
N138 G131 V.E.ACC[14]
N139 G133 V.E.JERK[14]
#CONTOUR MODE [AUTO_DEV, PATH_DEV=0.1]
N140 G261
;(FastCut)
N141 T15 G41 ;(IGNORE_SIMULATION)
N142 M49 G01X226.0135Y402.1038 FV.E.FEEDRATE[14]   ;@@[ENTRY]
N143 G131 V.E.ACC[15]
N144 G133 V.E.JERK[15]
N145 G01X455.1503Y353.9189 FV.E.FEEDRATE[15]
N146 G01X226.0135Y232.0689
N147 G01X8.0361Y358.1672
N148 G01X226.0135Y402.1038
N149 G260
N150 M96
N151 M11 ;Beam OFF
N152 M53 ;ping pong from travel
 
;PART: 3
;CONTOUR: 1
[SP3SC1]
V.E.START_PART="SP3SC1"
V.E.ALL_CONTOURS="0"
;@@[DetailName(blacha6_002)]
V.E.ALL_CONTOURS="1"
N153 M115
N154 G138 G40 G00X245.4098Y730.2828 M57
N155 G90
N156 M50 ;Sensor ON
/N157 M10 ;Beam ON
N158 G131 V.E.ACC[14]
N159 G133 V.E.JERK[14]
#CONTOUR MODE [AUTO_DEV, PATH_DEV=0.1]
N160 G261
;(FastCut)
N161 T15 G41 ;(IGNORE_SIMULATION)
N162 M49 G01X247.3113Y726.7636 FV.E.FEEDRATE[14]   ;@@[ENTRY]
N163 G131 V.E.ACC[15]
N164 G133 V.E.JERK[15]
N165 G01X419.4900Y408.1044 FV.E.FEEDRATE[15]
N166 G01X8.0000Y408.1044
N167 G01X8.0000Y884.6597
N168 G01X247.3113Y726.7636
N169 G260
N170 M96
N171 M11 ;Beam OFF
N172 M53 ;ping pong from travel
 
;PART: 4
;CONTOUR: 1
[SP4SC1]
V.E.START_PART="SP4SC1"
V.E.ALL_CONTOURS="0"
;@@[DetailName(blacha6_001)]
V.E.ALL_CONTOURS="1"
N173 M115
N174 G138 G40 G00X456.3718Y895.8401 M57
N175 G90
N176 M50 ;Sensor ON
/N177 M10 ;Beam ON
N178 G131 V.E.ACC[14]
N179 G133 V.E.JERK[14]
#CONTOUR MODE [AUTO_DEV, PATH_DEV=0.1]
N180 G261
;(FastCut)
N181 T15 G41 ;(IGNORE_SIMULATION)
N182 M49 G01X456.3718Y891.8401 FV.E.FEEDRATE[14]   ;@@[ENTRY]
N183 G131 V.E.ACC[15]
N184 G133 V.E.JERK[15]
N185 G01X456.3718Y377.8667 FV.E.FEEDRATE[15]
N186 G01X273.2005Y716.8704
N187 G01X8.0121Y891.8401
N188 G01X456.3718Y891.8401
N189 G260
N190 M96
N191 M11 ;Beam OFF
N192 M56 ;high
M13 ;Gas OFF
G40 G1X456.3718Y891.8401
;PROCESS_END
[END]
T0 ;(IGNORE_SIMULATION)
G04 0.1
M51
V.E.PROGRAM_STATE=3
G01 Z0 F100000
G04 0.1
$IF V.G.ACS_ACTIVE
#ACS OFF
$ENDIF
G131 100
$IF V.E.PS_AUTO_EXCHANGE
V.E.AUTO_EXCHANGE_PCH=TRUE
$ENDIF
V.E.PROGRAM_STATE=4
G04 0.1
M30
