;CK-AN Post V22.1 SP190  run on 2024.02.28
%_N_ARKUSZ_3001_MPF
;$PATH=/_N_WKS_DIR/_N_ARKUSZ_3001_WPD
; (MAIN PROGRAM)
;*MODEL EAG_INSPIRE_ERIS
;DATE FEB 28 2024 
;*SHEET 2000.0000 1000.0000 1.5 0 1 0.0000 0.0000
;START= BOTTOM-LEFT
;MAT Steel 1.5 
;*T100  B 0.2000  
;(Laser End)
;PROCESS_END
;Start questions
;NumberOfSheets=1
;TRC Active
G90
V.E.SHEET_X=2000.0000
V.E.SHEET_Y=1000.0000
V.E.MATERIAL="ST000-01.50M-N2-F0"
V.E.ESTIMATION_TIME="00:38"
V.E.CONTOURS_QTY=25
LAT/MainParam
$IF V.E.START_PART!="SP0SC0"
$GOTO V.E.START_PART 
$ENDIF
 
;PART: 1
;CONTOUR: 1
[SP1SC1]
V.E.START_PART="SP1SC1"
V.E.ALL_CONTOURS="0"
;@@[DetailName(blacha3_005)]
V.E.ALL_CONTOURS="1"
N111 M115
N112 G00X196.6053Y435.6789 M57
N113 G90
N114 M50 ;Sensor ON
/N115 M10 ;Beam ON
N116 G131 V.E.ACC[14]
N117 G133 V.E.JERK[14]
#CONTOUR MODE [AUTO_DEV, PATH_DEV=0.1]
N118 G261
;(FastCut)
N119 T15 G41 ;(IGNORE_SIMULATION)
N120 M49 G01X200.6028Y435.5376 FV.E.FEEDRATE[14]   ;@@[ENTRY]
N121 G131 V.E.ACC[15]
N122 G133 V.E.JERK[15]
N123 G01X290.3576Y432.3656 FV.E.FEEDRATE[15]
N124 G01X295.7959Y330.2251
N125 G01X192.5951Y227.4742
N126 G01X282.2415Y200.2461
N127 G01X238.1433Y125.9016
N128 G01X295.7979Y102.8919
N129 G01X278.3281Y16.1415
N130 G01X125.5134Y8.0052
N131 G01X88.2644Y14.9168
N132 G01X23.4628Y43.8058
N133 G01X78.9557Y56.2910
N134 G01X119.4499Y133.3649
N135 G01X24.3427Y80.6114
N136 G01X8.0043Y154.8204
N137 G01X71.3937Y247.7718
N138 G01X9.0396Y290.2950
N139 G01X16.9598Y388.9336
N140 G01X81.5278Y424.7478
N141 G01X193.5996Y348.3190
N142 G01X200.6028Y435.5376
N143 G260
N144 M96
N145 M11 ;Beam OFF
N146 M53 ;ping pong from travel
 
;PART: 2
;CONTOUR: 1
[SP2SC1]
V.E.START_PART="SP2SC1"
V.E.ALL_CONTOURS="0"
;@@[DetailName(blacha3_004)]
V.E.ALL_CONTOURS="1"
N147 M115
N148 G138 G40 G00X214.0000Y475.5495 M57
N149 G90
N150 M50 ;Sensor ON
/N151 M10 ;Beam ON
N152 G131 V.E.ACC[14]
N153 G133 V.E.JERK[14]
#CONTOUR MODE [AUTO_DEV, PATH_DEV=0.1]
N154 G261
;(FastCut)
N155 T15 G41 ;(IGNORE_SIMULATION)
N156 M49 G01X214.0000Y471.5495 FV.E.FEEDRATE[14]   ;@@[ENTRY]
N157 G131 V.E.ACC[15]
N158 G133 V.E.JERK[15]
N159 G01X214.0000Y441.5495 FV.E.FEEDRATE[15]
N160 G01X144.0000Y441.5495
N161 G01X144.0000Y411.5495
N162 G01X114.0000Y411.5495
N163 G01X114.0000Y501.5495
N164 G01X144.0000Y501.5495
N165 G01X144.0000Y471.5495
N166 G01X214.0000Y471.5495
N167 G260
N168 M96
N169 M11 ;Beam OFF
N170 M53 ;ping pong from travel
 
;PART: 3
;CONTOUR: 1
[SP3SC1]
V.E.START_PART="SP3SC1"
V.E.ALL_CONTOURS="0"
;@@[DetailName(blacha3_004)]
V.E.ALL_CONTOURS="1"
N171 M115
N172 G138 G40 G00X216.0000Y537.5495 M57
N173 G90
N174 M50 ;Sensor ON
/N175 M10 ;Beam ON
N176 G131 V.E.ACC[14]
N177 G133 V.E.JERK[14]
#CONTOUR MODE [AUTO_DEV, PATH_DEV=0.1]
N178 G261
;(FastCut)
N179 T15 G41 ;(IGNORE_SIMULATION)
N180 M49 G01X220.0000Y537.5495 FV.E.FEEDRATE[14]   ;@@[ENTRY]
N181 G131 V.E.ACC[15]
N182 G133 V.E.JERK[15]
N183 G01X250.0000Y537.5495 FV.E.FEEDRATE[15]
N184 G01X250.0000Y447.5495
N185 G01X220.0000Y447.5495
N186 G01X220.0000Y477.5495
N187 G01X150.0000Y477.5495
N188 G01X150.0000Y507.5495
N189 G01X220.0000Y507.5495
N190 G01X220.0000Y537.5495
N191 G260
N192 M96
N193 M11 ;Beam OFF
N194 M53 ;ping pong from travel
 
;PART: 4
;CONTOUR: 1
[SP4SC1]
V.E.START_PART="SP4SC1"
V.E.ALL_CONTOURS="0"
;@@[DetailName(blacha3_004)]
V.E.ALL_CONTOURS="1"
N195 M115
N196 G138 G40 G00X214.0000Y571.5495 M57
N197 G90
N198 M50 ;Sensor ON
/N199 M10 ;Beam ON
N200 G131 V.E.ACC[14]
N201 G133 V.E.JERK[14]
#CONTOUR MODE [AUTO_DEV, PATH_DEV=0.1]
N202 G261
;(FastCut)
N203 T15 G41 ;(IGNORE_SIMULATION)
N204 M49 G01X214.0000Y567.5495 FV.E.FEEDRATE[14]   ;@@[ENTRY]
N205 G131 V.E.ACC[15]
N206 G133 V.E.JERK[15]
N207 G01X214.0000Y537.5495 FV.E.FEEDRATE[15]
N208 G01X144.0000Y537.5495
N209 G01X144.0000Y507.5495
N210 G01X114.0000Y507.5495
N211 G01X114.0000Y597.5495
N212 G01X144.0000Y597.5495
N213 G01X144.0000Y567.5495
N214 G01X214.0000Y567.5495
N215 G260
N216 M96
N217 M11 ;Beam OFF
N218 M53 ;ping pong from travel
 
;PART: 5
;CONTOUR: 1
[SP5SC1]
V.E.START_PART="SP5SC1"
V.E.ALL_CONTOURS="0"
;@@[DetailName(blacha3_004)]
V.E.ALL_CONTOURS="1"
N219 M115
N220 G138 G40 G00X216.0000Y633.5495 M57
N221 G90
N222 M50 ;Sensor ON
/N223 M10 ;Beam ON
N224 G131 V.E.ACC[14]
N225 G133 V.E.JERK[14]
#CONTOUR MODE [AUTO_DEV, PATH_DEV=0.1]
N226 G261
;(FastCut)
N227 T15 G41 ;(IGNORE_SIMULATION)
N228 M49 G01X220.0000Y633.5495 FV.E.FEEDRATE[14]   ;@@[ENTRY]
N229 G131 V.E.ACC[15]
N230 G133 V.E.JERK[15]
N231 G01X250.0000Y633.5495 FV.E.FEEDRATE[15]
N232 G01X250.0000Y543.5495
N233 G01X220.0000Y543.5495
N234 G01X220.0000Y573.5495
N235 G01X150.0000Y573.5495
N236 G01X150.0000Y603.5495
N237 G01X220.0000Y603.5495
N238 G01X220.0000Y633.5495
N239 G260
N240 M96
N241 M11 ;Beam OFF
N242 M53 ;ping pong from travel
 
;PART: 6
;CONTOUR: 1
[SP6SC1]
V.E.START_PART="SP6SC1"
V.E.ALL_CONTOURS="0"
;@@[DetailName(blacha3_001)]
V.E.ALL_CONTOURS="1"
N243 M115
N244 G138 G40 G00X210.0000Y663.5495 M57
N245 G90
N246 M50 ;Sensor ON
/N247 M10 ;Beam ON
N248 G131 V.E.ACC[14]
N249 G133 V.E.JERK[14]
#CONTOUR MODE [AUTO_DEV, PATH_DEV=0.1]
N250 G261
;(FastCut)
N251 T15 G41 ;(IGNORE_SIMULATION)
N252 M49 G01X210.0000Y659.5495 FV.E.FEEDRATE[14]   ;@@[ENTRY]
N253 G131 V.E.ACC[15]
N254 G133 V.E.JERK[15]
N255 G01X250.0000Y659.5495 FV.E.FEEDRATE[15]
N256 G01X250.0000Y639.5495
N257 G01X190.0000Y639.5495
N258 G01X190.0000Y609.5495
N259 G01X170.0000Y609.5495
N260 G01X170.0000Y659.5495
N261 G01X210.0000Y659.5495
N262 G260
N263 M96
N264 M11 ;Beam OFF
N265 M53 ;ping pong from travel
 
;PART: 7
;CONTOUR: 1
[SP7SC1]
V.E.START_PART="SP7SC1"
V.E.ALL_CONTOURS="0"
;@@[DetailName(blacha3_001)]
V.E.ALL_CONTOURS="1"
N266 M115
N267 G138 G40 G00X222.0000Y685.5495 M57
N268 G90
N269 M50 ;Sensor ON
/N270 M10 ;Beam ON
N271 G131 V.E.ACC[14]
N272 G133 V.E.JERK[14]
#CONTOUR MODE [AUTO_DEV, PATH_DEV=0.1]
N273 G261
;(FastCut)
N274 T15 G41 ;(IGNORE_SIMULATION)
N275 M49 G01X226.0000Y685.5495 FV.E.FEEDRATE[14]   ;@@[ENTRY]
N276 G131 V.E.ACC[15]
N277 G133 V.E.JERK[15]
N278 G01X276.0000Y685.5495 FV.E.FEEDRATE[15]
N279 G01X276.0000Y605.5495
N280 G01X256.0000Y605.5495
N281 G01X256.0000Y665.5495
N282 G01X226.0000Y665.5495
N283 G01X226.0000Y685.5495
N284 G260
N285 M96
N286 M11 ;Beam OFF
N287 M53 ;ping pong from travel
 
;PART: 8
;CONTOUR: 1
[SP8SC1]
V.E.START_PART="SP8SC1"
V.E.ALL_CONTOURS="0"
;@@[DetailName(blacha3_001)]
V.E.ALL_CONTOURS="1"
N288 M115
N289 G138 G40 G00X194.0000Y745.5495 M57
N290 G90
N291 M50 ;Sensor ON
/N292 M10 ;Beam ON
N293 G131 V.E.ACC[14]
N294 G133 V.E.JERK[14]
#CONTOUR MODE [AUTO_DEV, PATH_DEV=0.1]
N295 G261
;(FastCut)
N296 T15 G42 ;(IGNORE_SIMULATION)
N297 M49 G01X190.0000Y745.5495 FV.E.FEEDRATE[14]   ;@@[ENTRY]
N298 G131 V.E.ACC[15]
N299 G133 V.E.JERK[15]
N300 G01X170.0000Y745.5495 FV.E.FEEDRATE[15]
N301 G01X170.0000Y665.5495
N302 G01X220.0000Y665.5495
N303 G01X220.0000Y685.5495
N304 G01X190.0000Y685.5495
N305 G01X190.0000Y745.5495
N306 G260
N307 M96
N308 M11 ;Beam OFF
N309 M53 ;ping pong from travel
 
;PART: 9
;CONTOUR: 1
[SP9SC1]
V.E.START_PART="SP9SC1"
V.E.ALL_CONTOURS="0"
;@@[DetailName(blacha3_001)]
V.E.ALL_CONTOURS="1"
N310 M115
N311 G138 G40 G00X224.0000Y771.5495 M57
N312 G90
N313 M50 ;Sensor ON
/N314 M10 ;Beam ON
N315 G131 V.E.ACC[14]
N316 G133 V.E.JERK[14]
#CONTOUR MODE [AUTO_DEV, PATH_DEV=0.1]
N317 G261
;(FastCut)
N318 T15 G42 ;(IGNORE_SIMULATION)
N319 M49 G01X220.0000Y771.5495 FV.E.FEEDRATE[14]   ;@@[ENTRY]
N320 G131 V.E.ACC[15]
N321 G133 V.E.JERK[15]
N322 G01X170.0000Y771.5495 FV.E.FEEDRATE[15]
N323 G01X170.0000Y751.5495
N324 G01X200.0000Y751.5495
N325 G01X200.0000Y691.5495
N326 G01X220.0000Y691.5495
N327 G01X220.0000Y771.5495
N328 G260
N329 M96
N330 M11 ;Beam OFF
N331 M53 ;ping pong from travel
 
;PART: 10
;CONTOUR: 1
[SP10SC1]
V.E.START_PART="SP10SC1"
V.E.ALL_CONTOURS="0"
;@@[DetailName(blacha3_001)]
V.E.ALL_CONTOURS="1"
N332 M115
N333 G138 G40 G00X226.0000Y775.5495 M57
N334 G90
N335 M50 ;Sensor ON
/N336 M10 ;Beam ON
N337 G131 V.E.ACC[14]
N338 G133 V.E.JERK[14]
#CONTOUR MODE [AUTO_DEV, PATH_DEV=0.1]
N339 G261
;(FastCut)
N340 T15 G42 ;(IGNORE_SIMULATION)
N341 M49 G01X226.0000Y771.5495 FV.E.FEEDRATE[14]   ;@@[ENTRY]
N342 G131 V.E.ACC[15]
N343 G133 V.E.JERK[15]
N344 G01X226.0000Y691.5495 FV.E.FEEDRATE[15]
N345 G01X276.0000Y691.5495
N346 G01X276.0000Y711.5495
N347 G01X246.0000Y711.5495
N348 G01X246.0000Y771.5495
N349 G01X226.0000Y771.5495
N350 G260
N351 M96
N352 M11 ;Beam OFF
N353 M53 ;ping pong from travel
 
;PART: 11
;CONTOUR: 1
[SP11SC1]
V.E.START_PART="SP11SC1"
V.E.ALL_CONTOURS="0"
;@@[DetailName(blacha3_001)]
V.E.ALL_CONTOURS="1"
N354 M115
N355 G138 G40 G00X218.0000Y797.5495 M57
N356 G90
N357 M50 ;Sensor ON
/N358 M10 ;Beam ON
N359 G131 V.E.ACC[14]
N360 G133 V.E.JERK[14]
#CONTOUR MODE [AUTO_DEV, PATH_DEV=0.1]
N361 G261
;(FastCut)
N362 T15 G41 ;(IGNORE_SIMULATION)
N363 M49 G01X222.0000Y797.5495 FV.E.FEEDRATE[14]   ;@@[ENTRY]
N364 G131 V.E.ACC[15]
N365 G133 V.E.JERK[15]
N366 G01X272.0000Y797.5495 FV.E.FEEDRATE[15]
N367 G01X272.0000Y717.5495
N368 G01X252.0000Y717.5495
N369 G01X252.0000Y777.5495
N370 G01X222.0000Y777.5495
N371 G01X222.0000Y797.5495
N372 G260
N373 M96
N374 M11 ;Beam OFF
N375 M53 ;ping pong from travel
 
;PART: 12
;CONTOUR: 1
[SP12SC1]
V.E.START_PART="SP12SC1"
V.E.ALL_CONTOURS="0"
;@@[DetailName(blacha3_002)]
V.E.ALL_CONTOURS="1"
N376 M115
N377 G138 G40 G00X212.0000Y867.5495 M57
N378 G90
N379 M50 ;Sensor ON
/N380 M10 ;Beam ON
N381 G131 V.E.ACC[14]
N382 G133 V.E.JERK[14]
#CONTOUR MODE [AUTO_DEV, PATH_DEV=0.1]
N383 G261
;(FastCut)
N384 T15 G42 ;(IGNORE_SIMULATION)
N385 M49 G01X212.0000Y863.5495 FV.E.FEEDRATE[14]   ;@@[ENTRY]
N386 G131 V.E.ACC[15]
N387 G133 V.E.JERK[15]
N388 G01X212.0000Y803.5495 FV.E.FEEDRATE[15]
N389 G01X272.0000Y803.5495
N390 G01X272.0000Y863.5495
N391 G01X212.0000Y863.5495
N392 G260
N393 M96
N394 M11 ;Beam OFF
N395 M53 ;ping pong from travel
 
;PART: 13
;CONTOUR: 1
[SP13SC1]
V.E.START_PART="SP13SC1"
V.E.ALL_CONTOURS="0"
;@@[DetailName(blacha3_002)]
V.E.ALL_CONTOURS="1"
N396 M115
N397 G138 G40 G00X142.0000Y863.5495 M57
N398 G90
N399 M50 ;Sensor ON
/N400 M10 ;Beam ON
N401 G131 V.E.ACC[14]
N402 G133 V.E.JERK[14]
#CONTOUR MODE [AUTO_DEV, PATH_DEV=0.1]
N403 G261
;(FastCut)
N404 T15 G41 ;(IGNORE_SIMULATION)
N405 M49 G01X146.0000Y863.5495 FV.E.FEEDRATE[14]   ;@@[ENTRY]
N406 G131 V.E.ACC[15]
N407 G133 V.E.JERK[15]
N408 G01X146.0000Y893.5495 FV.E.FEEDRATE[15]
N409 G01X206.0000Y893.5495
N410 G01X206.0000Y833.5495
N411 G01X146.0000Y833.5495
N412 G01X146.0000Y863.5495
N413 G260
N414 M96
N415 M11 ;Beam OFF
N416 M53 ;ping pong from travel
 
;PART: 14
;CONTOUR: 1
[SP14SC1]
V.E.START_PART="SP14SC1"
V.E.ALL_CONTOURS="0"
;@@[DetailName(blacha3_001)]
V.E.ALL_CONTOURS="1"
N417 M115
N418 G138 G40 G00X116.0000Y876.7642 M57
N419 G90
N420 M50 ;Sensor ON
/N421 M10 ;Beam ON
N422 G131 V.E.ACC[14]
N423 G133 V.E.JERK[14]
#CONTOUR MODE [AUTO_DEV, PATH_DEV=0.1]
N424 G261
;(FastCut)
N425 T15 G41 ;(IGNORE_SIMULATION)
N426 M49 G01X116.0000Y880.7642 FV.E.FEEDRATE[14]   ;@@[ENTRY]
N427 G131 V.E.ACC[15]
N428 G133 V.E.JERK[15]
N429 G01X116.0000Y930.7642 FV.E.FEEDRATE[15]
N430 G01X196.0000Y930.7642
N431 G01X196.0000Y910.7642
N432 G01X136.0000Y910.7642
N433 G01X136.0000Y880.7642
N434 G01X116.0000Y880.7642
N435 G260
N436 M96
N437 M11 ;Beam OFF
N438 M53 ;ping pong from travel
 
;PART: 15
;CONTOUR: 1
[SP15SC1]
V.E.START_PART="SP15SC1"
V.E.ALL_CONTOURS="0"
;@@[DetailName(blacha3_001)]
V.E.ALL_CONTOURS="1"
N439 M115
N440 G138 G40 G00X86.0000Y854.7642 M57
N441 G90
N442 M50 ;Sensor ON
/N443 M10 ;Beam ON
N444 G131 V.E.ACC[14]
N445 G133 V.E.JERK[14]
#CONTOUR MODE [AUTO_DEV, PATH_DEV=0.1]
N446 G261
;(FastCut)
N447 T15 G42 ;(IGNORE_SIMULATION)
N448 M49 G01X90.0000Y854.7642 FV.E.FEEDRATE[14]   ;@@[ENTRY]
N449 G131 V.E.ACC[15]
N450 G133 V.E.JERK[15]
N451 G01X140.0000Y854.7642 FV.E.FEEDRATE[15]
N452 G01X140.0000Y874.7642
N453 G01X110.0000Y874.7642
N454 G01X110.0000Y934.7642
N455 G01X90.0000Y934.7642
N456 G01X90.0000Y854.7642
N457 G260
N458 M96
N459 M11 ;Beam OFF
N460 M53 ;ping pong from travel
 
;PART: 16
;CONTOUR: 1
[SP16SC1]
V.E.START_PART="SP16SC1"
V.E.ALL_CONTOURS="0"
;@@[DetailName(blacha3_001)]
V.E.ALL_CONTOURS="1"
N461 M115
N462 G138 G40 G00X60.0000Y854.7642 M57
N463 G90
N464 M50 ;Sensor ON
/N465 M10 ;Beam ON
N466 G131 V.E.ACC[14]
N467 G133 V.E.JERK[14]
#CONTOUR MODE [AUTO_DEV, PATH_DEV=0.1]
N468 G261
;(FastCut)
N469 T15 G42 ;(IGNORE_SIMULATION)
N470 M49 G01X64.0000Y854.7642 FV.E.FEEDRATE[14]   ;@@[ENTRY]
N471 G131 V.E.ACC[15]
N472 G133 V.E.JERK[15]
N473 G01X84.0000Y854.7642 FV.E.FEEDRATE[15]
N474 G01X84.0000Y934.7642
N475 G01X34.0000Y934.7642
N476 G01X34.0000Y914.7642
N477 G01X64.0000Y914.7642
N478 G01X64.0000Y854.7642
N479 G260
N480 M96
N481 M11 ;Beam OFF
N482 M53 ;ping pong from travel
 
;PART: 17
;CONTOUR: 1
[SP17SC1]
V.E.START_PART="SP17SC1"
V.E.ALL_CONTOURS="0"
;@@[DetailName(blacha3_001)]
V.E.ALL_CONTOURS="1"
N483 M115
N484 G138 G40 G00X62.0000Y854.7642 M57
N485 G90
N486 M50 ;Sensor ON
/N487 M10 ;Beam ON
N488 G131 V.E.ACC[14]
N489 G133 V.E.JERK[14]
#CONTOUR MODE [AUTO_DEV, PATH_DEV=0.1]
N490 G261
;(FastCut)
N491 T15 G41 ;(IGNORE_SIMULATION)
N492 M49 G01X58.0000Y854.7642 FV.E.FEEDRATE[14]   ;@@[ENTRY]
N493 G131 V.E.ACC[15]
N494 G133 V.E.JERK[15]
N495 G01X8.0000Y854.7642 FV.E.FEEDRATE[15]
N496 G01X8.0000Y934.7642
N497 G01X28.0000Y934.7642
N498 G01X28.0000Y874.7642
N499 G01X58.0000Y874.7642
N500 G01X58.0000Y854.7642
N501 G260
N502 M96
N503 M11 ;Beam OFF
N504 M53 ;ping pong from travel
 
;PART: 18
;CONTOUR: 1
[SP18SC1]
V.E.START_PART="SP18SC1"
V.E.ALL_CONTOURS="0"
;@@[DetailName(blacha3_003)]
V.E.ALL_CONTOURS="1"
N505 M115
N506 G138 G40 G00X108.0000Y684.7642 M57
N507 G90
N508 M50 ;Sensor ON
/N509 M10 ;Beam ON
N510 G131 V.E.ACC[14]
N511 G133 V.E.JERK[14]
#CONTOUR MODE [AUTO_DEV, PATH_DEV=0.1]
N512 G261
;(FastCut)
N513 T15 G42 ;(IGNORE_SIMULATION)
N514 M49 G01X108.0000Y688.7642 FV.E.FEEDRATE[14]   ;@@[ENTRY]
N515 G131 V.E.ACC[15]
N516 G133 V.E.JERK[15]
N517 G01X108.0000Y848.7642 FV.E.FEEDRATE[15]
N518 G01X8.0000Y848.7642
N519 G01X8.0000Y808.7642
N520 G01X68.0000Y808.7642
N521 G01X68.0000Y688.7642
N522 G01X108.0000Y688.7642
N523 G260
N524 M96
N525 M11 ;Beam OFF
N526 M53 ;ping pong from travel
 
;PART: 19
;CONTOUR: 1
[SP19SC1]
V.E.START_PART="SP19SC1"
V.E.ALL_CONTOURS="0"
;@@[DetailName(blacha3_003)]
V.E.ALL_CONTOURS="1"
N527 M115
N528 G138 G40 G00X112.0000Y682.7642 M57
N529 G90
N530 M50 ;Sensor ON
/N531 M10 ;Beam ON
N532 G131 V.E.ACC[14]
N533 G133 V.E.JERK[14]
#CONTOUR MODE [AUTO_DEV, PATH_DEV=0.1]
N534 G261
;(FastCut)
N535 T15 G42 ;(IGNORE_SIMULATION)
N536 M49 G01X108.0000Y682.7642 FV.E.FEEDRATE[14]   ;@@[ENTRY]
N537 G131 V.E.ACC[15]
N538 G133 V.E.JERK[15]
N539 G01X48.0000Y682.7642 FV.E.FEEDRATE[15]
N540 G01X48.0000Y802.7642
N541 G01X8.0000Y802.7642
N542 G01X8.0000Y642.7642
N543 G01X108.0000Y642.7642
N544 G01X108.0000Y682.7642
N545 G260
N546 M96
N547 M11 ;Beam OFF
N548 M53 ;ping pong from travel
 
;PART: 20
;CONTOUR: 1
[SP20SC1]
V.E.START_PART="SP20SC1"
V.E.ALL_CONTOURS="0"
;@@[DetailName(blacha3_001)]
V.E.ALL_CONTOURS="1"
N549 M115
N550 G138 G40 G00X149.0000Y745.5495 M57
N551 G90
N552 M50 ;Sensor ON
/N553 M10 ;Beam ON
N554 G131 V.E.ACC[14]
N555 G133 V.E.JERK[14]
#CONTOUR MODE [AUTO_DEV, PATH_DEV=0.1]
N556 G261
;(FastCut)
N557 T15 G41 ;(IGNORE_SIMULATION)
N558 M49 G01X149.0000Y741.5495 FV.E.FEEDRATE[14]   ;@@[ENTRY]
N559 G131 V.E.ACC[15]
N560 G133 V.E.JERK[15]
N561 G01X164.0000Y741.5495 FV.E.FEEDRATE[15]
N562 G01X164.0000Y721.5495
N563 G01X114.0000Y721.5495
N564 G01X114.0000Y801.5495
N565 G01X134.0000Y801.5495
N566 G01X134.0000Y741.5495
N567 G01X149.0000Y741.5495
N568 G260
N569 M96
N570 M11 ;Beam OFF
N571 M53 ;ping pong from travel
 
;PART: 21
;CONTOUR: 1
[SP21SC1]
V.E.START_PART="SP21SC1"
V.E.ALL_CONTOURS="0"
;@@[DetailName(blacha3_001)]
V.E.ALL_CONTOURS="1"
N572 M115
N573 G138 G40 G00X140.0000Y747.5495 M57
N574 G90
N575 M50 ;Sensor ON
/N576 M10 ;Beam ON
N577 G131 V.E.ACC[14]
N578 G133 V.E.JERK[14]
#CONTOUR MODE [AUTO_DEV, PATH_DEV=0.1]
N579 G261
;(FastCut)
N580 T15 G42 ;(IGNORE_SIMULATION)
N581 M49 G01X144.0000Y747.5495 FV.E.FEEDRATE[14]   ;@@[ENTRY]
N582 G131 V.E.ACC[15]
N583 G133 V.E.JERK[15]
N584 G01X164.0000Y747.5495 FV.E.FEEDRATE[15]
N585 G01X164.0000Y827.5495
N586 G01X114.0000Y827.5495
N587 G01X114.0000Y807.5495
N588 G01X144.0000Y807.5495
N589 G01X144.0000Y747.5495
N590 G260
N591 M96
N592 M11 ;Beam OFF
N593 M53 ;ping pong from travel
 
;PART: 22
;CONTOUR: 1
[SP22SC1]
V.E.START_PART="SP22SC1"
V.E.ALL_CONTOURS="0"
;@@[DetailName(blacha3_001)]
V.E.ALL_CONTOURS="1"
N594 M115
N595 G138 G40 G00X140.0000Y635.5495 M57
N596 G90
N597 M50 ;Sensor ON
/N598 M10 ;Beam ON
N599 G131 V.E.ACC[14]
N600 G133 V.E.JERK[14]
#CONTOUR MODE [AUTO_DEV, PATH_DEV=0.1]
N601 G261
;(FastCut)
N602 T15 G42 ;(IGNORE_SIMULATION)
N603 M49 G01X144.0000Y635.5495 FV.E.FEEDRATE[14]   ;@@[ENTRY]
N604 G131 V.E.ACC[15]
N605 G133 V.E.JERK[15]
N606 G01X164.0000Y635.5495 FV.E.FEEDRATE[15]
N607 G01X164.0000Y715.5495
N608 G01X114.0000Y715.5495
N609 G01X114.0000Y695.5495
N610 G01X144.0000Y695.5495
N611 G01X144.0000Y635.5495
N612 G260
N613 M96
N614 M11 ;Beam OFF
N615 M53 ;ping pong from travel
 
;PART: 23
;CONTOUR: 1
[SP23SC1]
V.E.START_PART="SP23SC1"
V.E.ALL_CONTOURS="0"
;@@[DetailName(blacha3_001)]
V.E.ALL_CONTOURS="1"
N616 M115
N617 G138 G40 G00X110.0000Y609.5495 M57
N618 G90
N619 M50 ;Sensor ON
/N620 M10 ;Beam ON
N621 G131 V.E.ACC[14]
N622 G133 V.E.JERK[14]
#CONTOUR MODE [AUTO_DEV, PATH_DEV=0.1]
N623 G261
;(FastCut)
N624 T15 G42 ;(IGNORE_SIMULATION)
N625 M49 G01X114.0000Y609.5495 FV.E.FEEDRATE[14]   ;@@[ENTRY]
N626 G131 V.E.ACC[15]
N627 G133 V.E.JERK[15]
N628 G01X164.0000Y609.5495 FV.E.FEEDRATE[15]
N629 G01X164.0000Y629.5495
N630 G01X134.0000Y629.5495
N631 G01X134.0000Y689.5495
N632 G01X114.0000Y689.5495
N633 G01X114.0000Y609.5495
N634 G260
N635 M96
N636 M11 ;Beam OFF
N637 M53 ;ping pong from travel
 
;PART: 24
;CONTOUR: 1
[SP24SC1]
V.E.START_PART="SP24SC1"
V.E.ALL_CONTOURS="0"
;@@[DetailName(blacha3_003)]
V.E.ALL_CONTOURS="1"
N638 M115
N639 G138 G40 G00X64.0000Y476.7642 M57
N640 G90
N641 M50 ;Sensor ON
/N642 M10 ;Beam ON
N643 G131 V.E.ACC[14]
N644 G133 V.E.JERK[14]
#CONTOUR MODE [AUTO_DEV, PATH_DEV=0.1]
N645 G261
;(FastCut)
N646 T15 G42 ;(IGNORE_SIMULATION)
N647 M49 G01X68.0000Y476.7642 FV.E.FEEDRATE[14]   ;@@[ENTRY]
N648 G131 V.E.ACC[15]
N649 G133 V.E.JERK[15]
N650 G01X108.0000Y476.7642 FV.E.FEEDRATE[15]
N651 G01X108.0000Y636.7642
N652 G01X8.0000Y636.7642
N653 G01X8.0000Y596.7642
N654 G01X68.0000Y596.7642
N655 G01X68.0000Y476.7642
N656 G260
N657 M96
N658 M11 ;Beam OFF
N659 M53 ;ping pong from travel
 
;PART: 25
;CONTOUR: 1
[SP25SC1]
V.E.START_PART="SP25SC1"
V.E.ALL_CONTOURS="0"
;@@[DetailName(blacha3_003)]
V.E.ALL_CONTOURS="1"
N660 M115
N661 G138 G40 G00X4.0000Y430.7642 M57
N662 G90
N663 M50 ;Sensor ON
/N664 M10 ;Beam ON
N665 G131 V.E.ACC[14]
N666 G133 V.E.JERK[14]
#CONTOUR MODE [AUTO_DEV, PATH_DEV=0.1]
N667 G261
;(FastCut)
N668 T15 G42 ;(IGNORE_SIMULATION)
N669 M49 G01X8.0000Y430.7642 FV.E.FEEDRATE[14]   ;@@[ENTRY]
N670 G131 V.E.ACC[15]
N671 G133 V.E.JERK[15]
N672 G01X108.0000Y430.7642 FV.E.FEEDRATE[15]
N673 G01X108.0000Y470.7642
N674 G01X48.0000Y470.7642
N675 G01X48.0000Y590.7642
N676 G01X8.0000Y590.7642
N677 G01X8.0000Y430.7642
N678 G260
N679 M96
N680 M11 ;Beam OFF
N681 M56 ;high
M13 ;Gas OFF
G40 G1X8.0000Y430.7642
;PROCESS_END
[END]
T0 ;(IGNORE_SIMULATION)
G04 0.1
M51
V.E.PROGRAM_STATE=3
G01 Z0 F100000
G04 0.1
$IF V.G.ACS_ACTIVE
#ACS OFF
$ENDIF
G131 100
$IF V.E.PS_AUTO_EXCHANGE
V.E.AUTO_EXCHANGE_PCH=TRUE
$ENDIF
V.E.PROGRAM_STATE=4
G04 0.1
M30
